LUT/LUT_39.CUBE
TITLE "LUT_39" 
#LUT size 
LUT_3D_SIZE 8 
DOMAIN_MIN 0.0 0.0 0.0 
DOMAIN_MAX 1.0 1.0 1.0 
#data point 
0.079270  0.076824  0.036862
0.108960  0.096692  0.052495
0.169305  0.149343  0.073216
0.305533  0.237710  0.076941
0.405865  0.303677  0.080950
0.506488  0.374576  0.072934
0.609285  0.430232  0.065438
0.714948  0.502340  0.065880
0.121104  0.110500  0.053674
0.123737  0.114007  0.051663
0.225226  0.203540  0.097483
0.349043  0.274638  0.087918
0.458061  0.340867  0.088012
0.536252  0.395760  0.083157
0.641396  0.467710  0.079479
0.736748  0.535685  0.062490
0.137925  0.138010  0.081500
0.204014  0.186886  0.098368
0.287630  0.243525  0.094136
0.393686  0.314479  0.090115
0.485584  0.361988  0.078473
0.590560  0.453101  0.090159
0.681901  0.518023  0.077049
0.796473  0.577847  0.070215
0.218217  0.191843  0.092496
0.307115  0.260853  0.107208
0.375815  0.297040  0.102705
0.453774  0.347512  0.087567
0.542986  0.419622  0.083873
0.643664  0.488004  0.081996
0.733265  0.557008  0.093510
0.845816  0.620333  0.081577
0.302978  0.262633  0.124692
0.382489  0.294718  0.094198
0.472596  0.360581  0.093725
0.526009  0.407371  0.094779
0.610059  0.481595  0.082496
0.693758  0.559135  0.082382
0.801244  0.617718  0.089659
0.908401  0.696124  0.089587
0.380026  0.308214  0.122062
0.468735  0.370347  0.097746
0.551259  0.435827  0.097851
0.613619  0.474824  0.097926
0.706394  0.578700  0.084784
0.783853  0.640487  0.080886
0.859531  0.699411  0.087815
0.947736  0.752093  0.098239
0.466545  0.361075  0.097021
0.523781  0.420318  0.099832
0.624344  0.494292  0.086863
0.695534  0.564258  0.081349
0.762920  0.626136  0.096392
0.827189  0.667258  0.082718
0.908599  0.736209  0.086486
1.020552  0.784425  0.090420
0.539594  0.426359  0.100881
0.629679  0.503620  0.102445
0.687351  0.551694  0.085421
0.743790  0.606257  0.094861
0.802630  0.647185  0.082420
0.884156  0.708606  0.098517
0.968306  0.766875  0.103073
1.080918  0.823698  0.090379
0.109517  0.103500  0.049724
0.118344  0.114855  0.066471
0.183512  0.168466  0.082308
0.282696  0.233524  0.091915
0.406676  0.312184  0.082573
0.505797  0.381858  0.073165
0.598353  0.447132  0.079379
0.725809  0.493426  0.073229
0.133863  0.129156  0.072650
0.160661  0.154163  0.093768
0.216167  0.202302  0.111070
0.309848  0.265110  0.116560
0.431344  0.341930  0.099126
0.550886  0.414182  0.089057
0.659916  0.485282  0.074173
0.739272  0.532034  0.072525
0.156046  0.162617  0.117061
0.197751  0.202420  0.152246
0.276587  0.260562  0.154996
0.382861  0.317124  0.129762
0.492357  0.376860  0.122516
0.589952  0.446585  0.107362
0.682932  0.509110  0.092277
0.792594  0.595338  0.093894
0.206758  0.231042  0.187527
0.263822  0.261849  0.194010
0.335919  0.295963  0.160252
0.441246  0.360662  0.148637
0.526413  0.403702  0.134252
0.627436  0.491657  0.134177
0.743321  0.565058  0.130862
0.838279  0.638154  0.094039
0.291161  0.279548  0.202051
0.334563  0.301322  0.181444
0.420584  0.374378  0.194379
0.531043  0.440637  0.181028
0.617322  0.496706  0.119361
0.708723  0.566953  0.104534
0.793878  0.625774  0.123956
0.902679  0.691246  0.116720
0.364598  0.329658  0.195195
0.431060  0.383580  0.196071
0.501710  0.420067  0.163510
0.580079  0.473785  0.147039
0.684353  0.565687  0.111857
0.765641  0.627643  0.117188
0.871271  0.699111  0.131820
0.973368  0.758257  0.134237
0.424456  0.374409  0.210933
0.525250  0.425486  0.180312
0.598493  0.480392  0.181896
0.676302  0.555008  0.122918
0.752353  0.609958  0.127920
0.829897  0.680987  0.118423
0.924922  0.746935  0.119186
0.990720  0.777187  0.118449
0.502221  0.423914  0.211176
0.594635  0.487887  0.162600
0.680336  0.553789  0.172999
0.765209  0.621091  0.131918
0.825068  0.675435  0.126566
0.895097  0.731719  0.123143
0.976846  0.769602  0.124628
1.066998  0.819735  0.146095
0.145119  0.152029  0.095619
0.149660  0.160957  0.123495
0.192283  0.200025  0.145942
0.308374  0.260409  0.127985
0.425390  0.333856  0.099396
0.510196  0.387827  0.102932
0.615203  0.461007  0.088410
0.697646  0.512259  0.083530
0.166098  0.180254  0.140099
0.194927  0.213466  0.183679
0.225840  0.255040  0.214509
0.337156  0.308437  0.182178
0.467083  0.377838  0.148662
0.537464  0.420380  0.141149
0.653583  0.492714  0.102039
0.764283  0.567611  0.109781
0.213569  0.251099  0.225049
0.236687  0.270361  0.248461
0.242439  0.277750  0.251171
0.365420  0.356731  0.258265
0.476568  0.422715  0.232086
0.582417  0.462565  0.150125
0.688790  0.536807  0.140201
0.796192  0.608994  0.144906
0.226410  0.275531  0.265637
0.263927  0.323962  0.319888
0.313991  0.356135  0.329661
0.407619  0.400745  0.306048
0.519340  0.455606  0.262452
0.619162  0.507021  0.211776
0.751745  0.589526  0.194269
0.830369  0.648164  0.201041
0.256801  0.314994  0.310749
0.328636  0.367077  0.343591
0.390719  0.397008  0.331604
0.475001  0.458064  0.335478
0.567976  0.492098  0.305200
0.696143  0.576514  0.281516
0.827401  0.659484  0.225489
0.912909  0.716913  0.234357
0.314028  0.360945  0.347487
0.389420  0.420510  0.377856
0.471687  0.451087  0.332512
0.549458  0.502328  0.330457
0.661346  0.572599  0.333893
0.762936  0.635995  0.276256
0.857438  0.700268  0.255279
0.956136  0.762130  0.251869
0.353911  0.401073  0.367306
0.456571  0.456758  0.364260
0.553603  0.511317  0.346037
0.628033  0.553538  0.338522
0.738489  0.616400  0.312687
0.806385  0.670099  0.294150
0.907348  0.728293  0.259672
1.010806  0.792234  0.237815
0.435420  0.454454  0.384187
0.548149  0.508688  0.350762
0.626641  0.555361  0.328530
0.721342  0.613202  0.314736
0.791089  0.665499  0.301609
0.912696  0.739071  0.271784
0.964067  0.776727  0.273976
1.085057  0.843995  0.251560
0.162550  0.190334  0.163569
0.181162  0.218496  0.200216
0.231693  0.254739  0.219840
0.271638  0.294978  0.245566
0.439355  0.365156  0.175873
0.535743  0.429066  0.147895
0.643888  0.485569  0.134906
0.724041  0.551778  0.136417
0.190537  0.223775  0.203775
0.216477  0.265360  0.248373
0.258996  0.299119  0.279242
0.328687  0.346518  0.296725
0.462602  0.402293  0.219307
0.546801  0.453003  0.193890
0.673699  0.525470  0.185061
0.763399  0.596460  0.176920
0.233568  0.281411  0.265936
0.264710  0.326235  0.312885
0.285554  0.355255  0.354710
0.378881  0.413790  0.374782
0.456518  0.456837  0.374623
0.580541  0.505428  0.272663
0.706884  0.575070  0.256736
0.814967  0.655008  0.243070
0.269361  0.327537  0.324351
0.292169  0.363522  0.367228
0.318891  0.397827  0.408747
0.392044  0.444158  0.412203
0.497024  0.492618  0.414058
0.626558  0.557860  0.341653
0.727550  0.620291  0.315553
0.851779  0.676917  0.299241
0.316553  0.395978  0.405894
0.351147  0.440100  0.446912
0.371121  0.455458  0.459441
0.470604  0.502835  0.459159
0.557040  0.566851  0.477043
0.647834  0.590997  0.428919
0.774521  0.666343  0.395540
0.903560  0.746630  0.368441
0.337624  0.427260  0.445247
0.363083  0.451854  0.472400
0.439141  0.485963  0.458578
0.509158  0.544148  0.498395
0.590056  0.590454  0.489213
0.706761  0.656851  0.491339
0.857104  0.740358  0.436436
0.928067  0.771504  0.430928
0.369446  0.470707  0.487720
0.431836  0.512018  0.502989
0.506518  0.530857  0.470258
0.579703  0.586853  0.503615
0.690101  0.650904  0.498185
0.794706  0.711978  0.478036
0.904734  0.765055  0.459634
0.985846  0.816412  0.497969
0.400303  0.503253  0.522961
0.485727  0.526386  0.488405
0.556907  0.588326  0.522007
0.664155  0.636354  0.495755
0.785376  0.707302  0.492863
0.865960  0.746768  0.465137
0.963956  0.805119  0.493803
1.049418  0.848754  0.493417
0.197065  0.232385  0.211476
0.223994  0.282526  0.270868
0.252396  0.304033  0.291107
0.302329  0.339579  0.314896
0.408514  0.399238  0.300340
0.535896  0.459171  0.242295
0.644451  0.525888  0.197813
0.753242  0.573980  0.173369
0.245062  0.295246  0.276694
0.253018  0.315978  0.315350
0.292869  0.361794  0.359336
0.343736  0.405789  0.401259
0.426190  0.439522  0.380675
0.549813  0.495582  0.326629
0.674257  0.545553  0.277165
0.782424  0.617347  0.246862
0.267618  0.334778  0.347728
0.302919  0.377620  0.380176
0.324349  0.414805  0.424704
0.376386  0.455384  0.452320
0.462336  0.501097  0.460482
0.552700  0.543671  0.435339
0.706363  0.608909  0.379548
0.810811  0.658913  0.323744
0.299808  0.381902  0.396515
0.337680  0.424373  0.433637
0.360867  0.458348  0.486293
0.386646  0.492276  0.524231
0.499143  0.538791  0.501852
0.599994  0.600054  0.508347
0.735515  0.667857  0.453120
0.852636  0.712476  0.395262
0.342623  0.429755  0.447225
0.363653  0.472549  0.504656
0.402995  0.512205  0.536403
0.450729  0.561484  0.589910
0.522154  0.597826  0.580067
0.639329  0.657390  0.579110
0.776193  0.706109  0.524069
0.914662  0.778302  0.482790
0.376702  0.476638  0.498387
0.405075  0.513907  0.535576
0.442945  0.560750  0.589004
0.489011  0.597723  0.620332
0.566483  0.622596  0.590031
0.692775  0.713041  0.642707
0.811017  0.758558  0.604703
0.943893  0.811048  0.549813
0.409330  0.520498  0.549665
0.448269  0.554609  0.579970
0.485610  0.606316  0.636648
0.556507  0.631399  0.619512
0.674803  0.685291  0.615719
0.781382  0.757899  0.639883
0.882883  0.804000  0.631881
0.995133  0.848593  0.608299
0.453706  0.572719  0.602857
0.489601  0.610638  0.641070
0.534439  0.631349  0.631117
0.650484  0.687631  0.639382
0.731948  0.730674  0.638789
0.838173  0.778826  0.625417
0.941840  0.837650  0.646571
1.037920  0.870172  0.615439
0.252281  0.314145  0.305502
0.268604  0.328136  0.324485
0.289012  0.369363  0.378747
0.326451  0.395911  0.399849
0.412130  0.436457  0.383402
0.512516  0.491292  0.368728
0.639735  0.535342  0.294761
0.758069  0.607396  0.268109
0.281107  0.351702  0.357536
0.307984  0.391310  0.410277
0.321254  0.411158  0.430455
0.369863  0.454159  0.462427
0.439119  0.501153  0.484737
0.543249  0.557891  0.478133
0.665817  0.604360  0.403819
0.788988  0.659035  0.365976
0.313779  0.400815  0.415625
0.347338  0.429793  0.436543
0.381621  0.484297  0.503545
0.404626  0.506858  0.521889
0.463369  0.540637  0.533090
0.573698  0.604221  0.545464
0.673024  0.628058  0.483518
0.825670  0.717044  0.462916
0.335417  0.434160  0.462822
0.377368  0.468318  0.483100
0.414899  0.531997  0.563556
0.430625  0.547481  0.576765
0.491059  0.600897  0.617122
0.601927  0.648577  0.601314
0.732153  0.693326  0.545661
0.835090  0.760520  0.569171
0.385169  0.499551  0.527481
0.421856  0.537160  0.566736
0.448131  0.573439  0.607840
0.482597  0.604509  0.637887
0.535065  0.655634  0.681989
0.649288  0.701751  0.658522
0.739867  0.732914  0.627994
0.906015  0.807031  0.611372
0.417293  0.531593  0.560452
0.452399  0.574144  0.603186
0.482706  0.610689  0.649186
0.513950  0.642449  0.672685
0.581776  0.702343  0.739046
0.687302  0.752595  0.724488
0.820714  0.807200  0.708691
0.945081  0.846130  0.680706
0.451444  0.576346  0.607042
0.494317  0.616743  0.651719
0.549465  0.672301  0.698178
0.571630  0.689766  0.716539
0.634050  0.747211  0.775320
0.734170  0.789520  0.767071
0.869782  0.837316  0.750094
0.970990  0.873144  0.719238
0.490744  0.618050  0.646528
0.523442  0.648368  0.674817
0.569203  0.692119  0.731738
0.600908  0.715497  0.746668
0.695974  0.786613  0.797258
0.811170  0.819401  0.755626
0.901756  0.863926  0.748573
1.029885  0.910907  0.741990
0.292534  0.375858  0.391161
0.317349  0.390674  0.407977
0.346083  0.440956  0.464329
0.373522  0.478905  0.509138
0.421839  0.487775  0.477907
0.511224  0.533656  0.475865
0.613318  0.571572  0.424789
0.763102  0.655882  0.383249
0.320107  0.407718  0.430416
0.343184  0.446921  0.483077
0.363555  0.468764  0.495928
0.409117  0.520352  0.558859
0.443596  0.551715  0.576132
0.547055  0.578887  0.524210
0.647139  0.633128  0.526073
0.794465  0.699064  0.476128
0.352408  0.454915  0.478493
0.380943  0.480092  0.514767
0.414242  0.527698  0.550980
0.447242  0.563985  0.596952
0.493662  0.606985  0.628319
0.583853  0.645164  0.616689
0.690600  0.702457  0.622063
0.805760  0.746025  0.582059
0.386310  0.491355  0.516894
0.399657  0.509683  0.541141
0.464274  0.589842  0.628439
0.492353  0.618607  0.651721
0.540040  0.664385  0.701732
0.588965  0.689923  0.694084
0.744132  0.743529  0.655689
0.867298  0.800596  0.644154
0.421197  0.532160  0.565560
0.467135  0.587660  0.615468
0.499294  0.619566  0.650056
0.542681  0.669353  0.698228
0.597027  0.724856  0.766663
0.635356  0.741565  0.764643
0.751208  0.775770  0.726947
0.893628  0.838827  0.709715
0.449509  0.573857  0.608114
0.500380  0.623634  0.655830
0.537094  0.664711  0.700948
0.604460  0.728278  0.767843
0.642378  0.765000  0.808745
0.692275  0.807067  0.849974
0.794048  0.838460  0.810205
0.929760  0.876070  0.765309
0.502070  0.622569  0.652542
0.536834  0.656874  0.689561
0.570922  0.701657  0.733929
0.634003  0.761793  0.805365
0.682680  0.795774  0.838028
0.739745  0.843137  0.885625
0.831942  0.889354  0.902058
0.955824  0.899799  0.794837
0.530440  0.660078  0.695420
0.573423  0.700148  0.733128
0.609041  0.743522  0.783925
0.682121  0.803484  0.850642
0.733402  0.844991  0.878305
0.798531  0.884249  0.915297
0.877158  0.926785  0.936082
0.998737  0.946048  0.861611
0.332415  0.422768  0.444215
0.339585  0.443066  0.472498
0.387271  0.496507  0.523586
0.410228  0.534725  0.569205
0.459234  0.578736  0.612113
0.507488  0.588614  0.582563
0.630638  0.643776  0.564332
0.777793  0.706832  0.497241
0.349863  0.452097  0.483802
0.379352  0.492563  0.523619
0.430189  0.548694  0.587429
0.466262  0.591912  0.625508
0.507476  0.625269  0.652572
0.547717  0.659891  0.678497
0.640882  0.683060  0.634126
0.790221  0.739439  0.587455
0.376930  0.497081  0.529890
0.417322  0.536727  0.566615
0.464245  0.578582  0.615594
0.516361  0.642731  0.678884
0.553170  0.680344  0.715164
0.599123  0.723094  0.753577
0.695319  0.744035  0.701880
0.823537  0.785252  0.668559
0.429226  0.542486  0.573949
0.456438  0.581768  0.615397
0.507193  0.631476  0.658395
0.566612  0.685381  0.715457
0.583574  0.719581  0.768793
0.635831  0.764661  0.802956
0.692990  0.795921  0.821126
0.851547  0.834804  0.739578
0.448087  0.574785  0.609359
0.505794  0.626320  0.657994
0.546536  0.670014  0.704288
0.591988  0.720511  0.757765
0.637194  0.757216  0.802499
0.682560  0.808589  0.850386
0.763100  0.858413  0.895504
0.861774  0.878435  0.844454
0.483931  0.608694  0.637874
0.524211  0.656423  0.683022
0.579777  0.704384  0.737414
0.633875  0.760731  0.803113
0.661490  0.782570  0.826172
0.746514  0.847881  0.890369
0.801906  0.891394  0.921537
0.883113  0.922894  0.936349
0.533476  0.658366  0.696000
0.578959  0.706376  0.744494
0.612947  0.742523  0.790168
0.651065  0.777190  0.822967
0.714831  0.832051  0.870611
0.786372  0.878540  0.910588
0.849227  0.921407  0.950421
0.910990  0.949812  0.965763
0.568576  0.698721  0.729167
0.594164  0.725703  0.769785
0.651367  0.772134  0.818889
0.712283  0.823718  0.868873
0.766473  0.862384  0.901720
0.833215  0.911145  0.939275
0.882361  0.937652  0.961192
0.942958  0.967883  0.982623
