LUT/LUT_14.CUBE
TITLE "LUT_14" 
#LUT size 
LUT_3D_SIZE 15 
DOMAIN_MIN 0.0 0.0 0.0 
DOMAIN_MAX 1.0 1.0 1.0 
#data point 
0.047698  0.047657  0.019628
0.066274  0.064065  0.022471
0.094272  0.092725  0.040213
0.138879  0.121440  0.049662
0.208003  0.165087  0.053009
0.254719  0.192127  0.052829
0.332144  0.221036  0.039987
0.381530  0.236034  0.042795
0.441593  0.270329  0.040157
0.510502  0.291828  0.035114
0.560239  0.304755  0.031569
0.611362  0.323706  0.033240
0.686481  0.350175  0.033019
0.744178  0.363235  0.033967
0.818105  0.372416  0.028042
0.063402  0.062498  0.029192
0.078376  0.075415  0.029317
0.102003  0.100640  0.047957
0.161961  0.139328  0.058705
0.215826  0.176684  0.062110
0.280869  0.209860  0.051286
0.336067  0.241468  0.048517
0.402582  0.264017  0.048223
0.455952  0.283572  0.042860
0.500748  0.295472  0.035541
0.580764  0.330514  0.042274
0.644556  0.354607  0.041120
0.707640  0.364510  0.033843
0.770299  0.383323  0.038166
0.826209  0.403467  0.038824
0.097613  0.085889  0.043286
0.095748  0.094038  0.048390
0.136009  0.119238  0.060754
0.176888  0.153524  0.067777
0.251786  0.196685  0.058842
0.296560  0.223374  0.051470
0.366580  0.257128  0.054813
0.410826  0.280308  0.047848
0.477130  0.307062  0.058954
0.536436  0.321415  0.043112
0.585612  0.343724  0.043257
0.664841  0.377031  0.037953
0.721095  0.394996  0.043345
0.782199  0.409117  0.043290
0.841405  0.428918  0.049606
0.120173  0.112751  0.062818
0.133957  0.123481  0.060630
0.164144  0.146858  0.070769
0.219261  0.182220  0.073381
0.288062  0.228588  0.067160
0.333568  0.248098  0.054761
0.386676  0.272514  0.063073
0.445628  0.298035  0.046979
0.496146  0.322654  0.050065
0.548762  0.347683  0.044965
0.600402  0.377845  0.041529
0.673713  0.388791  0.043935
0.732135  0.413499  0.041352
0.800800  0.427288  0.046801
0.868796  0.459658  0.043850
0.145338  0.133262  0.069991
0.183694  0.159554  0.076312
0.222581  0.191343  0.088841
0.256929  0.214710  0.075921
0.306845  0.242879  0.065046
0.361283  0.275487  0.077502
0.407010  0.298850  0.062164
0.470130  0.335747  0.055722
0.528836  0.347533  0.060881
0.584878  0.372421  0.044620
0.624895  0.403799  0.054880
0.703248  0.435246  0.045439
0.755737  0.444836  0.049460
0.824903  0.459342  0.047833
0.881892  0.484698  0.052926
0.185951  0.166881  0.098720
0.220073  0.186240  0.076421
0.255728  0.217921  0.085850
0.312370  0.249360  0.063873
0.344084  0.280249  0.065568
0.377936  0.293775  0.078456
0.439613  0.339421  0.063596
0.485696  0.367751  0.065176
0.529674  0.378132  0.057207
0.581254  0.401158  0.048529
0.650747  0.434739  0.052917
0.701019  0.448335  0.057504
0.781796  0.462727  0.051158
0.837491  0.495479  0.052546
0.895073  0.516275  0.057582
0.227573  0.198476  0.081825
0.263253  0.224752  0.086061
0.308901  0.254235  0.079571
0.347815  0.291194  0.080262
0.378409  0.311258  0.065410
0.426775  0.347595  0.067841
0.457218  0.368089  0.063043
0.516747  0.403304  0.066300
0.560350  0.412908  0.060783
0.622927  0.460599  0.058806
0.668981  0.476325  0.052240
0.717045  0.483598  0.059238
0.783067  0.510132  0.048951
0.846271  0.517620  0.056102
0.917419  0.540205  0.052898
0.278343  0.236517  0.098683
0.311890  0.262127  0.081313
0.345772  0.279890  0.072889
0.384818  0.322103  0.065768
0.422029  0.360087  0.075828
0.458581  0.394158  0.061241
0.484059  0.408762  0.064625
0.528460  0.435599  0.062508
0.580272  0.473005  0.060183
0.638663  0.497956  0.055236
0.700177  0.512180  0.060167
0.742546  0.541375  0.068878
0.805369  0.556868  0.063014
0.873806  0.572014  0.058990
0.942424  0.592986  0.066617
0.305788  0.261007  0.098839
0.349567  0.305183  0.079481
0.378042  0.327553  0.066862
0.411185  0.345924  0.068307
0.458832  0.396905  0.076633
0.484852  0.414035  0.070029
0.526459  0.451789  0.067323
0.571336  0.482912  0.070641
0.610819  0.510637  0.066930
0.660341  0.542205  0.058865
0.706447  0.567091  0.064442
0.759705  0.582613  0.070025
0.825513  0.600932  0.061947
0.880713  0.630205  0.065875
0.944740  0.646675  0.060276
0.359877  0.305827  0.095422
0.389649  0.331819  0.080344
0.415355  0.363164  0.069923
0.458904  0.389255  0.070638
0.492918  0.425156  0.069321
0.529032  0.443550  0.062858
0.564715  0.487369  0.066038
0.608866  0.517858  0.071584
0.643233  0.554786  0.057920
0.682789  0.582004  0.062526
0.732986  0.616705  0.061223
0.776254  0.634472  0.056981
0.828253  0.658567  0.069379
0.890816  0.664312  0.067364
0.952424  0.694942  0.069375
0.379444  0.331220  0.082376
0.422576  0.357965  0.080640
0.453134  0.398276  0.071059
0.483154  0.432161  0.072011
0.534549  0.466784  0.066818
0.562524  0.495609  0.072075
0.596028  0.522374  0.083781
0.643415  0.555319  0.065976
0.689194  0.598005  0.061159
0.715310  0.614640  0.064701
0.768239  0.653766  0.065947
0.803886  0.672181  0.066981
0.861596  0.700428  0.069865
0.918983  0.720239  0.061822
0.968873  0.738698  0.074574
0.421148  0.375992  0.082017
0.447423  0.394057  0.070446
0.489792  0.430180  0.071412
0.518384  0.455787  0.062362
0.561963  0.496636  0.069644
0.612260  0.534237  0.056468
0.631176  0.554113  0.067103
0.664646  0.579230  0.059547
0.716349  0.618175  0.068246
0.751543  0.647177  0.059113
0.794992  0.678306  0.066956
0.840951  0.704026  0.069727
0.890090  0.734965  0.062906
0.935251  0.769489  0.073331
0.991219  0.785328  0.064131
0.447014  0.405583  0.073212
0.484879  0.429647  0.072919
0.520441  0.460565  0.069340
0.548637  0.499117  0.061317
0.594103  0.539965  0.064988
0.629116  0.560652  0.074846
0.662342  0.589018  0.061819
0.702761  0.613038  0.068746
0.750521  0.645284  0.070949
0.777291  0.662195  0.070039
0.819813  0.704175  0.063877
0.868012  0.735215  0.077131
0.912095  0.759034  0.072804
0.952068  0.783074  0.066783
1.019242  0.812791  0.075535
0.490392  0.444627  0.064604
0.524797  0.483491  0.064336
0.558364  0.511782  0.065212
0.597382  0.532339  0.070654
0.629627  0.567399  0.064247
0.665056  0.586503  0.052907
0.698917  0.617749  0.069078
0.740541  0.647845  0.062347
0.766883  0.669222  0.066135
0.808675  0.691813  0.073561
0.848303  0.719547  0.070738
0.905412  0.749293  0.068766
0.944841  0.782366  0.072408
0.985850  0.804021  0.075869
1.030069  0.826162  0.068705
0.519770  0.477970  0.075813
0.549319  0.501648  0.068272
0.588449  0.534453  0.065966
0.631285  0.570357  0.066475
0.664019  0.597099  0.071333
0.692081  0.617751  0.065818
0.723790  0.648110  0.073031
0.764851  0.669053  0.068766
0.793934  0.693931  0.064231
0.843277  0.720133  0.074477
0.885008  0.739800  0.073119
0.926070  0.775372  0.076266
0.970903  0.799041  0.070587
1.027625  0.832691  0.073046
1.074985  0.852698  0.075465
0.061418  0.057043  0.027220
0.072078  0.076331  0.030069
0.102514  0.095869  0.047336
0.129379  0.111964  0.047928
0.189250  0.154937  0.061795
0.257926  0.189442  0.049005
0.334519  0.225071  0.047495
0.382868  0.243381  0.038760
0.451099  0.273565  0.037012
0.495868  0.282098  0.037267
0.568323  0.310518  0.037959
0.619621  0.331312  0.033640
0.694684  0.347243  0.030829
0.741115  0.364152  0.029117
0.809645  0.367676  0.030510
0.082719  0.079777  0.042371
0.089699  0.085659  0.043391
0.116988  0.107767  0.049195
0.166511  0.145571  0.068959
0.221868  0.188462  0.066625
0.293560  0.220977  0.048604
0.344911  0.237496  0.050968
0.392695  0.267033  0.050320
0.461998  0.285991  0.046959
0.521540  0.308037  0.034926
0.573461  0.329698  0.041658
0.634310  0.356004  0.035192
0.708984  0.371866  0.039412
0.771777  0.382041  0.035923
0.825782  0.410339  0.040608
0.094553  0.093955  0.050444
0.111626  0.109258  0.059820
0.145933  0.134006  0.073581
0.184588  0.163535  0.079070
0.234903  0.197052  0.075046
0.309870  0.233166  0.068847
0.354673  0.255313  0.053718
0.415346  0.288315  0.051149
0.474603  0.308961  0.045081
0.530492  0.327186  0.046814
0.595455  0.361787  0.043825
0.655842  0.374698  0.045512
0.730058  0.394681  0.041207
0.779082  0.420629  0.042283
0.848537  0.435689  0.045806
0.121654  0.125490  0.080289
0.142485  0.138228  0.079244
0.174634  0.161516  0.092103
0.209569  0.187155  0.094337
0.265048  0.215138  0.078085
0.333040  0.255146  0.075054
0.376015  0.278706  0.071297
0.440124  0.311912  0.077174
0.493007  0.333313  0.062535
0.548451  0.353984  0.056523
0.609576  0.374375  0.057761
0.676016  0.403562  0.052949
0.737779  0.415776  0.048634
0.800860  0.438611  0.048428
0.867449  0.461859  0.047698
0.155553  0.148224  0.091591
0.186010  0.171916  0.091937
0.212632  0.189396  0.097697
0.252058  0.213972  0.089735
0.307150  0.257306  0.098026
0.352913  0.272487  0.089697
0.405748  0.306570  0.078789
0.453707  0.325070  0.066635
0.508863  0.350701  0.078168
0.563499  0.383958  0.074677
0.621060  0.398889  0.057851
0.693116  0.427837  0.053002
0.756762  0.451240  0.058506
0.810242  0.465468  0.052848
0.868352  0.485881  0.059656
0.182442  0.179733  0.104207
0.226001  0.197600  0.101611
0.265098  0.238603  0.119756
0.293566  0.248471  0.119301
0.340838  0.283280  0.087895
0.385944  0.307778  0.089673
0.455091  0.344704  0.085768
0.471436  0.360405  0.096517
0.531422  0.391564  0.074610
0.582327  0.415291  0.077604
0.650967  0.435031  0.072524
0.707057  0.461046  0.063703
0.767186  0.473989  0.056977
0.840559  0.494633  0.059200
0.906642  0.528932  0.060248
0.236281  0.222990  0.137296
0.273108  0.235724  0.114823
0.292400  0.263512  0.121193
0.333995  0.285411  0.118880
0.379955  0.317689  0.096569
0.423140  0.360174  0.082584
0.455899  0.375499  0.084137
0.511826  0.405143  0.090384
0.560033  0.425479  0.085076
0.604163  0.438569  0.080183
0.672983  0.479230  0.070950
0.730869  0.492718  0.063732
0.788248  0.519847  0.070186
0.868450  0.530154  0.059130
0.918254  0.556060  0.060270
0.263318  0.238622  0.128402
0.293132  0.265526  0.129062
0.338501  0.298944  0.129736
0.369093  0.321852  0.114537
0.416938  0.355173  0.089729
0.456570  0.384273  0.096816
0.502080  0.416969  0.087225
0.552581  0.451715  0.080101
0.584550  0.468460  0.077396
0.625008  0.491976  0.081980
0.684293  0.514893  0.070187
0.748616  0.534332  0.067979
0.809765  0.556138  0.068547
0.870073  0.573048  0.072298
0.944303  0.589385  0.068428
0.307017  0.270172  0.120131
0.340105  0.295860  0.131340
0.377524  0.319093  0.120936
0.405821  0.352222  0.114241
0.447681  0.384260  0.101183
0.493827  0.423593  0.083801
0.527835  0.451527  0.089122
0.569002  0.480660  0.075928
0.607038  0.521268  0.079622
0.667136  0.553313  0.086341
0.712595  0.568098  0.082290
0.762807  0.580137  0.080968
0.824165  0.604858  0.073232
0.893064  0.634169  0.074318
0.946089  0.632893  0.068759
0.336545  0.292734  0.131064
0.391259  0.336050  0.126655
0.420398  0.370346  0.121239
0.451465  0.389207  0.101263
0.485121  0.430175  0.099234
0.530514  0.465131  0.086301
0.572299  0.500042  0.097409
0.598859  0.525304  0.093424
0.639933  0.561026  0.088425
0.683770  0.586144  0.071181
0.738503  0.627711  0.077133
0.784192  0.640854  0.068460
0.831214  0.660023  0.070009
0.900985  0.671340  0.068327
0.966763  0.694790  0.079061
0.370515  0.334430  0.126084
0.396296  0.352990  0.131068
0.439401  0.395655  0.117098
0.487874  0.437566  0.102858
0.527394  0.457080  0.093474
0.564498  0.504249  0.087950
0.609603  0.534859  0.090273
0.641221  0.562379  0.080701
0.682061  0.592047  0.090502
0.711385  0.620224  0.085881
0.767260  0.640805  0.074720
0.810553  0.673723  0.083846
0.856880  0.706683  0.067158
0.914156  0.729207  0.076772
0.967371  0.721421  0.083321
0.404344  0.357353  0.127123
0.447782  0.393044  0.116786
0.486720  0.434499  0.101123
0.514756  0.456436  0.090160
0.560172  0.506733  0.098496
0.598297  0.536354  0.091063
0.627193  0.548660  0.094062
0.668959  0.586464  0.097031
0.699121  0.613230  0.089161
0.741788  0.639131  0.082675
0.791473  0.675706  0.072500
0.832007  0.703826  0.095208
0.890413  0.735539  0.081939
0.926435  0.760787  0.077288
0.985758  0.782986  0.072103
0.456470  0.407004  0.122560
0.498943  0.447425  0.083460
0.518305  0.464354  0.101479
0.567129  0.502642  0.095592
0.590313  0.530087  0.093861
0.624247  0.559188  0.091741
0.671227  0.600376  0.096194
0.691715  0.613629  0.094119
0.752839  0.644029  0.091325
0.778952  0.672285  0.099558
0.821667  0.699399  0.080250
0.873432  0.739534  0.086899
0.909264  0.754987  0.087022
0.974681  0.781613  0.091269
1.011819  0.805227  0.080764
0.472398  0.437084  0.114278
0.500220  0.464606  0.097321
0.558708  0.499405  0.092815
0.571602  0.521711  0.088096
0.634258  0.567687  0.078586
0.663532  0.589612  0.077671
0.688375  0.623389  0.098739
0.744045  0.647504  0.088102
0.777009  0.673338  0.084584
0.803360  0.695470  0.101156
0.856165  0.733116  0.087238
0.894729  0.746226  0.096542
0.940558  0.778566  0.096919
0.988330  0.810024  0.078225
1.034827  0.837262  0.079806
0.518448  0.476890  0.116982
0.548023  0.508451  0.090924
0.571997  0.523800  0.100329
0.621482  0.558068  0.082307
0.646343  0.584951  0.084605
0.701514  0.619707  0.092628
0.727422  0.645804  0.086838
0.778121  0.677326  0.092619
0.795349  0.690314  0.095054
0.842000  0.720663  0.097153
0.889079  0.754866  0.090089
0.914738  0.770278  0.089332
0.972934  0.811246  0.091803
1.023355  0.826914  0.081723
1.076726  0.861566  0.093653
0.084186  0.083640  0.042624
0.103431  0.098665  0.057823
0.115785  0.112478  0.059800
0.153594  0.137855  0.064124
0.198450  0.168144  0.073414
0.265265  0.200264  0.059787
0.315728  0.229522  0.055337
0.395238  0.261970  0.050079
0.455384  0.279600  0.051090
0.494495  0.298142  0.045935
0.556283  0.309335  0.041817
0.622782  0.340274  0.038749
0.676104  0.354579  0.039597
0.761599  0.379045  0.038578
0.819849  0.385037  0.033464
0.100869  0.110465  0.071358
0.110737  0.119605  0.078108
0.135100  0.135071  0.084941
0.163382  0.156212  0.098806
0.224869  0.199003  0.098675
0.292257  0.232759  0.076869
0.339906  0.253182  0.067036
0.393273  0.275737  0.065411
0.468120  0.297844  0.054624
0.518895  0.323772  0.053384
0.579956  0.347865  0.044834
0.638323  0.363452  0.045947
0.699869  0.390927  0.046438
0.780523  0.404993  0.043582
0.829999  0.415317  0.043346
0.111321  0.124001  0.092909
0.127866  0.141830  0.118079
0.150521  0.156363  0.108026
0.192210  0.180453  0.103214
0.237523  0.209852  0.115974
0.309284  0.253351  0.100105
0.359958  0.276639  0.084979
0.410357  0.297454  0.078038
0.478704  0.322219  0.074651
0.528593  0.352626  0.080325
0.586900  0.369479  0.061063
0.650427  0.396687  0.048448
0.727904  0.403584  0.051710
0.780057  0.427436  0.054949
0.831694  0.441778  0.046144
0.132139  0.153951  0.128270
0.149775  0.163975  0.133278
0.163759  0.180101  0.147776
0.206512  0.200334  0.136736
0.245293  0.226324  0.133710
0.323827  0.272088  0.117280
0.383141  0.297678  0.106279
0.422168  0.319375  0.094065
0.496205  0.355682  0.080184
0.555144  0.377926  0.091869
0.595897  0.396184  0.076498
0.663518  0.416060  0.074944
0.731447  0.428524  0.061249
0.795991  0.450241  0.058217
0.857656  0.470608  0.053025
0.144755  0.173884  0.155613
0.179341  0.207314  0.179263
0.206001  0.210980  0.158033
0.236135  0.227488  0.159034
0.293913  0.260744  0.134943
0.333333  0.284442  0.144871
0.399007  0.313568  0.134390
0.467769  0.349292  0.115611
0.509832  0.369856  0.110654
0.569709  0.393247  0.101882
0.624440  0.419615  0.104715
0.693418  0.447265  0.093701
0.745346  0.464366  0.081113
0.809083  0.489240  0.065696
0.880474  0.510053  0.065298
0.162832  0.196819  0.186315
0.200697  0.214941  0.179204
0.244165  0.246348  0.181009
0.274298  0.260943  0.171530
0.321461  0.290479  0.163043
0.372696  0.325503  0.165724
0.431041  0.342983  0.139539
0.476575  0.374071  0.140037
0.541971  0.404105  0.114865
0.582572  0.423099  0.120566
0.640473  0.447466  0.097560
0.700537  0.474498  0.117130
0.755166  0.484550  0.092879
0.828665  0.523667  0.087718
0.884437  0.526058  0.082236
0.207246  0.226578  0.191006
0.242048  0.245895  0.179423
0.283492  0.266848  0.188923
0.318184  0.297903  0.177308
0.360744  0.326336  0.165187
0.407559  0.346156  0.164553
0.456810  0.383015  0.149365
0.511303  0.407957  0.138576
0.540895  0.421772  0.126150
0.606946  0.451767  0.129093
0.666865  0.488703  0.133934
0.726051  0.501072  0.140471
0.786232  0.516262  0.121399
0.850056  0.553860  0.113303
0.910260  0.566302  0.090013
0.255770  0.260019  0.201715
0.289488  0.280175  0.205754
0.325466  0.300122  0.190412
0.355885  0.323202  0.167295
0.399416  0.363484  0.180935
0.444143  0.384520  0.161926
0.489036  0.420196  0.156561
0.535393  0.452521  0.138254
0.592639  0.470860  0.123381
0.655696  0.503943  0.130773
0.679422  0.516465  0.135440
0.733345  0.548753  0.141777
0.792946  0.569235  0.131339
0.877963  0.588350  0.108102
0.924714  0.600471  0.112536
0.277088  0.279971  0.203329
0.327762  0.313014  0.193837
0.355321  0.326530  0.180937
0.405465  0.366071  0.189092
0.436307  0.390350  0.186378
0.472617  0.417592  0.179746
0.527632  0.462101  0.161604
0.563340  0.488735  0.142905
0.618557  0.515801  0.123180
0.662074  0.537056  0.127825
0.717084  0.565783  0.130275
0.756620  0.593978  0.136194
0.823546  0.605209  0.132436
0.885907  0.625770  0.120658
0.950660  0.644754  0.119466
0.307912  0.304099  0.208460
0.363748  0.339667  0.194457
0.402432  0.359939  0.183927
0.424283  0.392528  0.191354
0.464585  0.417030  0.185085
0.513578  0.455852  0.160794
0.562545  0.490776  0.162430
0.598244  0.519114  0.142354
0.641777  0.559238  0.139710
0.694533  0.589083  0.128857
0.734873  0.613223  0.133404
0.786167  0.640240  0.129677
0.842286  0.656524  0.133640
0.888207  0.677901  0.135684
0.945234  0.687364  0.122577
0.361973  0.342046  0.195853
0.398101  0.371222  0.187062
0.429927  0.401817  0.193031
0.482933  0.436794  0.173232
0.510363  0.456520  0.163232
0.539746  0.483315  0.159349
0.576732  0.523067  0.158187
0.634142  0.562323  0.143557
0.679678  0.591247  0.121664
0.717662  0.614477  0.137630
0.761662  0.641385  0.133743
0.795458  0.670910  0.140739
0.854984  0.705887  0.126815
0.916045  0.714581  0.133776
0.991460  0.747272  0.128241
0.396792  0.370984  0.203364
0.424125  0.399978  0.194218
0.484144  0.440026  0.197126
0.516929  0.464823  0.180091
0.554708  0.497482  0.177229
0.589536  0.525831  0.169107
0.612805  0.540063  0.158839
0.661374  0.590470  0.138233
0.706677  0.619960  0.145676
0.762239  0.655320  0.126900
0.796271  0.677490  0.138560
0.831582  0.709561  0.139286
0.875318  0.739783  0.140141
0.938400  0.768168  0.136488
0.991341  0.790592  0.143855
0.439434  0.402504  0.194598
0.464423  0.434131  0.189322
0.505798  0.463313  0.167646
0.529609  0.488946  0.189447
0.572581  0.519737  0.172393
0.626756  0.564247  0.164427
0.650826  0.583309  0.141466
0.702942  0.618278  0.142699
0.741596  0.649777  0.136056
0.780054  0.673725  0.137353
0.814417  0.699622  0.144448
0.856392  0.734082  0.132677
0.914689  0.765612  0.130903
0.962143  0.784740  0.150947
1.007003  0.809450  0.126551
0.465613  0.435780  0.209750
0.498560  0.460095  0.176952
0.519709  0.492840  0.193649
0.569876  0.523664  0.158331
0.611153  0.555001  0.153434
0.664932  0.601992  0.151957
0.694262  0.616040  0.138947
0.734902  0.657109  0.140686
0.771558  0.674762  0.132120
0.810089  0.699117  0.127018
0.845651  0.733251  0.131983
0.906387  0.759787  0.132201
0.938853  0.783893  0.140077
0.988091  0.814758  0.140762
1.034295  0.838862  0.158473
0.490505  0.465607  0.198223
0.544714  0.505905  0.184291
0.574608  0.544288  0.171627
0.610095  0.559339  0.159346
0.656497  0.590190  0.150468
0.675920  0.617045  0.150256
0.721831  0.650253  0.138752
0.763646  0.667593  0.133351
0.799857  0.705722  0.146635
0.849009  0.734352  0.155924
0.890429  0.760731  0.133911
0.922518  0.767171  0.145024
0.962361  0.808506  0.146734
1.016184  0.834240  0.140532
1.068047  0.861673  0.136326
0.107282  0.112140  0.083899
0.112386  0.121439  0.091764
0.129672  0.145154  0.114854
0.155962  0.157289  0.119838
0.200308  0.179116  0.098662
0.260697  0.206830  0.086805
0.342618  0.251633  0.080710
0.399874  0.273437  0.067478
0.430286  0.282219  0.070143
0.503376  0.316346  0.062898
0.550754  0.330324  0.061169
0.618733  0.349485  0.059018
0.678673  0.370502  0.051891
0.753183  0.381715  0.045144
0.815056  0.394202  0.038382
0.111474  0.133132  0.111618
0.129178  0.149685  0.131146
0.141472  0.166615  0.135951
0.167282  0.181831  0.136842
0.219047  0.210877  0.135756
0.276138  0.237250  0.120669
0.352084  0.275044  0.108662
0.406622  0.298881  0.099350
0.452901  0.305421  0.092447
0.511978  0.334182  0.078856
0.566508  0.360247  0.073389
0.633408  0.376906  0.067635
0.702970  0.405472  0.065542
0.762553  0.407241  0.050450
0.829630  0.421903  0.049840
0.131454  0.153744  0.133259
0.136651  0.174100  0.159443
0.163130  0.193626  0.178502
0.192992  0.211485  0.183462
0.228181  0.229069  0.162924
0.300119  0.257835  0.147128
0.362835  0.295269  0.129870
0.412824  0.310384  0.127723
0.469640  0.329550  0.107002
0.530142  0.369231  0.095470
0.584298  0.385993  0.098474
0.647683  0.402397  0.081822
0.700377  0.420110  0.080729
0.774207  0.433949  0.072154
0.855203  0.462904  0.066387
0.142434  0.178582  0.168745
0.155007  0.197471  0.189806
0.169790  0.209914  0.204059
0.200831  0.232771  0.200850
0.261110  0.263879  0.200782
0.316357  0.285027  0.170617
0.381265  0.321139  0.162451
0.423890  0.335184  0.141464
0.506432  0.367505  0.128941
0.560852  0.393003  0.121881
0.596172  0.407368  0.126060
0.660477  0.432962  0.122392
0.735873  0.455128  0.111376
0.787920  0.468097  0.093626
0.850342  0.492755  0.104112
0.162062  0.204882  0.207831
0.180851  0.223417  0.222588
0.200620  0.232140  0.214600
0.235012  0.259644  0.225479
0.281191  0.281274  0.205877
0.331235  0.310736  0.202624
0.378975  0.327483  0.185107
0.452855  0.361477  0.171251
0.496946  0.385994  0.158452
0.565089  0.406663  0.131550
0.624508  0.430775  0.141589
0.674148  0.450633  0.133378
0.725303  0.489442  0.135700
0.804170  0.496859  0.127501
0.874270  0.523772  0.113916
0.181678  0.232420  0.218192
0.195155  0.240970  0.235075
0.224146  0.266712  0.246370
0.252541  0.279391  0.242329
0.305773  0.309931  0.245458
0.349753  0.329012  0.218493
0.420906  0.365357  0.188745
0.465162  0.387628  0.204795
0.520843  0.411207  0.179624
0.562151  0.419807  0.168131
0.644778  0.458374  0.162679
0.688043  0.493471  0.155623
0.760372  0.508927  0.147000
0.814384  0.536777  0.144997
0.870496  0.554366  0.131549
0.208253  0.248148  0.247827
0.230958  0.264943  0.238114
0.256776  0.285345  0.248911
0.301109  0.309488  0.250379
0.335346  0.329348  0.240045
0.396773  0.370041  0.236186
0.446803  0.389295  0.211190
0.492680  0.424250  0.221021
0.548532  0.440946  0.197282
0.595763  0.460349  0.180546
0.651210  0.483073  0.177634
0.720826  0.519064  0.164523
0.770810  0.537859  0.175260
0.833437  0.555350  0.163393
0.902268  0.590692  0.159150
0.216644  0.273498  0.266897
0.270879  0.298484  0.261878
0.312323  0.325027  0.268119
0.337501  0.339026  0.262783
0.381638  0.368267  0.251777
0.435411  0.390639  0.209812
0.476784  0.432038  0.221847
0.531405  0.448926  0.231360
0.567797  0.470628  0.224746
0.635339  0.498958  0.199802
0.695856  0.543611  0.183841
0.741343  0.546703  0.192757
0.807580  0.576413  0.179975
0.846938  0.589806  0.178558
0.915729  0.611381  0.182541
0.269849  0.304065  0.270579
0.300720  0.320868  0.271714
0.340528  0.343661  0.276391
0.376625  0.367021  0.257517
0.426734  0.399483  0.253948
0.461355  0.433703  0.245409
0.500913  0.460754  0.227427
0.553093  0.490977  0.226238
0.589034  0.503848  0.233689
0.667713  0.541734  0.206892
0.724613  0.575337  0.176870
0.773983  0.592241  0.198563
0.813422  0.611407  0.192390
0.873362  0.638166  0.199883
0.948148  0.651439  0.197680
0.292674  0.324251  0.284778
0.338858  0.352698  0.274239
0.391455  0.377922  0.275324
0.422542  0.396223  0.260978
0.474376  0.435649  0.242975
0.501387  0.459853  0.242266
0.537781  0.489917  0.249020
0.574373  0.532315  0.225962
0.636875  0.553789  0.218808
0.673505  0.580312  0.200094
0.742299  0.616523  0.198454
0.789474  0.649733  0.203786
0.827714  0.655166  0.192211
0.904357  0.691507  0.202229
