LUT/LUT_23.CUBE
TITLE "LUT_23" 
#LUT size 
LUT_3D_SIZE 8 
DOMAIN_MIN 0.0 0.0 0.0 
DOMAIN_MAX 1.0 1.0 1.0 
#data point 
0.063276  0.058839  0.028260
0.099907  0.094324  0.047408
0.186058  0.162814  0.072391
0.316590  0.234490  0.059729
0.424387  0.301323  0.057472
0.531935  0.341463  0.051937
0.639448  0.392978  0.047158
0.771410  0.448919  0.051233
0.104107  0.098199  0.048046
0.134584  0.119589  0.055294
0.239911  0.198025  0.079347
0.361958  0.266058  0.081977
0.458296  0.323419  0.067012
0.553796  0.376480  0.062860
0.677071  0.441286  0.058284
0.803234  0.485377  0.055860
0.149069  0.137720  0.076147
0.219673  0.186691  0.090605
0.293884  0.235479  0.079176
0.398942  0.306832  0.077800
0.512266  0.368181  0.073533
0.598800  0.430404  0.067127
0.720664  0.474332  0.056043
0.839716  0.532363  0.054075
0.225562  0.191036  0.085137
0.306771  0.253966  0.097816
0.378019  0.296926  0.079335
0.456905  0.352628  0.078602
0.552094  0.413005  0.072882
0.658857  0.489092  0.065969
0.757311  0.532539  0.065710
0.883672  0.586445  0.063704
0.299950  0.256225  0.109383
0.388102  0.303594  0.075978
0.472792  0.377752  0.085936
0.529848  0.425308  0.076731
0.609400  0.499991  0.068780
0.693355  0.562257  0.073931
0.814835  0.615394  0.072885
0.927847  0.668155  0.069583
0.379274  0.315591  0.106545
0.459940  0.392586  0.085314
0.553731  0.445292  0.086058
0.604908  0.500462  0.088263
0.699820  0.587491  0.067392
0.779505  0.650728  0.072218
0.861788  0.703070  0.073882
0.955807  0.747362  0.082918
0.464351  0.384162  0.082681
0.531802  0.437182  0.077709
0.614661  0.508159  0.088352
0.692715  0.577332  0.073324
0.761087  0.632490  0.080168
0.831320  0.680901  0.073519
0.902861  0.746090  0.084209
1.022766  0.800371  0.088506
0.537344  0.448648  0.084239
0.603808  0.510525  0.086236
0.687258  0.563585  0.067576
0.741867  0.622485  0.080979
0.809366  0.677056  0.074097
0.887458  0.726890  0.084215
0.970220  0.783926  0.089903
1.078228  0.849269  0.084149
0.095601  0.086332  0.041544
0.114975  0.114254  0.059024
0.187984  0.168465  0.086835
0.307870  0.246073  0.069920
0.425492  0.301931  0.061396
0.526502  0.353102  0.056759
0.635231  0.407209  0.049349
0.773040  0.451798  0.049658
0.122077  0.125667  0.076350
0.157294  0.157375  0.101764
0.229826  0.200869  0.111873
0.339020  0.279109  0.095115
0.462788  0.339239  0.078189
0.559493  0.403022  0.069398
0.687406  0.445500  0.056833
0.793862  0.495644  0.055349
0.152619  0.176401  0.137453
0.206774  0.212222  0.152447
0.290181  0.256507  0.148500
0.388985  0.318865  0.133687
0.495615  0.386602  0.115621
0.612319  0.440748  0.104530
0.713293  0.490898  0.075204
0.838348  0.553392  0.068985
0.203658  0.224413  0.180950
0.275611  0.266164  0.182433
0.347967  0.312276  0.170239
0.454172  0.371325  0.154737
0.540961  0.424686  0.135430
0.643175  0.493168  0.128538
0.757785  0.548039  0.124921
0.871014  0.597309  0.087458
0.282459  0.285100  0.200094
0.350083  0.309589  0.186462
0.425267  0.377543  0.191012
0.534029  0.441663  0.161734
0.629061  0.507611  0.116184
0.715515  0.565785  0.116173
0.808797  0.620361  0.126269
0.928795  0.670580  0.118356
0.363034  0.333840  0.197831
0.435099  0.387094  0.200516
0.516978  0.437381  0.161514
0.589566  0.502112  0.156406
0.681808  0.575011  0.120228
0.762067  0.628539  0.124428
0.861918  0.711182  0.130398
0.984594  0.761934  0.134679
0.434196  0.380209  0.196640
0.519879  0.439721  0.170318
0.582128  0.494242  0.180438
0.673303  0.559647  0.140443
0.753714  0.629750  0.138182
0.820431  0.686342  0.133692
0.916524  0.750467  0.126510
1.001222  0.787586  0.127391
0.502771  0.445165  0.217134
0.585940  0.509315  0.160612
0.677495  0.554567  0.155297
0.751093  0.630028  0.134988
0.803977  0.680312  0.135264
0.895632  0.745887  0.120760
0.964236  0.786151  0.145866
1.066832  0.841970  0.134126
0.127072  0.142948  0.111871
0.147788  0.161262  0.124780
0.195059  0.194280  0.139463
0.316044  0.268140  0.120456
0.436413  0.323282  0.089641
0.534881  0.380780  0.091573
0.653844  0.430661  0.083644
0.757167  0.470191  0.072392
0.157512  0.185721  0.157513
0.186285  0.217120  0.198727
0.237519  0.259570  0.220240
0.337947  0.303351  0.182976
0.475258  0.371648  0.143493
0.552365  0.413370  0.135425
0.665785  0.472823  0.114194
0.799693  0.531782  0.108348
0.203088  0.242250  0.235459
0.215385  0.268871  0.267929
0.242383  0.274801  0.250176
0.376283  0.365072  0.253744
0.502524  0.410506  0.227164
0.603527  0.458731  0.154080
0.723211  0.520450  0.152035
0.826941  0.585540  0.150816
0.215148  0.273639  0.284317
0.259488  0.323200  0.322755
0.318038  0.348607  0.314612
0.413961  0.406625  0.320176
0.532282  0.462813  0.263557
0.635836  0.505275  0.224597
0.755798  0.573600  0.215671
0.854633  0.628276  0.202503
0.257232  0.319762  0.318380
0.333224  0.367011  0.337829
0.402753  0.404623  0.323753
0.491486  0.459814  0.327047
0.578285  0.503037  0.302253
0.702539  0.576007  0.294487
0.816541  0.643212  0.245821
0.923368  0.691301  0.253517
0.320737  0.376884  0.360353
0.397085  0.418356  0.364021
0.475763  0.452982  0.336151
0.565501  0.514107  0.325278
0.661998  0.587686  0.320657
0.760222  0.638299  0.279585
0.865372  0.705066  0.261906
0.966364  0.754056  0.263227
0.370662  0.402905  0.354321
0.459668  0.456869  0.360603
0.555831  0.516628  0.333984
0.641640  0.570553  0.338539
0.732604  0.637071  0.320889
0.816652  0.691777  0.308829
0.913751  0.743152  0.260618
1.021041  0.802194  0.250587
0.445298  0.451102  0.368353
0.563084  0.520649  0.352031
0.634379  0.573310  0.331553
0.708064  0.620801  0.317297
0.783573  0.678276  0.310650
0.895060  0.741287  0.280533
0.967716  0.785411  0.281137
1.070924  0.845627  0.262957
0.158350  0.191654  0.176918
0.180099  0.218369  0.210449
0.212106  0.253767  0.238577
0.294537  0.305234  0.240119
0.449211  0.361701  0.172909
0.543109  0.421345  0.156159
0.654139  0.462870  0.139594
0.763022  0.512791  0.139668
0.177344  0.224603  0.217744
0.215016  0.269803  0.261119
0.259182  0.308807  0.293928
0.332996  0.354565  0.298027
0.470218  0.403064  0.228820
0.572642  0.456068  0.216304
0.683545  0.498874  0.184419
0.798056  0.568340  0.189787
0.219842  0.279507  0.277699
0.256345  0.315993  0.324592
0.283198  0.357183  0.364987
0.392070  0.417956  0.373845
0.473072  0.460624  0.359337
0.607346  0.500939  0.276566
0.722032  0.564720  0.270485
0.845899  0.618413  0.256233
0.250206  0.325106  0.348389
0.291991  0.365810  0.388105
0.312638  0.397863  0.423173
0.393377  0.442019  0.404601
0.504896  0.498230  0.397390
0.641764  0.558272  0.350272
0.743575  0.611678  0.327525
0.877871  0.666263  0.299919
0.295954  0.383921  0.409833
0.338285  0.426928  0.446319
0.368971  0.448503  0.462120
0.475378  0.499743  0.449415
0.552093  0.564080  0.480370
0.654242  0.595730  0.412247
0.787853  0.664135  0.393551
0.914162  0.739380  0.360115
0.328169  0.424162  0.461481
0.364465  0.457518  0.472315
0.450842  0.491296  0.456745
0.520425  0.542994  0.481340
0.611543  0.598833  0.479903
0.720568  0.665359  0.485632
0.851999  0.732866  0.436725
0.942030  0.775094  0.423548
0.361623  0.464880  0.498195
0.432843  0.508617  0.499379
0.523062  0.540134  0.476116
0.599732  0.592203  0.489743
0.695760  0.653102  0.491132
0.801375  0.712528  0.455881
0.900764  0.769788  0.454634
1.015753  0.823772  0.465532
0.399304  0.497006  0.522519
0.493198  0.532534  0.490012
0.575265  0.584315  0.508174
0.667660  0.643752  0.488670
0.796975  0.711802  0.469473
0.867839  0.753765  0.455697
0.964000  0.804743  0.484049
1.062974  0.857755  0.472883
0.178658  0.232606  0.237996
0.213069  0.276064  0.292979
0.241044  0.306922  0.310614
0.313643  0.343379  0.310728
0.420513  0.398166  0.291737
0.550803  0.457712  0.248731
0.675848  0.514304  0.223915
0.788487  0.540257  0.188997
0.213803  0.286109  0.294325
0.247215  0.320675  0.333785
0.269143  0.353622  0.372075
0.339949  0.406732  0.402552
0.429014  0.443574  0.378869
0.557690  0.487734  0.327181
0.680182  0.543976  0.277339
0.790407  0.595261  0.258473
0.261911  0.341746  0.355319
0.289760  0.373363  0.390789
0.315897  0.403046  0.423752
0.383723  0.458916  0.465761
0.472752  0.502776  0.442180
0.574489  0.545044  0.418126
0.713596  0.609673  0.372601
0.833313  0.651757  0.337854
0.290845  0.383822  0.403421
0.320677  0.418964  0.442032
0.349899  0.455902  0.485579
0.381254  0.493205  0.524560
0.504722  0.536843  0.498796
0.607307  0.598490  0.495884
0.740419  0.658789  0.442518
0.856960  0.701540  0.398048
0.329504  0.429167  0.457878
0.359793  0.471993  0.511277
0.401870  0.511839  0.543500
0.449553  0.564699  0.588861
0.544178  0.598251  0.569098
0.648764  0.654571  0.567683
0.782077  0.703701  0.512231
0.913071  0.772772  0.479258
0.361552  0.473656  0.511229
0.392790  0.504233  0.535251
0.439806  0.558313  0.587466
0.482259  0.596816  0.617956
0.587975  0.634709  0.586761
0.700598  0.706751  0.626040
0.816409  0.763527  0.601417
0.946966  0.808829  0.547204
0.403421  0.517201  0.556034
0.431837  0.549619  0.592485
0.478074  0.605050  0.628427
0.564396  0.635263  0.616846
0.681907  0.694385  0.609052
0.767599  0.749787  0.636627
0.887310  0.800325  0.611676
1.009065  0.849444  0.590911
0.445120  0.563568  0.599159
0.475232  0.599938  0.637770
0.543762  0.632499  0.629658
0.655633  0.684499  0.625612
0.740547  0.732635  0.623820
0.840592  0.773713  0.614046
0.947591  0.832796  0.627231
1.048752  0.875417  0.605668
0.233046  0.303294  0.321489
0.244851  0.325498  0.342974
0.279788  0.370175  0.398279
0.317740  0.393721  0.399382
0.429236  0.443387  0.381849
0.519560  0.496472  0.364967
0.655067  0.527706  0.307525
0.792974  0.585864  0.283878
0.262454  0.343548  0.369559
0.291712  0.378255  0.408016
0.317205  0.411148  0.443646
0.362257  0.445313  0.468181
0.462694  0.503630  0.464941
0.554322  0.551535  0.458426
0.678771  0.599261  0.406293
0.815132  0.635031  0.368667
0.303383  0.398661  0.427724
0.330753  0.431573  0.461029
0.367565  0.479894  0.509508
0.399677  0.508622  0.530614
0.461203  0.542979  0.535229
0.596096  0.606985  0.532545
0.697128  0.642648  0.475911
0.837642  0.707606  0.447703
0.321611  0.431390  0.475564
0.364063  0.470119  0.499135
0.407991  0.527180  0.560687
0.435741  0.552153  0.583657
0.483363  0.600979  0.625592
0.612806  0.637787  0.575984
0.735896  0.693959  0.547769
0.853158  0.762481  0.546636
0.371364  0.486194  0.523454
0.401500  0.525612  0.563628
0.442901  0.565389  0.600905
0.477144  0.606377  0.638482
0.529104  0.655363  0.679396
0.636972  0.691108  0.647848
0.752339  0.735543  0.621668
0.905234  0.806633  0.605636
0.403109  0.524496  0.563468
0.437866  0.565476  0.600492
0.483559  0.610257  0.649132
0.516772  0.646063  0.676850
0.579906  0.701659  0.729313
0.692822  0.750684  0.720961
0.818992  0.794821  0.697812
0.942475  0.839158  0.666660
0.449502  0.574625  0.611005
0.489631  0.616025  0.649861
0.542585  0.662331  0.694124
0.564042  0.689059  0.722395
0.637160  0.741124  0.756768
0.734145  0.779080  0.750542
0.876646  0.844680  0.728902
0.981249  0.874298  0.701681
0.482420  0.615762  0.647423
0.521384  0.649561  0.686278
0.564365  0.697040  0.743255
0.601508  0.729073  0.759555
0.700161  0.784802  0.780656
0.826180  0.825167  0.748819
0.915613  0.860574  0.741104
1.023599  0.908736  0.738616
0.272496  0.358441  0.393705
0.296514  0.392834  0.423227
0.326771  0.424341  0.460741
0.359610  0.466123  0.501948
0.421755  0.491771  0.482119
0.514366  0.537008  0.472139
0.644341  0.581289  0.405858
0.777582  0.634665  0.382407
0.309608  0.408913  0.440975
0.325519  0.436984  0.473260
0.363057  0.473378  0.510234
0.401509  0.520863  0.564146
0.441903  0.548397  0.570303
0.561678  0.584334  0.517130
0.665725  0.639980  0.511129
0.814188  0.692491  0.462093
0.333942  0.443688  0.481454
0.372981  0.486333  0.525387
0.402832  0.525456  0.565498
0.436122  0.563684  0.602965
0.482609  0.606357  0.640134
0.593864  0.647249  0.610647
0.698274  0.692245  0.601211
0.817252  0.745944  0.559268
0.372240  0.490039  0.528282
0.397138  0.516902  0.551134
0.456243  0.576840  0.606986
0.496069  0.623977  0.657393
0.535447  0.665165  0.700092
0.597689  0.695806  0.690409
0.753083  0.745284  0.649106
0.863083  0.793400  0.630849
0.405250  0.528602  0.562842
0.453682  0.575383  0.617921
0.488856  0.612907  0.650439
0.538079  0.670424  0.707882
0.577137  0.713420  0.767045
0.638697  0.734073  0.751105
0.778380  0.777833  0.703280
0.896884  0.833395  0.703980
0.447696  0.569891  0.612555
0.488434  0.619138  0.655698
0.531141  0.661857  0.701442
0.584064  0.725198  0.769618
0.621779  0.759391  0.813071
0.678606  0.796698  0.848924
0.792353  0.835667  0.816359
0.932769  0.872436  0.756023
0.490752  0.618298  0.663320
0.524248  0.658212  0.691729
0.563611  0.698504  0.740982
0.624230  0.754811  0.806258
0.670117  0.788980  0.843049
0.731683  0.844229  0.879226
0.833398  0.894553  0.895724
0.969521  0.909161  0.801792
0.526620  0.664347  0.701198
0.559313  0.698236  0.742698
0.597350  0.745777  0.803190
0.660720  0.787593  0.849762
0.712359  0.829524  0.875802
0.783598  0.881788  0.917279
0.875671  0.920089  0.929397
1.004126  0.951244  0.863641
0.308178  0.416787  0.456403
0.333856  0.442928  0.487735
0.371220  0.485459  0.534720
0.403980  0.523897  0.569239
0.444845  0.570522  0.615172
0.519703  0.595280  0.582648
0.645339  0.635707  0.536407
0.797078  0.693734  0.488121
0.335954  0.450712  0.495938
0.371684  0.492868  0.536981
0.416606  0.539091  0.577743
0.450228  0.579051  0.616416
0.495291  0.621096  0.660600
0.545501  0.658338  0.672086
0.654374  0.683946  0.626537
0.795581  0.738102  0.571395
0.370783  0.494563  0.533295
0.413326  0.535491  0.573663
0.453312  0.582674  0.623159
0.506342  0.636543  0.671678
0.538916  0.683904  0.727629
0.595915  0.722586  0.761212
0.703725  0.736960  0.689351
0.843019  0.795738  0.659183
0.418919  0.538620  0.577999
0.445389  0.575243  0.612104
0.500352  0.629789  0.663568
0.553199  0.687287  0.727211
0.574425  0.719034  0.772198
0.628192  0.759170  0.803573
0.700774  0.797195  0.818478
0.856186  0.828393  0.730214
0.445295  0.567881  0.608974
0.493224  0.623001  0.655191
0.532528  0.665380  0.701426
0.571546  0.709267  0.768888
0.611362  0.751188  0.805258
0.670622  0.794046  0.840754
0.748886  0.854859  0.902073
0.870881  0.878021  0.832702
0.477916  0.606964  0.640428
0.522914  0.651733  0.687552
0.564079  0.707808  0.755550
0.605958  0.743248  0.800919
0.643597  0.778601  0.833969
0.729267  0.839898  0.881498
0.799935  0.890293  0.924158
0.884338  0.921637  0.929388
0.527470  0.660202  0.697023
0.565100  0.708273  0.756148
0.591300  0.739956  0.799874
0.644368  0.774750  0.824454
0.698596  0.822201  0.870134
0.776892  0.875502  0.909001
0.844081  0.916537  0.941668
0.925102  0.959823  0.978594
0.559724  0.701149  0.740877
0.578909  0.717411  0.787385
0.629161  0.765543  0.833145
0.695611  0.816514  0.868186
0.753414  0.852543  0.897409
0.828228  0.909099  0.936703
0.890460  0.942193  0.969652
0.961225  0.976733  0.989719
