LUT/LUT_35.CUBE
TITLE "LUT_35" 
#LUT size 
LUT_3D_SIZE 5 
#data point 
DOMAIN_MIN 0.000000 0.000000 0.000000
DOMAIN_MAX 0.857143 0.857143 0.857143
0.075605  0.075637  0.033931
0.122459  0.115653  0.066350
0.312189  0.237544  0.068527
0.455075  0.342828  0.068229
0.614144  0.423712  0.060049
0.118492  0.113361  0.063604
0.199287  0.179405  0.099105
0.378353  0.296202  0.091059
0.519408  0.386133  0.079404
0.659232  0.480274  0.072107
0.221181  0.190250  0.087752
0.343842  0.276791  0.104657
0.453356  0.341485  0.085309
0.616265  0.471382  0.085257
0.739408  0.551481  0.081828
0.359775  0.291825  0.113633
0.460165  0.369787  0.104238
0.581224  0.457598  0.090917
0.703221  0.574295  0.082987
0.822851  0.674857  0.085240
0.472624  0.364423  0.096510
0.592012  0.464916  0.087154
0.697506  0.568403  0.084537
0.783463  0.653776  0.090030
0.909496  0.735053  0.087218
0.129164  0.123958  0.076236
0.162499  0.169678  0.117341
0.316339  0.262914  0.104179
0.459359  0.336893  0.092505
0.601938  0.444607  0.077551
0.164082  0.174815  0.143734
0.212700  0.221443  0.176459
0.363998  0.316079  0.162403
0.536135  0.415243  0.111188
0.677309  0.508943  0.101195
0.215533  0.256308  0.233633
0.291406  0.312164  0.266077
0.431876  0.374475  0.213363
0.570275  0.454419  0.161995
0.734658  0.576838  0.163840
0.285880  0.328238  0.305534
0.394431  0.381019  0.265415
0.526033  0.447947  0.248905
0.671487  0.551835  0.197194
0.814152  0.655696  0.176436
0.407663  0.392471  0.288601
0.539183  0.466380  0.254227
0.649116  0.550115  0.247908
0.791478  0.650705  0.185924
0.926455  0.735135  0.181193
0.163166  0.189138  0.164271
0.197588  0.228817  0.203700
0.276304  0.295605  0.252233
0.488246  0.390059  0.162696
0.643316  0.482814  0.132195
0.210006  0.258945  0.249331
0.257914  0.316098  0.303177
0.354449  0.382367  0.340749
0.499457  0.450787  0.273590
0.691014  0.554196  0.222190
0.265649  0.329960  0.331152
0.308667  0.395278  0.413419
0.390468  0.438577  0.413114
0.558365  0.524832  0.389823
0.731372  0.620540  0.326159
0.326256  0.407500  0.428794
0.380203  0.461894  0.468911
0.478727  0.517532  0.468639
0.624369  0.602326  0.475690
0.820366  0.702405  0.409335
0.363528  0.470152  0.490318
0.481297  0.525080  0.496740
0.577136  0.588173  0.501705
0.743737  0.680522  0.492649
0.903884  0.765122  0.464452
0.216379  0.269102  0.269404
0.270564  0.333459  0.336505
0.324448  0.369394  0.348691
0.462907  0.436935  0.320202
0.652176  0.537065  0.248473
0.265974  0.342355  0.360208
0.313234  0.398218  0.414329
0.353727  0.439392  0.456446
0.499984  0.523389  0.450431
0.692847  0.600843  0.390843
0.329854  0.419212  0.438173
0.367542  0.470608  0.500777
0.412033  0.521669  0.551379
0.546080  0.589797  0.548489
0.725861  0.674401  0.499732
0.383672  0.485461  0.517252
0.416362  0.534012  0.570135
0.489131  0.609947  0.642457
0.634755  0.682595  0.635767
0.764378  0.741540  0.613988
0.430714  0.539323  0.571564
0.485536  0.608782  0.640333
0.558989  0.682395  0.703191
0.694446  0.744016  0.700838
0.851083  0.805737  0.686195
0.292119  0.372198  0.389982
0.321840  0.410269  0.432690
0.363383  0.475650  0.505249
0.464519  0.509798  0.477484
0.619963  0.572838  0.417320
0.330071  0.419180  0.445415
0.372313  0.473614  0.506644
0.437633  0.553546  0.580281
0.508641  0.584613  0.576213
0.664383  0.657906  0.563391
0.376658  0.491314  0.517836
0.444646  0.564632  0.598315
0.492429  0.619868  0.649855
0.553710  0.678854  0.700862
0.750013  0.747441  0.649466
0.425854  0.552326  0.581465
0.502966  0.625767  0.661861
0.552076  0.677427  0.717565
0.635124  0.756250  0.792265
0.763044  0.802574  0.768394
0.498353  0.622954  0.652547
0.563068  0.692454  0.722174
0.629327  0.760713  0.804929
0.705561  0.816466  0.868064
0.832278  0.893275  0.894553
