LUT/LUT_39.CUBE
TITLE "LUT_39" 
#LUT size 
LUT_3D_SIZE 15 
DOMAIN_MIN 0.0 0.0 0.0 
DOMAIN_MAX 1.0 1.0 1.0 
#data point 
0.079270  0.076824  0.036862
0.088959  0.086609  0.046181
0.108960  0.096692  0.052495
0.128851  0.122296  0.062804
0.169305  0.149343  0.073216
0.231719  0.200341  0.088517
0.305533  0.237710  0.076941
0.329752  0.267349  0.091677
0.405865  0.303677  0.080950
0.452429  0.343681  0.073507
0.506488  0.374576  0.072934
0.544000  0.396935  0.079915
0.609285  0.430232  0.065438
0.649456  0.475192  0.072658
0.714948  0.502340  0.065880
0.094460  0.090958  0.042513
0.104157  0.100531  0.049480
0.114697  0.110972  0.054986
0.142971  0.140329  0.075812
0.199979  0.184359  0.101813
0.255856  0.217712  0.085664
0.319469  0.253228  0.089219
0.382521  0.294351  0.081292
0.420593  0.321880  0.079748
0.464902  0.349463  0.077010
0.514965  0.373765  0.082115
0.586146  0.420180  0.073001
0.648305  0.467613  0.070405
0.685881  0.490639  0.073055
0.725896  0.517552  0.071190
0.121104  0.110500  0.053674
0.110218  0.102954  0.051928
0.123737  0.114007  0.051663
0.160039  0.149057  0.089856
0.225226  0.203540  0.097483
0.268568  0.225988  0.088698
0.349043  0.274638  0.087918
0.381077  0.296691  0.084649
0.458061  0.340867  0.088012
0.487152  0.369611  0.082166
0.536252  0.395760  0.083157
0.603570  0.453950  0.076980
0.641396  0.467710  0.079479
0.701663  0.495588  0.076583
0.736748  0.535685  0.062490
0.123475  0.113627  0.058305
0.133090  0.118836  0.059723
0.155478  0.144819  0.077260
0.200161  0.182205  0.094654
0.264009  0.222123  0.093896
0.305055  0.252715  0.095196
0.378562  0.295498  0.092848
0.413239  0.317639  0.094628
0.474630  0.352890  0.068943
0.514996  0.385898  0.087312
0.559098  0.423530  0.090744
0.611150  0.457949  0.090533
0.647694  0.481214  0.072397
0.726736  0.524918  0.071906
0.777688  0.571404  0.070583
0.137925  0.138010  0.081500
0.165392  0.151751  0.085423
0.204014  0.186886  0.098368
0.230673  0.206724  0.111981
0.287630  0.243525  0.094136
0.353491  0.281265  0.099477
0.393686  0.314479  0.090115
0.446702  0.338439  0.085130
0.485584  0.361988  0.078473
0.554456  0.408069  0.080984
0.590560  0.453101  0.090159
0.656164  0.491151  0.081105
0.681901  0.518023  0.077049
0.737283  0.546214  0.078555
0.796473  0.577847  0.070215
0.164918  0.159687  0.099523
0.212090  0.184010  0.093102
0.230761  0.201103  0.094570
0.282772  0.236588  0.102641
0.328167  0.261588  0.094045
0.353181  0.290878  0.104814
0.415714  0.321882  0.100459
0.475575  0.365958  0.093726
0.506653  0.385088  0.082083
0.537838  0.402724  0.079295
0.607053  0.462733  0.077220
0.657185  0.494444  0.088835
0.725294  0.545186  0.080237
0.766863  0.578796  0.087851
0.808913  0.593243  0.069969
0.218217  0.191843  0.092496
0.251230  0.224905  0.121735
0.307115  0.260853  0.107208
0.337883  0.274363  0.106858
0.375815  0.297040  0.102705
0.421864  0.331867  0.105682
0.453774  0.347512  0.087567
0.513165  0.402186  0.096556
0.542986  0.419622  0.083873
0.607000  0.468725  0.083842
0.643664  0.488004  0.081996
0.670198  0.518332  0.092312
0.733265  0.557008  0.093510
0.799469  0.591912  0.070342
0.845816  0.620333  0.081577
0.266036  0.234745  0.122391
0.301171  0.255700  0.101334
0.320624  0.264209  0.113171
0.372809  0.293749  0.095942
0.426019  0.345044  0.118654
0.456927  0.357099  0.089909
0.490035  0.375438  0.084691
0.548967  0.411297  0.088187
0.583378  0.446611  0.087315
0.623834  0.494653  0.086254
0.669454  0.527776  0.078361
0.724565  0.558654  0.090729
0.760131  0.593372  0.076243
0.833851  0.641037  0.084159
0.892618  0.662928  0.070855
0.302978  0.262633  0.124692
0.353187  0.289750  0.103139
0.382489  0.294718  0.094198
0.414450  0.323426  0.092020
0.472596  0.360581  0.093725
0.491706  0.385689  0.091624
0.526009  0.407371  0.094779
0.585749  0.440911  0.092383
0.610059  0.481595  0.082496
0.663568  0.531823  0.088226
0.693758  0.559135  0.082382
0.742965  0.595917  0.097495
0.801244  0.617718  0.089659
0.835468  0.654591  0.078409
0.908401  0.696124  0.089587
0.355661  0.290088  0.124549
0.380028  0.306438  0.107276
0.422156  0.326122  0.096308
0.459760  0.368830  0.107053
0.494258  0.401075  0.095398
0.533962  0.425275  0.092679
0.580457  0.458850  0.094194
0.623553  0.490170  0.090792
0.655081  0.520237  0.088105
0.702525  0.572806  0.082057
0.752486  0.604760  0.094849
0.783458  0.636463  0.078202
0.827219  0.670817  0.087654
0.860111  0.675840  0.083816
0.912670  0.724160  0.088248
0.380026  0.308214  0.122062
0.427673  0.346396  0.117297
0.468735  0.370347  0.097746
0.495513  0.381164  0.087135
0.551259  0.435827  0.097851
0.584419  0.451971  0.087310
0.613619  0.474824  0.097926
0.668297  0.525904  0.080134
0.706394  0.578700  0.084784
0.725468  0.591048  0.089258
0.783853  0.640487  0.080886
0.803464  0.647351  0.090165
0.859531  0.699411  0.087815
0.910761  0.731041  0.078410
0.947736  0.752093  0.098239
0.419945  0.332806  0.110891
0.460058  0.364457  0.103776
0.503193  0.396962  0.104119
0.544210  0.429670  0.099100
0.584483  0.452863  0.094588
0.636849  0.501662  0.091106
0.660730  0.523626  0.087074
0.676534  0.550751  0.088558
0.736285  0.595792  0.085266
0.755805  0.619374  0.077620
0.805132  0.655735  0.096451
0.842179  0.683047  0.092520
0.888387  0.708412  0.083332
0.921600  0.747445  0.088509
0.969903  0.764504  0.089821
0.466545  0.361075  0.097021
0.480888  0.384867  0.102123
0.523781  0.420318  0.099832
0.593475  0.463493  0.087189
0.624344  0.494292  0.086863
0.651432  0.523046  0.097519
0.695534  0.564258  0.081349
0.720717  0.582301  0.084917
0.762920  0.626136  0.096392
0.786169  0.648690  0.092473
0.827189  0.667258  0.082718
0.887978  0.715445  0.090565
0.908599  0.736209  0.086486
0.940770  0.761884  0.090507
1.020552  0.784425  0.090420
0.510076  0.406466  0.098205
0.564715  0.450229  0.097433
0.573387  0.457532  0.083393
0.623906  0.498567  0.092138
0.654857  0.526466  0.084502
0.671675  0.542737  0.087423
0.722654  0.578793  0.078590
0.771890  0.618196  0.085247
0.794474  0.648693  0.093331
0.821792  0.660398  0.096554
0.844279  0.692745  0.080118
0.906152  0.726982  0.084823
0.940268  0.760872  0.096959
0.990069  0.789013  0.103280
1.019562  0.786363  0.094775
0.539594  0.426359  0.100881
0.575974  0.451830  0.088090
0.629679  0.503620  0.102445
0.674082  0.535000  0.077924
0.687351  0.551694  0.085421
0.707210  0.571377  0.092308
0.743790  0.606257  0.094861
0.786314  0.646261  0.087873
0.802630  0.647185  0.082420
0.852275  0.693539  0.097959
0.884156  0.708606  0.098517
0.934007  0.747710  0.096762
0.968306  0.766875  0.103073
1.024265  0.794840  0.091691
1.080918  0.823698  0.090379
0.090819  0.083056  0.041168
0.101201  0.097898  0.044349
0.104967  0.100379  0.047538
0.125143  0.111662  0.057089
0.160355  0.145964  0.069041
0.232305  0.195652  0.083752
0.309278  0.255412  0.097997
0.356462  0.280627  0.097409
0.403171  0.316335  0.072407
0.435346  0.324136  0.072539
0.500539  0.365778  0.069614
0.557587  0.409483  0.076854
0.613957  0.440090  0.068213
0.652546  0.478089  0.070057
0.708034  0.507817  0.076623
0.100032  0.092781  0.050848
0.106592  0.101194  0.050831
0.110485  0.107949  0.058518
0.149086  0.139899  0.070333
0.182057  0.162802  0.098609
0.273458  0.222523  0.088464
0.309040  0.249316  0.085460
0.367268  0.279775  0.076014
0.413764  0.321278  0.081289
0.481075  0.362116  0.091270
0.512954  0.388136  0.074229
0.557463  0.406948  0.070245
0.624655  0.461931  0.068071
0.673644  0.490269  0.071183
0.731725  0.525345  0.075314
0.106702  0.100010  0.050892
0.118792  0.114373  0.060988
0.137654  0.129572  0.063287
0.167901  0.156025  0.083962
0.213210  0.194062  0.102423
0.296237  0.243265  0.087352
0.321708  0.256791  0.079604
0.381807  0.296779  0.087713
0.447246  0.335730  0.080779
0.486280  0.366549  0.087092
0.540280  0.400062  0.076638
0.595402  0.441165  0.070394
0.652283  0.468791  0.074933
0.706331  0.513009  0.074802
0.770012  0.548536  0.071115
0.138647  0.131291  0.071835
0.131694  0.131276  0.075770
0.157178  0.157237  0.089779
0.181946  0.166283  0.090093
0.238949  0.217938  0.111631
0.317148  0.258702  0.096432
0.354655  0.280230  0.100501
0.427951  0.335493  0.099195
0.470245  0.354274  0.100541
0.504387  0.379808  0.081379
0.559770  0.433162  0.087942
0.617530  0.450925  0.085184
0.675057  0.496194  0.079125
0.700498  0.516693  0.073828
0.772642  0.572820  0.072524
0.162116  0.159819  0.091221
0.167581  0.155613  0.087853
0.192119  0.183856  0.117602
0.228462  0.209351  0.118986
0.291165  0.242403  0.121933
0.342179  0.277473  0.101656
0.384135  0.301908  0.104996
0.441943  0.339295  0.085818
0.491491  0.380725  0.090231
0.534626  0.406625  0.097916
0.581809  0.432972  0.081963
0.627969  0.476813  0.086544
0.676311  0.522291  0.097427
0.733962  0.537804  0.084057
0.770239  0.584150  0.083956
0.182578  0.168499  0.096079
0.207056  0.191005  0.106558
0.231890  0.214957  0.121377
0.279508  0.246032  0.132436
0.330347  0.278627  0.110296
0.392654  0.315385  0.106883
0.440212  0.346051  0.109963
0.464682  0.361077  0.116705
0.504458  0.389536  0.100356
0.561071  0.431034  0.107156
0.601410  0.462135  0.092981
0.651170  0.494995  0.078735
0.689654  0.520866  0.075793
0.767994  0.561546  0.073796
0.841833  0.629461  0.072256
0.232467  0.223061  0.149049
0.256545  0.231853  0.122278
0.276681  0.257581  0.143688
0.312989  0.276576  0.141626
0.371373  0.304683  0.118790
0.419816  0.330205  0.097835
0.464074  0.359925  0.101135
0.495814  0.390673  0.121089
0.546098  0.428352  0.110446
0.577729  0.441732  0.102644
0.645760  0.516973  0.101170
0.683569  0.517863  0.084067
0.747773  0.565011  0.077480
0.785087  0.597196  0.083808
0.845307  0.630429  0.080098
0.256166  0.225999  0.120847
0.286228  0.255600  0.131828
0.333886  0.290752  0.140875
0.365553  0.306856  0.145939
0.425802  0.333127  0.102262
0.444259  0.358124  0.115286
0.516930  0.401637  0.093870
0.546186  0.425564  0.099189
0.581200  0.450036  0.115668
0.610860  0.491555  0.095283
0.674150  0.524930  0.093258
0.711258  0.549388  0.078451
0.770723  0.596387  0.076712
0.804490  0.617625  0.084465
0.881010  0.657158  0.074147
0.293547  0.260700  0.140661
0.338470  0.294197  0.163715
0.369567  0.307588  0.127601
0.404553  0.333731  0.127671
0.457463  0.360133  0.113424
0.483579  0.383125  0.110050
0.536746  0.420508  0.110052
0.572048  0.460613  0.099426
0.615124  0.482433  0.095249
0.667843  0.544743  0.092747
0.697560  0.552815  0.094580
0.748420  0.604885  0.095694
0.792710  0.630460  0.088842
0.851748  0.669982  0.096202
0.884784  0.684263  0.084463
0.316913  0.275854  0.140117
0.384945  0.320285  0.129553
0.412143  0.334321  0.133852
0.467551  0.372863  0.109043
0.498267  0.390864  0.117757
0.549898  0.440698  0.110739
0.593888  0.459642  0.112242
0.620542  0.493603  0.107679
0.665486  0.524448  0.104784
0.706506  0.567447  0.097955
0.752958  0.604771  0.080593
0.768993  0.620891  0.089118
0.823399  0.652575  0.089922
0.874620  0.687527  0.088360
0.933977  0.730358  0.092203
0.368029  0.310004  0.148131
0.392830  0.329214  0.157945
0.428847  0.355461  0.124183
0.510251  0.401761  0.112773
0.539397  0.429909  0.117596
0.582540  0.455386  0.103998
0.630451  0.506917  0.096314
0.677225  0.541826  0.096469
0.699223  0.562142  0.088608
0.735345  0.600483  0.093391
0.782260  0.636056  0.099724
0.825895  0.660629  0.095749
0.851891  0.682016  0.081703
0.907531  0.724856  0.100116
0.933529  0.732114  0.101122
0.395426  0.340198  0.150413
0.451784  0.368597  0.142754
0.502545  0.404215  0.125795
0.531170  0.419912  0.114901
0.586694  0.474098  0.115649
0.605850  0.481974  0.101852
0.637836  0.503527  0.116294
0.691568  0.549567  0.117178
0.722903  0.578612  0.091719
0.748985  0.614216  0.088493
0.797992  0.654152  0.079092
0.857424  0.681677  0.108758
0.891112  0.717274  0.094325
0.917440  0.741574  0.096909
0.979956  0.759632  0.087797
0.466257  0.373242  0.123705
0.523081  0.423419  0.102876
0.547775  0.437322  0.118035
0.594587  0.467398  0.105909
0.613243  0.484677  0.110031
0.671720  0.531980  0.114077
0.701931  0.565945  0.102361
0.707965  0.580379  0.105572
0.766801  0.619864  0.097640
0.789275  0.644330  0.102999
0.824261  0.673943  0.112632
0.882772  0.706543  0.099923
0.902823  0.742773  0.097915
0.980647  0.771107  0.103771
1.002018  0.768762  0.092089
0.500074  0.397551  0.139672
0.531119  0.419130  0.110571
0.581131  0.455170  0.097772
0.587904  0.465464  0.104226
0.654199  0.530711  0.106232
0.687577  0.532747  0.092850
0.701827  0.580108  0.113617
0.770893  0.632998  0.084005
0.793604  0.637697  0.092791
0.826161  0.669819  0.108333
0.860735  0.702256  0.097502
0.881180  0.716876  0.108054
0.935873  0.752339  0.100565
0.966979  0.770438  0.092395
1.002545  0.788267  0.097079
0.536390  0.435515  0.132210
0.576734  0.457929  0.105474
0.593574  0.469208  0.096379
0.651335  0.508898  0.098795
0.675760  0.551137  0.107893
0.719539  0.568671  0.105467
0.756345  0.603682  0.108927
0.781371  0.645976  0.114274
0.820397  0.670572  0.112503
0.843801  0.693155  0.115772
0.904582  0.738955  0.108501
0.913185  0.739441  0.105065
0.977480  0.771330  0.095296
1.023888  0.803712  0.105233
1.063727  0.817469  0.105943
0.109517  0.103500  0.049724
0.112962  0.108988  0.063299
0.118344  0.114855  0.066471
0.155287  0.143239  0.078447
0.183512  0.168466  0.082308
0.225779  0.196356  0.094021
0.282696  0.233524  0.091915
0.374986  0.283967  0.088027
0.406676  0.312184  0.082573
0.449366  0.341389  0.077931
0.505797  0.381858  0.073165
0.562319  0.411387  0.074111
0.598353  0.447132  0.079379
0.661591  0.482546  0.073269
0.725809  0.493426  0.073229
0.123017  0.113793  0.054541
0.131125  0.130976  0.075640
0.154126  0.141462  0.079470
0.151017  0.141898  0.080094
0.209359  0.179626  0.087096
0.278768  0.240699  0.108912
0.331797  0.267853  0.106883
0.359636  0.285427  0.101563
0.426697  0.332978  0.082560
0.476760  0.351501  0.080996
0.526049  0.401937  0.074070
0.576597  0.433775  0.074407
0.626867  0.463405  0.076535
0.704312  0.503359  0.073776
0.730031  0.529449  0.072573
0.133863  0.129156  0.072650
0.145816  0.144955  0.090753
0.160661  0.154163  0.093768
0.182218  0.175877  0.105856
0.216167  0.202302  0.111070
0.285076  0.249884  0.115172
0.309848  0.265110  0.116560
0.388687  0.304853  0.107175
0.431344  0.341930  0.099126
0.505904  0.383121  0.102152
0.550886  0.414182  0.089057
0.592511  0.437463  0.086185
0.659916  0.485282  0.074173
0.701557  0.501968  0.076282
0.739272  0.532034  0.072525
0.152001  0.156604  0.101980
0.159517  0.165460  0.109832
0.175352  0.181917  0.132089
0.207642  0.198485  0.132252
0.226720  0.214378  0.134782
0.314613  0.270122  0.139264
0.367916  0.308272  0.130155
0.399668  0.317526  0.126168
0.466761  0.358879  0.100808
0.512569  0.391321  0.079813
0.552733  0.420836  0.098208
0.623304  0.469130  0.083491
0.656122  0.499356  0.081828
0.689941  0.514260  0.083142
0.767264  0.548668  0.082169
0.156046  0.162617  0.117061
0.189352  0.207333  0.165295
0.197751  0.202420  0.152246
0.218620  0.221765  0.150761
0.276587  0.260562  0.154996
0.315453  0.282636  0.145632
0.382861  0.317124  0.129762
0.442042  0.348868  0.114970
0.492357  0.376860  0.122516
0.540467  0.410319  0.108135
0.589952  0.446585  0.107362
0.638073  0.490760  0.096299
0.682932  0.509110  0.092277
0.736060  0.560396  0.084421
0.792594  0.595338  0.093894
0.179709  0.199095  0.157225
0.200072  0.205299  0.158272
0.227480  0.234685  0.172406
0.258585  0.250166  0.161050
0.297789  0.272145  0.165586
0.355673  0.316382  0.170813
0.409337  0.341048  0.142290
0.465129  0.377936  0.123892
0.524659  0.404826  0.110638
0.569239  0.440675  0.125229
0.617906  0.475479  0.099362
0.654957  0.501391  0.111461
0.703196  0.537642  0.100143
0.773382  0.592189  0.096981
0.814721  0.614740  0.084603
0.206758  0.231042  0.187527
0.241294  0.241687  0.180213
0.263822  0.261849  0.194010
0.306441  0.279354  0.188338
0.335919  0.295963  0.160252
0.400058  0.330454  0.169228
0.441246  0.360662  0.148637
0.495891  0.397464  0.143602
0.526413  0.403702  0.134252
0.587341  0.451824  0.122460
0.627436  0.491657  0.134177
0.684639  0.540394  0.121536
0.743321  0.565058  0.130862
0.800595  0.608325  0.108892
0.838279  0.638154  0.094039
0.270419  0.274282  0.204405
0.275405  0.283771  0.215983
0.322326  0.303009  0.193807
0.353276  0.316090  0.179319
0.382848  0.334252  0.177044
0.438081  0.355285  0.161015
0.486096  0.406770  0.182285
0.538912  0.435210  0.138004
0.593089  0.460825  0.136839
0.634994  0.494476  0.131461
0.670286  0.524675  0.135749
0.704989  0.548249  0.123511
0.749131  0.582985  0.119326
0.812519  0.629143  0.110363
0.859220  0.666006  0.095679
0.291161  0.279548  0.202051
0.319458  0.305829  0.196238
0.334563  0.301322  0.181444
0.386619  0.340368  0.182877
0.420584  0.374378  0.194379
0.457545  0.380704  0.175612
0.531043  0.440637  0.181028
0.555799  0.443109  0.132887
0.617322  0.496706  0.119361
0.662704  0.530266  0.129415
0.708723  0.566953  0.104534
0.740719  0.596838  0.125056
0.793878  0.625774  0.123956
0.833935  0.655853  0.132214
0.902679  0.691246  0.116720
0.298623  0.295385  0.216087
0.348497  0.334249  0.214068
0.385115  0.340917  0.173476
0.418523  0.374112  0.214964
0.470404  0.393115  0.192681
0.524433  0.429461  0.163682
0.569780  0.467491  0.170851
0.607740  0.485134  0.121466
0.660348  0.523282  0.141621
0.695665  0.562469  0.122806
0.739059  0.602684  0.111631
0.783776  0.628745  0.119853
0.816618  0.653233  0.120903
0.869484  0.696535  0.131539
0.912375  0.718977  0.125811
0.364598  0.329658  0.195195
0.382824  0.339627  0.204054
0.431060  0.383580  0.196071
0.492998  0.404791  0.162228
0.501710  0.420067  0.163510
0.552158  0.443483  0.170201
0.580079  0.473785  0.147039
0.648841  0.535394  0.139226
0.684353  0.565687  0.111857
0.734150  0.598729  0.129444
0.765641  0.627643  0.117188
0.812209  0.652955  0.123503
0.871271  0.699111  0.131820
0.897015  0.704108  0.125598
0.973368  0.758257  0.134237
0.391079  0.349428  0.204575
0.430977  0.376762  0.203580
0.480894  0.406768  0.205025
0.506124  0.414178  0.173795
0.565039  0.463034  0.175631
0.606132  0.489838  0.157995
0.628266  0.511351  0.148010
0.690178  0.545530  0.127074
0.724200  0.582312  0.147035
0.777215  0.633139  0.119679
0.799239  0.642836  0.119830
0.826148  0.695285  0.124295
0.893148  0.722168  0.125370
0.937921  0.747160  0.130684
0.970917  0.780667  0.147071
0.424456  0.374409  0.210933
0.457519  0.389046  0.207122
0.525250  0.425486  0.180312
0.544902  0.443807  0.186577
0.598493  0.480392  0.181896
0.648293  0.529463  0.161591
0.676302  0.555008  0.122918
0.710584  0.575345  0.135264
0.752353  0.609958  0.127920
0.802805  0.649930  0.125319
0.829897  0.680987  0.118423
0.865694  0.696938  0.136875
0.924922  0.746935  0.119186
0.954025  0.767158  0.151570
0.990720  0.777187  0.118449
0.468074  0.402838  0.200122
0.520496  0.422089  0.185991
0.519931  0.430896  0.185827
0.589209  0.482843  0.164880
0.619813  0.510251  0.145551
0.679877  0.561724  0.133631
0.719530  0.568821  0.134142
0.763060  0.628000  0.117965
0.787570  0.641548  0.138310
0.806599  0.656669  0.136355
0.843902  0.691462  0.134163
0.913050  0.734605  0.139142
0.932913  0.745896  0.129935
0.995613  0.778815  0.134170
1.021671  0.804764  0.139470
0.502221  0.423914  0.211176
0.537827  0.460449  0.204803
0.594635  0.487887  0.162600
0.639430  0.516190  0.158068
0.680336  0.553789  0.172999
0.721004  0.592099  0.139538
0.765209  0.621091  0.131918
0.785429  0.634515  0.138853
0.825068  0.675435  0.126566
0.864903  0.698122  0.143308
0.895097  0.731719  0.123143
0.921355  0.747122  0.137279
0.976846  0.769602  0.124628
1.027462  0.797234  0.124434
1.066998  0.819735  0.146095
0.125226  0.121796  0.075729
0.119579  0.106481  0.057289
0.142286  0.146865  0.097956
0.162353  0.165124  0.117061
0.193892  0.179307  0.094105
0.233508  0.205235  0.100063
0.311380  0.264213  0.107970
0.376355  0.297194  0.107318
0.409817  0.316769  0.103873
0.456054  0.344967  0.094579
0.507176  0.382499  0.087068
0.567924  0.418699  0.083136
0.593498  0.451374  0.083179
0.667772  0.481043  0.067877
0.716152  0.510142  0.079998
0.137264  0.143660  0.102328
0.145923  0.153061  0.099689
0.159190  0.165445  0.118309
0.183133  0.195735  0.132086
0.203616  0.196063  0.128056
0.241250  0.220420  0.125457
0.325264  0.273849  0.116162
0.383221  0.308487  0.120115
0.429745  0.336173  0.103237
0.475379  0.363235  0.102063
0.532124  0.404965  0.086298
0.573109  0.421082  0.086214
0.648853  0.479919  0.088236
0.702038  0.500744  0.071758
0.738837  0.537431  0.077137
0.146471  0.152498  0.112792
0.168834  0.178176  0.133565
0.179459  0.189756  0.138641
0.201590  0.219967  0.174874
0.228372  0.228980  0.152995
0.291406  0.256339  0.141791
0.336231  0.288709  0.141201
0.379756  0.322721  0.139185
0.448875  0.357325  0.107765
0.507162  0.390855  0.107204
0.546909  0.422568  0.103187
0.608862  0.455330  0.085572
0.640826  0.475401  0.099494
0.704124  0.519732  0.086475
0.781135  0.565133  0.078837
0.160179  0.175998  0.142728
0.178911  0.198378  0.165731
0.188174  0.215095  0.179304
0.205601  0.221179  0.177094
0.259002  0.262788  0.189334
0.292732  0.278708  0.189516
0.363007  0.317862  0.162183
0.402192  0.337330  0.136262
0.483620  0.383851  0.119582
0.526434  0.415838  0.114873
0.537290  0.418031  0.118990
0.621256  0.480887  0.109442
0.673707  0.512913  0.101705
0.708968  0.534725  0.084742
0.781534  0.563516  0.099628
0.186328  0.219061  0.187176
0.203914  0.232061  0.204450
0.206290  0.235324  0.202277
0.234920  0.246808  0.207824
0.265670  0.271387  0.210197
0.315435  0.301906  0.205186
0.342337  0.312991  0.196660
0.439692  0.366462  0.156688
0.460465  0.370905  0.156052
0.542409  0.411256  0.115896
0.591287  0.469700  0.129030
0.621898  0.479967  0.120027
0.684892  0.527557  0.128999
0.719053  0.556279  0.109247
0.798032  0.586265  0.103434
0.199056  0.230884  0.198911
0.205687  0.235531  0.214496
0.222358  0.257943  0.223623
0.250064  0.277797  0.233831
0.306306  0.311465  0.241083
0.345476  0.330060  0.228586
0.423039  0.361686  0.184952
0.452137  0.384808  0.194085
0.503063  0.397106  0.162185
0.539397  0.436274  0.163456
0.601456  0.481251  0.149571
0.656353  0.519208  0.142974
0.722396  0.552105  0.119872
0.758615  0.589514  0.146007
0.792509  0.610032  0.135204
0.217375  0.261437  0.227682
0.227868  0.256665  0.235097
0.265427  0.288428  0.250885
0.289838  0.319165  0.260785
0.334057  0.323025  0.244047
0.397573  0.372173  0.243058
0.432766  0.375793  0.214244
0.476241  0.406057  0.203199
0.530939  0.439544  0.186025
0.563412  0.451514  0.165689
0.617275  0.486097  0.162655
0.702002  0.551131  0.153508
0.730895  0.577741  0.151900
0.785114  0.612238  0.116922
0.846359  0.664134  0.156319
0.227889  0.268441  0.252533
0.271945  0.300735  0.266071
0.292838  0.318954  0.276543
0.327631  0.338002  0.268937
0.362982  0.345059  0.245459
0.440893  0.380754  0.211857
0.453489  0.399752  0.240679
0.512521  0.430779  0.215573
0.553208  0.463154  0.223146
0.600741  0.487754  0.190305
0.683732  0.553268  0.159978
0.714386  0.568281  0.182018
0.771395  0.605498  0.168941
0.806085  0.616391  0.159277
0.847839  0.653310  0.161586
0.269708  0.298500  0.265027
0.292642  0.321866  0.281582
0.324934  0.339810  0.272932
0.356524  0.357219  0.267215
0.408167  0.378031  0.245753
0.448730  0.407905  0.264294
0.502851  0.433537  0.232837
0.544062  0.457174  0.211353
0.584163  0.492706  0.230572
0.660081  0.529507  0.183771
0.730893  0.585698  0.167016
0.757802  0.599375  0.171367
0.773073  0.617211  0.174921
0.844956  0.665876  0.193543
0.905024  0.710168  0.178389
0.286539  0.322498  0.296594
0.335805  0.345666  0.279397
0.371644  0.368003  0.270550
0.389873  0.377208  0.267930
0.471766  0.412452  0.252953
0.520223  0.441542  0.249966
0.521853  0.448137  0.249562
0.601804  0.498243  0.237550
0.637822  0.524298  0.204683
0.665491  0.546339  0.202008
0.748967  0.596474  0.162027
0.795541  0.637233  0.165303
0.813090  0.656695  0.169216
0.886454  0.707791  0.179601
