LUT/LUT_25.CUBE
TITLE "LUT_25" 
#LUT size 
LUT_3D_SIZE 8 
DOMAIN_MIN 0.0 0.0 0.0 
DOMAIN_MAX 1.0 1.0 1.0 
#data point 
0.069140  0.064335  0.030638
0.099042  0.094571  0.047076
0.187059  0.164459  0.068674
0.314077  0.238109  0.055867
0.423534  0.301828  0.059532
0.531725  0.348763  0.054846
0.639789  0.397904  0.051606
0.762731  0.458264  0.054789
0.106019  0.102048  0.046365
0.129807  0.118286  0.057560
0.232749  0.197081  0.082536
0.359438  0.269193  0.089961
0.460976  0.329054  0.069856
0.548615  0.384935  0.062881
0.666050  0.445287  0.062084
0.793279  0.495491  0.060045
0.150798  0.143744  0.079074
0.222673  0.188672  0.092576
0.292972  0.238060  0.083102
0.395949  0.307772  0.083614
0.506004  0.372346  0.072882
0.594356  0.436651  0.069510
0.710329  0.482758  0.061797
0.835474  0.540155  0.057850
0.227056  0.191511  0.088072
0.309260  0.251256  0.104229
0.378600  0.299215  0.081192
0.452705  0.352090  0.077176
0.551058  0.415117  0.071423
0.649676  0.482364  0.070347
0.752042  0.533334  0.068509
0.877519  0.594713  0.063542
0.301305  0.257241  0.110361
0.388314  0.302145  0.080261
0.475197  0.374350  0.088813
0.526465  0.420621  0.077961
0.612019  0.498389  0.065559
0.693596  0.561115  0.075615
0.812367  0.611067  0.078253
0.920142  0.675312  0.071611
0.385467  0.316857  0.109155
0.460568  0.386300  0.088349
0.556793  0.439821  0.091807
0.606865  0.496374  0.087833
0.698749  0.584145  0.071560
0.781557  0.653015  0.074756
0.856499  0.699958  0.070923
0.949588  0.751180  0.086068
0.463890  0.381148  0.088142
0.529859  0.432332  0.079663
0.620250  0.504914  0.085927
0.693791  0.573347  0.075255
0.761137  0.629354  0.083257
0.830280  0.684853  0.080258
0.906531  0.742121  0.084610
1.025229  0.793189  0.087956
0.534982  0.441259  0.082988
0.605290  0.505762  0.088882
0.686349  0.562287  0.072249
0.748495  0.617162  0.088263
0.806156  0.675846  0.079244
0.887293  0.724236  0.086886
0.972064  0.780023  0.084472
1.075324  0.846532  0.086351
0.093468  0.085233  0.045847
0.115476  0.113171  0.057884
0.189653  0.162868  0.085954
0.304535  0.244424  0.076006
0.424638  0.299126  0.065415
0.514934  0.356930  0.057615
0.632380  0.416085  0.059630
0.765521  0.458911  0.052830
0.122470  0.124755  0.074728
0.158147  0.159450  0.102789
0.229394  0.206317  0.103083
0.333327  0.274624  0.094817
0.456351  0.345572  0.087470
0.556072  0.404994  0.070688
0.683223  0.449982  0.056311
0.788802  0.504576  0.059887
0.158490  0.172377  0.135410
0.204589  0.210707  0.149009
0.290070  0.262780  0.155839
0.388530  0.317958  0.129041
0.494785  0.385706  0.113883
0.608425  0.438481  0.102722
0.708747  0.496056  0.079816
0.828565  0.559086  0.073839
0.205094  0.225324  0.179239
0.277782  0.266659  0.185019
0.345907  0.314068  0.169806
0.453874  0.369056  0.157084
0.535958  0.419291  0.140710
0.640405  0.491131  0.129997
0.750375  0.550332  0.126903
0.867464  0.608846  0.083841
0.284177  0.283307  0.200465
0.346242  0.313965  0.184034
0.431027  0.369762  0.189423
0.536008  0.440176  0.162661
0.624853  0.503330  0.115075
0.711360  0.565397  0.115330
0.810275  0.621072  0.127955
0.924727  0.674530  0.118846
0.361981  0.337678  0.194239
0.434488  0.385811  0.199812
0.515446  0.435169  0.160094
0.585878  0.497001  0.153042
0.687632  0.570824  0.115401
0.763929  0.633457  0.121386
0.863103  0.704999  0.135673
0.980708  0.759827  0.139844
0.433198  0.383007  0.201610
0.519753  0.436501  0.168533
0.584109  0.492482  0.179041
0.676449  0.559531  0.133372
0.753725  0.629437  0.139018
0.822422  0.688758  0.135600
0.916157  0.747773  0.120008
1.000399  0.783919  0.129024
0.505466  0.444376  0.211362
0.588928  0.507302  0.166296
0.676169  0.552468  0.159202
0.752810  0.628646  0.138367
0.805784  0.680960  0.136185
0.897571  0.743520  0.119813
0.967873  0.784204  0.140986
1.064965  0.835158  0.134245
0.126799  0.146006  0.112026
0.151075  0.163443  0.121875
0.193996  0.194923  0.136893
0.313608  0.265477  0.122715
0.435091  0.324128  0.097072
0.534637  0.383076  0.090567
0.650630  0.432107  0.084365
0.744251  0.483122  0.076870
0.161530  0.182883  0.153282
0.187999  0.217040  0.198274
0.239316  0.254067  0.218695
0.335920  0.302290  0.181842
0.475001  0.369364  0.147458
0.552017  0.414193  0.137008
0.664858  0.477299  0.115805
0.790338  0.537390  0.108002
0.203606  0.244209  0.232361
0.217538  0.267591  0.262186
0.245001  0.276219  0.251231
0.371676  0.361319  0.255300
0.501678  0.412183  0.226264
0.598809  0.460311  0.153424
0.715110  0.525162  0.151062
0.819503  0.588366  0.147239
0.218655  0.276535  0.282539
0.259098  0.321487  0.321380
0.316415  0.350437  0.312513
0.407963  0.404215  0.315987
0.529779  0.461766  0.262178
0.629020  0.503915  0.229711
0.751908  0.577953  0.211028
0.852154  0.630823  0.198462
0.259099  0.317744  0.316976
0.332450  0.368605  0.337298
0.399870  0.402857  0.327298
0.491249  0.453601  0.329602
0.577511  0.503430  0.298644
0.699429  0.576279  0.294179
0.820888  0.643665  0.245806
0.922666  0.694399  0.252148
0.318720  0.371088  0.363178
0.400110  0.421576  0.362019
0.475552  0.450243  0.339663
0.563119  0.515391  0.330215
0.663131  0.581119  0.320113
0.760348  0.641108  0.271650
0.862884  0.706715  0.259339
0.960561  0.754081  0.262334
0.361411  0.401431  0.355680
0.456811  0.461826  0.359547
0.557927  0.516196  0.333740
0.639039  0.566591  0.336291
0.736422  0.630185  0.319366
0.815478  0.685802  0.308730
0.914651  0.739939  0.264877
1.018070  0.797283  0.244998
0.439818  0.450012  0.374239
0.561162  0.515490  0.354206
0.634100  0.565484  0.336350
0.712530  0.620570  0.316409
0.782811  0.675207  0.309191
0.896917  0.741035  0.279489
0.966620  0.787620  0.279135
1.072834  0.842422  0.263826
0.159343  0.196408  0.172526
0.177101  0.221190  0.210367
0.216605  0.252532  0.237982
0.293465  0.304200  0.243720
0.450453  0.364241  0.172684
0.540698  0.424027  0.149966
0.654167  0.466479  0.137263
0.754686  0.520686  0.140043
0.181093  0.225671  0.216572
0.217031  0.267845  0.255718
0.255667  0.304705  0.294744
0.327962  0.347212  0.301359
0.469733  0.402547  0.228097
0.570421  0.451272  0.209770
0.683288  0.505230  0.182688
0.792623  0.575221  0.186692
0.223508  0.279695  0.276649
0.258233  0.319209  0.320993
0.279767  0.362180  0.362582
0.388006  0.419755  0.367888
0.465961  0.460843  0.361857
0.601567  0.507515  0.274548
0.718437  0.566011  0.270003
0.841701  0.628184  0.251082
0.253235  0.325209  0.344494
0.288267  0.369503  0.382767
0.314750  0.402965  0.424051
0.393126  0.437774  0.406437
0.499372  0.501192  0.401899
0.640083  0.558317  0.350985
0.744268  0.608365  0.321332
0.876255  0.672901  0.293361
0.301493  0.386339  0.409561
0.344060  0.431170  0.448658
0.367771  0.452748  0.459589
0.476001  0.503854  0.451554
0.553510  0.560334  0.476595
0.653360  0.598113  0.416353
0.788240  0.668584  0.393575
0.913119  0.741469  0.361273
0.325791  0.428768  0.457760
0.362920  0.455217  0.475377
0.452420  0.487761  0.458053
0.519412  0.545670  0.479547
0.609065  0.596388  0.481706
0.715637  0.659389  0.487909
0.856387  0.736131  0.434761
0.941963  0.775320  0.423216
0.359567  0.463468  0.496084
0.432061  0.510372  0.502947
0.519455  0.541731  0.474891
0.590992  0.591441  0.490037
0.689572  0.654853  0.491751
0.802374  0.709768  0.459330
0.906281  0.771824  0.454693
1.008201  0.825652  0.468394
0.401988  0.501315  0.520876
0.491365  0.531695  0.489663
0.573280  0.584036  0.510333
0.670431  0.643299  0.486380
0.789910  0.708818  0.474218
0.868165  0.748297  0.459336
0.969568  0.803048  0.485034
1.061473  0.857187  0.480110
0.179908  0.235861  0.233577
0.218521  0.281347  0.287832
0.240048  0.307265  0.309947
0.310229  0.341026  0.304877
0.419218  0.400862  0.294912
0.544630  0.460797  0.246705
0.676566  0.514084  0.221356
0.781431  0.544744  0.188334
0.219594  0.285986  0.293547
0.251467  0.317085  0.326500
0.276192  0.354159  0.370837
0.340176  0.407057  0.400985
0.425668  0.446868  0.381590
0.556307  0.490524  0.331087
0.677419  0.545194  0.278634
0.786868  0.601316  0.254749
0.263944  0.340011  0.348985
0.292122  0.368689  0.393759
0.315349  0.404694  0.426380
0.384217  0.464668  0.464009
0.473722  0.499295  0.445073
0.571099  0.544228  0.423335
0.709918  0.610475  0.371085
0.830947  0.658115  0.335016
0.297454  0.382523  0.402469
0.321901  0.417576  0.445071
0.352713  0.458248  0.482104
0.380071  0.494986  0.525373
0.506712  0.536600  0.494544
0.602072  0.600194  0.496901
0.736838  0.659735  0.449313
0.857706  0.701370  0.400644
0.331566  0.427997  0.458229
0.361424  0.473168  0.509230
0.400934  0.511711  0.540106
0.450294  0.558906  0.586760
0.542004  0.599435  0.571412
0.645883  0.655333  0.573055
0.780226  0.705516  0.513768
0.914941  0.770103  0.480806
0.363217  0.473968  0.505459
0.387069  0.505610  0.535305
0.442089  0.559164  0.587314
0.481687  0.598073  0.620540
0.583885  0.629417  0.589397
0.696827  0.706512  0.619064
0.819254  0.757857  0.601485
0.947857  0.804875  0.549482
0.398354  0.520405  0.557439
0.431524  0.555278  0.591700
0.477659  0.603390  0.630049
0.560219  0.638529  0.618819
0.682058  0.694153  0.611750
0.769553  0.751975  0.640653
0.885772  0.798443  0.615370
1.003127  0.848637  0.591833
0.449636  0.566756  0.598288
0.474717  0.601964  0.639939
0.542844  0.632883  0.634574
0.651392  0.686212  0.627460
0.739177  0.730192  0.626591
0.838138  0.775947  0.617935
0.948365  0.830251  0.627933
1.052002  0.876906  0.604963
0.237089  0.310266  0.321528
0.249855  0.325327  0.338753
0.283974  0.367792  0.392988
0.317404  0.392569  0.402108
0.424186  0.437812  0.376972
0.519598  0.492949  0.367074
0.654291  0.529427  0.302863
0.782709  0.585858  0.277552
0.263002  0.346666  0.365639
0.289247  0.381275  0.409922
0.314667  0.408651  0.438181
0.362127  0.450119  0.467075
0.460831  0.505130  0.468218
0.555258  0.552086  0.457766
0.679225  0.601544  0.404741
0.812348  0.644901  0.366474
0.303520  0.398125  0.428069
0.335415  0.428811  0.457527
0.369960  0.477775  0.509133
0.399906  0.503955  0.533560
0.461609  0.542719  0.542558
0.593682  0.605621  0.538929
0.694479  0.640836  0.477643
0.833617  0.711062  0.446181
0.324905  0.435284  0.470522
0.366044  0.470704  0.498254
0.415782  0.530265  0.561681
0.428861  0.548669  0.584614
0.480678  0.600611  0.626807
0.611229  0.641408  0.577621
0.734789  0.694616  0.547413
0.853247  0.759180  0.542668
0.374202  0.483224  0.519682
0.401904  0.527003  0.563259
0.444584  0.569418  0.603777
0.480609  0.600769  0.635877
0.530200  0.653447  0.685969
0.639628  0.688077  0.650044
0.750959  0.733355  0.620923
0.907565  0.807379  0.601976
0.400944  0.523722  0.563150
0.443290  0.564089  0.602153
0.483864  0.608883  0.645617
0.515721  0.643755  0.679707
0.575695  0.702020  0.733152
0.692374  0.748872  0.725759
0.817910  0.795735  0.692792
0.941923  0.843787  0.669842
0.446554  0.575003  0.608717
0.488934  0.620241  0.653618
0.535737  0.664633  0.691909
0.566487  0.693553  0.720561
0.637937  0.743025  0.759424
0.736374  0.781451  0.754840
0.870641  0.840087  0.734977
0.982116  0.875151  0.705200
0.487558  0.612707  0.644360
0.522231  0.648099  0.687210
0.562585  0.696790  0.740409
0.598303  0.725317  0.760513
0.693721  0.784703  0.781420
0.828468  0.825134  0.748897
0.915756  0.862124  0.741506
1.026564  0.908108  0.740103
0.276248  0.362346  0.395629
0.302456  0.391923  0.419660
0.334677  0.431303  0.460920
0.360852  0.469911  0.503542
0.419278  0.488927  0.479211
0.518204  0.534623  0.468017
0.639546  0.577807  0.404072
0.774655  0.636089  0.384304
0.304939  0.409786  0.442975
0.331339  0.435846  0.474278
0.364957  0.473331  0.507671
0.399167  0.522520  0.562221
0.441437  0.547466  0.572682
0.557154  0.586752  0.519277
0.664734  0.639266  0.516210
0.806040  0.696747  0.463118
0.337542  0.440218  0.478150
0.373160  0.488652  0.524374
0.403642  0.526967  0.564367
0.438651  0.566574  0.603143
0.486457  0.607143  0.642103
0.598666  0.648787  0.610587
0.695499  0.693136  0.603861
0.818814  0.744449  0.563635
0.372969  0.488576  0.521721
0.398495  0.517101  0.553940
0.458215  0.576125  0.611887
0.495094  0.621805  0.655739
0.535569  0.668443  0.701726
0.597676  0.690262  0.687834
0.751588  0.744387  0.649554
0.863141  0.795285  0.635320
0.410546  0.528166  0.563809
0.454835  0.578027  0.610834
0.495172  0.612061  0.648994
0.544481  0.669942  0.705267
0.584632  0.717922  0.763125
0.631593  0.736340  0.752151
0.768633  0.781133  0.703484
0.895613  0.838694  0.703682
0.452770  0.571837  0.611967
0.487321  0.618272  0.659284
0.528872  0.661693  0.701887
0.592061  0.729707  0.769208
0.625802  0.758895  0.808441
0.677436  0.802485  0.843776
0.792555  0.837581  0.812738
0.929516  0.873306  0.755886
0.488792  0.621529  0.658151
0.528114  0.656544  0.691074
0.568448  0.700412  0.743893
0.623015  0.760031  0.809279
0.676586  0.794228  0.839455
0.735135  0.844416  0.879372
0.831048  0.895895  0.897576
0.967243  0.905595  0.798879
0.525347  0.658318  0.699816
0.562711  0.699451  0.743211
0.600893  0.744487  0.798747
0.665192  0.791729  0.843818
0.713777  0.836076  0.884041
0.786776  0.878222  0.916031
0.875266  0.921125  0.929593
1.006890  0.949147  0.862232
0.312502  0.418166  0.452052
0.335189  0.442153  0.485633
0.369744  0.493308  0.529898
0.405473  0.527980  0.571709
0.447179  0.571490  0.613123
0.519412  0.595011  0.583654
0.643052  0.635722  0.539822
0.793042  0.696856  0.484364
0.337496  0.451855  0.493449
0.368535  0.495214  0.538867
0.416520  0.544946  0.578075
0.450398  0.579234  0.616808
0.493173  0.623016  0.658864
0.547445  0.655031  0.673416
0.646051  0.686470  0.626580
0.795217  0.739814  0.575740
0.370228  0.491391  0.534566
0.415686  0.538408  0.572548
0.455673  0.585036  0.620493
0.506999  0.635394  0.670705
0.543377  0.682306  0.728805
0.590335  0.719522  0.759490
0.703978  0.736061  0.688209
0.840626  0.793591  0.666288
0.418060  0.540448  0.577465
0.447746  0.574484  0.615332
0.499669  0.627307  0.666641
0.554998  0.681538  0.724892
0.579850  0.720306  0.767078
0.626929  0.762830  0.804611
0.694853  0.797242  0.816812
0.852740  0.828924  0.732683
0.450566  0.568606  0.606935
0.494394  0.621171  0.652468
0.531796  0.666988  0.701339
0.571979  0.714213  0.770691
0.618952  0.751799  0.801118
0.671939  0.803908  0.839372
0.748207  0.858686  0.903704
0.866953  0.882612  0.836112
0.479830  0.605435  0.639985
0.523464  0.648184  0.684303
0.567462  0.707215  0.753337
0.610595  0.745111  0.797350
0.647115  0.778558  0.836402
0.730501  0.840199  0.879926
0.797204  0.888989  0.922617
0.886587  0.928952  0.932465
0.529149  0.655862  0.694982
0.571335  0.707168  0.751776
0.599205  0.738105  0.800207
0.646345  0.770505  0.821380
0.701070  0.825431  0.872326
0.771491  0.872731  0.909376
0.841882  0.919356  0.943071
0.921730  0.952619  0.976872
0.561661  0.700199  0.737499
0.579680  0.725770  0.783906
0.635353  0.771289  0.832361
0.695872  0.813432  0.870246
0.749496  0.855635  0.897384
0.832046  0.908361  0.938216
0.893943  0.944029  0.967698
0.962190  0.979137  0.990303
