LUT/LUT_4.CUBE
TITLE "LUT_4" 
#LUT size 
LUT_3D_SIZE 8 
DOMAIN_MIN 0.0 0.0 0.0 
DOMAIN_MAX 1.0 1.0 1.0 
#data point 
0.019773  0.016541  0.013029
0.096735  0.077000  0.024273
0.243871  0.121920  0.012291
0.383611  0.133694  0.003810
0.515907  0.144371  -0.005434
0.651608  0.156359  -0.008188
0.793463  0.155017  -0.014309
0.936209  0.158212  -0.021217
0.081058  0.082701  0.039508
0.149761  0.118279  0.046477
0.270382  0.177345  0.025908
0.399526  0.199585  0.022638
0.528933  0.231024  0.018153
0.658416  0.241577  0.010781
0.803832  0.260736  0.008565
0.939057  0.272786  0.004216
0.146182  0.147073  0.056712
0.221746  0.205078  0.057737
0.298813  0.264560  0.037015
0.415899  0.289458  0.038769
0.550215  0.315574  0.035576
0.676528  0.335745  0.032615
0.815546  0.352428  0.026229
0.947457  0.367747  0.019670
0.208257  0.235670  0.059966
0.288912  0.302971  0.045874
0.348606  0.355937  0.043557
0.444970  0.396532  0.041469
0.566965  0.423776  0.038364
0.696037  0.447993  0.032350
0.836270  0.454123  0.041081
0.973049  0.471742  0.041794
0.266528  0.333471  0.063462
0.340932  0.384386  0.047845
0.414127  0.447785  0.040346
0.490307  0.507855  0.040221
0.591245  0.539778  0.039604
0.706168  0.571022  0.034917
0.852227  0.578200  0.039861
0.979936  0.592259  0.049093
0.314395  0.418689  0.054806
0.402097  0.471292  0.046860
0.481282  0.526182  0.040753
0.552860  0.581939  0.044378
0.644076  0.639633  0.036990
0.741117  0.680697  0.037858
0.855038  0.712105  0.039762
0.987229  0.723781  0.043657
0.351254  0.524192  0.056779
0.442276  0.561031  0.043171
0.529830  0.599493  0.042224
0.607339  0.654573  0.039386
0.694768  0.710050  0.044039
0.788218  0.755141  0.043545
0.886722  0.795274  0.046270
1.011437  0.835853  0.038812
0.366552  0.638162  0.037954
0.474383  0.657143  0.036117
0.573657  0.698628  0.038304
0.666940  0.730516  0.040299
0.749449  0.785550  0.040280
0.836051  0.828779  0.037594
0.938053  0.871338  0.044214
1.049110  0.911609  0.040940
0.047015  0.071731  0.070985
0.106234  0.109359  0.073141
0.233684  0.141088  0.057795
0.369737  0.155371  0.055132
0.510788  0.158049  0.062457
0.649079  0.152714  0.053869
0.790128  0.159355  0.058338
0.937812  0.158869  0.054261
0.078754  0.124042  0.125211
0.134881  0.154598  0.130807
0.249642  0.206059  0.108833
0.388838  0.233375  0.091621
0.519639  0.261704  0.087433
0.658024  0.279017  0.075525
0.797009  0.283254  0.063853
0.932726  0.289466  0.058705
0.130372  0.175439  0.172789
0.206085  0.223301  0.164049
0.295651  0.272578  0.144159
0.410713  0.306560  0.134269
0.538383  0.340724  0.114408
0.668852  0.364432  0.113353
0.814898  0.384124  0.103370
0.952158  0.390231  0.089255
0.195008  0.243378  0.184531
0.270617  0.303325  0.174943
0.344215  0.361613  0.149151
0.446226  0.408512  0.144622
0.558566  0.426826  0.131408
0.694233  0.448981  0.140957
0.833772  0.469801  0.134381
0.956976  0.490097  0.106701
0.251296  0.334705  0.180627
0.325084  0.385846  0.171790
0.403636  0.448843  0.171663
0.490937  0.510586  0.150833
0.589115  0.548998  0.134876
0.715717  0.563670  0.139516
0.838337  0.591263  0.139235
0.978092  0.601624  0.130502
0.299754  0.416060  0.187182
0.385560  0.475971  0.172017
0.464716  0.526896  0.163392
0.541171  0.581327  0.164113
0.628030  0.635020  0.139363
0.736059  0.680307  0.145269
0.851497  0.715098  0.140045
0.999228  0.729657  0.137502
0.338956  0.519678  0.171448
0.436222  0.555132  0.163341
0.520564  0.598504  0.166480
0.601507  0.656124  0.156458
0.690639  0.707333  0.147678
0.786521  0.750064  0.145949
0.894320  0.804985  0.137673
1.006067  0.832358  0.134219
0.354365  0.622766  0.164254
0.477123  0.660322  0.160503
0.570240  0.690471  0.156292
0.658024  0.732255  0.146826
0.740602  0.790055  0.146770
0.835669  0.827108  0.147976
0.931046  0.870694  0.142728
1.041310  0.914118  0.145854
0.054620  0.124419  0.160883
0.108291  0.158755  0.174553
0.218358  0.180399  0.169112
0.373473  0.172702  0.162946
0.524806  0.170950  0.161111
0.650592  0.170330  0.170494
0.796088  0.168998  0.177144
0.938844  0.169538  0.180476
0.098076  0.168800  0.206060
0.143307  0.204622  0.231280
0.235796  0.251982  0.227726
0.373135  0.280920  0.196415
0.519698  0.292774  0.184005
0.656419  0.295226  0.192752
0.793682  0.301973  0.184248
0.923855  0.303673  0.186466
0.137557  0.227018  0.267348
0.180893  0.260848  0.285737
0.268925  0.296476  0.269056
0.396090  0.350424  0.255313
0.528551  0.382830  0.233919
0.665848  0.396636  0.212486
0.806751  0.411499  0.207213
0.939091  0.423663  0.203647
0.174605  0.271874  0.323059
0.252289  0.314050  0.313723
0.326781  0.366610  0.306905
0.427374  0.415805  0.294671
0.557632  0.440955  0.270038
0.688318  0.477066  0.260286
0.819582  0.501846  0.241286
0.951661  0.520864  0.233540
0.230441  0.325638  0.350396
0.318248  0.393873  0.318900
0.395459  0.450001  0.310095
0.476420  0.512644  0.302899
0.583854  0.553522  0.288432
0.708182  0.575200  0.279290
0.843542  0.595159  0.277596
0.978808  0.620079  0.264478
0.282607  0.414755  0.343638
0.373350  0.480335  0.325105
0.449409  0.537713  0.314969
0.534669  0.584119  0.296266
0.630994  0.646708  0.295840
0.732256  0.690507  0.282991
0.856806  0.712304  0.281829
0.990380  0.728363  0.285878
0.325538  0.495750  0.327781
0.419822  0.548618  0.318969
0.512951  0.607040  0.311954
0.594207  0.650624  0.302196
0.687344  0.718597  0.306225
0.777919  0.763200  0.299036
0.886172  0.805588  0.271418
1.008757  0.831382  0.275955
0.343211  0.619747  0.323189
0.469523  0.645524  0.306547
0.560070  0.681465  0.297708
0.649222  0.729241  0.300158
0.737374  0.775602  0.295353
0.839213  0.838701  0.293350
0.931687  0.875109  0.299625
1.041391  0.924115  0.282934
0.057283  0.164540  0.245387
0.110403  0.196561  0.262302
0.227258  0.210561  0.272822
0.374855  0.212849  0.276701
0.510514  0.198093  0.275189
0.657305  0.190696  0.270753
0.806177  0.187339  0.281075
0.936898  0.177343  0.304440
0.109817  0.218419  0.289403
0.160942  0.259059  0.310681
0.238226  0.303558  0.321574
0.362619  0.322116  0.308660
0.516856  0.314121  0.300875
0.647809  0.318515  0.307074
0.788571  0.302386  0.300299
0.929772  0.310068  0.319751
0.153458  0.274302  0.341025
0.202281  0.309510  0.357375
0.270274  0.355505  0.382815
0.388978  0.398569  0.358221
0.509666  0.422887  0.346043
0.664299  0.430686  0.317722
0.796767  0.442162  0.320766
0.939089  0.445693  0.326420
0.191103  0.323157  0.392988
0.245949  0.362963  0.423817
0.304886  0.400299  0.438055
0.420922  0.445923  0.409581
0.534835  0.491814  0.389210
0.679487  0.519760  0.361373
0.807915  0.541170  0.356613
0.944608  0.566857  0.349557
0.232373  0.370349  0.445751
0.288087  0.408840  0.458986
0.372085  0.461265  0.459339
0.468189  0.520389  0.440625
0.564340  0.559276  0.450110
0.698688  0.592003  0.424035
0.829924  0.623113  0.402173
0.960083  0.647840  0.388286
0.265798  0.414043  0.486790
0.353055  0.466532  0.480025
0.452523  0.533799  0.453397
0.518459  0.591435  0.451132
0.615109  0.644717  0.443382
0.722970  0.696159  0.439783
0.850641  0.720949  0.431281
0.980097  0.728852  0.423600
0.300491  0.497561  0.495328
0.405711  0.539600  0.477279
0.502735  0.602470  0.460764
0.589118  0.656324  0.449619
0.677522  0.716962  0.442197
0.771544  0.769097  0.437397
0.874493  0.812500  0.439243
1.015066  0.839580  0.438565
0.325335  0.596766  0.488790
0.447675  0.630208  0.469425
0.558902  0.680354  0.454011
0.644726  0.722200  0.450395
0.744314  0.781954  0.443025
0.827872  0.827124  0.438024
0.926334  0.879097  0.451044
1.035207  0.930075  0.433385
0.024836  0.167110  0.413563
0.131642  0.204547  0.396385
0.244755  0.232079  0.383039
0.373363  0.223124  0.392180
0.518792  0.216783  0.397425
0.656365  0.206191  0.395774
0.816753  0.212462  0.400931
0.954178  0.196746  0.399185
0.081563  0.263889  0.415601
0.178063  0.312183  0.390543
0.250764  0.339425  0.401862
0.365378  0.349999  0.418585
0.503479  0.345384  0.418676
0.654092  0.335458  0.419259
0.801520  0.335963  0.406082
0.942443  0.332182  0.417155
0.127320  0.333951  0.452653
0.226785  0.358560  0.436835
0.282820  0.399401  0.457541
0.379287  0.442997  0.457443
0.509020  0.461633  0.443152
0.653340  0.466741  0.444378
0.791998  0.461120  0.438089
0.942860  0.453488  0.437860
0.184272  0.379125  0.485219
0.270522  0.413979  0.488256
0.329365  0.456040  0.513840
0.396575  0.493892  0.522338
0.518263  0.539532  0.498345
0.653966  0.567085  0.488313
0.795133  0.586118  0.471273
0.943936  0.585892  0.457736
0.225878  0.428950  0.535506
0.312024  0.463309  0.535468
0.367424  0.512979  0.569119
0.431423  0.552658  0.587555
0.564974  0.596436  0.551276
0.674104  0.638796  0.538385
0.817502  0.668742  0.504595
0.955970  0.689768  0.493180
0.261142  0.470425  0.586743
0.349925  0.511525  0.574398
0.423601  0.554550  0.607537
0.496591  0.601828  0.605505
0.600403  0.650816  0.586761
0.714725  0.708193  0.589375
0.834722  0.744359  0.565686
0.975024  0.771136  0.539760
0.297141  0.515458  0.630351
0.387868  0.554317  0.625365
0.479907  0.596421  0.620796
0.571410  0.659921  0.606001
0.673634  0.722326  0.588744
0.764862  0.769013  0.597649
0.877739  0.817724  0.581186
1.006250  0.852067  0.580003
0.312035  0.605685  0.654852
0.433565  0.620128  0.643091
0.543497  0.670319  0.613117
0.637070  0.718394  0.603154
0.737567  0.781975  0.584738
0.818581  0.829944  0.582839
0.925055  0.890335  0.586222
1.039929  0.929614  0.583372
0.017782  0.171823  0.566967
0.110368  0.199245  0.573471
0.214020  0.225373  0.563981
0.389486  0.227286  0.526139
0.525504  0.219736  0.524533
0.657412  0.215880  0.537891
0.796392  0.213260  0.533962
0.955845  0.210300  0.527490
0.054562  0.282771  0.566910
0.149198  0.320416  0.569221
0.238854  0.361764  0.561029
0.375099  0.372880  0.524492
0.511879  0.364448  0.538449
0.654828  0.358148  0.543915
0.798226  0.363181  0.547157
0.946111  0.347479  0.544489
0.095315  0.372607  0.583860
0.205981  0.416637  0.561183
0.282289  0.466171  0.566730
0.381919  0.492217  0.545201
0.503839  0.496363  0.554228
0.654125  0.495866  0.554655
0.793974  0.487857  0.559954
0.933504  0.483539  0.556811
0.154605  0.421244  0.606050
0.249858  0.473936  0.604686
0.340757  0.524372  0.603971
0.416115  0.549055  0.605693
0.507758  0.591069  0.605007
0.645969  0.604932  0.584622
0.789934  0.612259  0.578737
0.934673  0.614836  0.591338
0.203895  0.471108  0.640108
0.306064  0.516368  0.642703
0.388809  0.568672  0.641113
0.455421  0.606140  0.661895
0.536485  0.653966  0.665129
0.663763  0.689381  0.643395
0.797395  0.713623  0.621493
0.942225  0.735290  0.619074
0.259225  0.513613  0.684995
0.351691  0.564882  0.679983
0.432023  0.608243  0.684480
0.496277  0.657967  0.708005
0.576516  0.699875  0.726904
0.703079  0.741730  0.706011
0.827565  0.788714  0.677485
0.961312  0.818902  0.661623
0.300120  0.549290  0.726532
0.398468  0.600721  0.726660
0.469814  0.661834  0.736562
0.545281  0.696262  0.735322
0.635796  0.742657  0.746280
0.754456  0.781606  0.734676
0.867016  0.829294  0.722682
0.990367  0.875622  0.705498
0.320864  0.628709  0.763389
0.437199  0.641576  0.764036
0.508989  0.678877  0.781323
0.608145  0.732306  0.764217
0.706131  0.780279  0.754698
0.818821  0.827272  0.735109
0.921012  0.892546  0.732824
1.029937  0.938238  0.724722
0.021219  0.163202  0.702889
0.121789  0.200545  0.705068
0.214661  0.225677  0.727963
0.348453  0.233020  0.719957
0.512602  0.226831  0.686625
0.661288  0.217703  0.666775
0.800800  0.214931  0.676928
0.942421  0.203532  0.684136
0.057544  0.282088  0.706611
0.143806  0.312592  0.706005
0.246393  0.352792  0.707860
0.344267  0.375880  0.724665
0.503353  0.364454  0.693282
0.663872  0.363688  0.671954
0.797969  0.355758  0.684754
0.936504  0.347396  0.683642
0.092705  0.379231  0.698063
0.193921  0.425197  0.698713
0.280915  0.463401  0.701719
0.357615  0.511638  0.729208
0.501530  0.522090  0.702599
0.652632  0.511080  0.677456
0.791424  0.497648  0.691488
0.936924  0.499818  0.690206
0.155309  0.449978  0.705206
0.241907  0.500994  0.697957
0.330126  0.564155  0.709194
0.408665  0.613355  0.723614
0.501697  0.652462  0.736852
0.643166  0.641842  0.693960
0.793149  0.642570  0.697221
0.934766  0.638886  0.696238
0.206262  0.496041  0.742049
0.309651  0.552024  0.730136
0.407277  0.613129  0.724746
0.475183  0.661444  0.758653
0.531768  0.701530  0.794467
0.651456  0.741977  0.747403
0.785250  0.760409  0.726047
0.938423  0.769165  0.719597
0.253277  0.543832  0.786876
0.359703  0.595394  0.767514
0.449923  0.654511  0.769284
0.515214  0.698314  0.790658
0.581323  0.739183  0.833181
0.674189  0.794965  0.830194
0.809899  0.827265  0.788657
0.948924  0.860547  0.761891
0.289035  0.588511  0.829913
0.400717  0.628748  0.803166
0.490125  0.695662  0.802741
0.569919  0.734637  0.833620
0.639059  0.776613  0.862144
0.726571  0.839847  0.875582
0.838883  0.875477  0.856850
0.973638  0.913585  0.822397
0.313289  0.656607  0.860961
0.437147  0.677883  0.857937
0.547151  0.715360  0.848809
0.608760  0.767057  0.866649
0.684927  0.816235  0.887924
0.787848  0.874435  0.911166
0.901885  0.916100  0.885035
1.016529  0.955546  0.863010
0.017906  0.163029  0.839782
0.118413  0.193683  0.850760
0.229043  0.215556  0.859834
0.339221  0.230643  0.861721
0.488508  0.225771  0.867431
0.637862  0.218248  0.852793
0.817229  0.213624  0.824750
0.959223  0.220252  0.814749
0.053498  0.278408  0.847298
0.155283  0.316025  0.838440
0.254863  0.344946  0.848146
0.346631  0.372371  0.866969
0.482503  0.378729  0.866100
0.639973  0.373252  0.859819
0.786709  0.369256  0.839531
0.945420  0.354414  0.822809
0.099622  0.366993  0.833581
0.192324  0.420742  0.843138
0.287247  0.469211  0.849873
0.379667  0.506918  0.859080
0.492147  0.515546  0.873811
0.640511  0.528277  0.864008
0.788255  0.514895  0.849478
0.936217  0.509764  0.833651
0.139696  0.461852  0.840684
0.246316  0.507689  0.830419
0.337858  0.564787  0.835917
0.418539  0.617732  0.843675
0.505761  0.659977  0.862241
0.635329  0.667799  0.870245
0.767808  0.655792  0.881381
0.933959  0.646640  0.849146
0.194120  0.528470  0.861343
0.295941  0.579285  0.833767
0.405718  0.631404  0.829971
0.487577  0.687825  0.837786
0.553049  0.738268  0.854923
0.638443  0.787557  0.881606
0.757923  0.801396  0.908958
0.916221  0.793058  0.867927
0.234882  0.575013  0.889234
0.348110  0.625605  0.865998
0.454791  0.676202  0.847616
0.548245  0.736050  0.849988
0.612401  0.770961  0.873395
0.695445  0.825327  0.911732
0.783665  0.887442  0.934443
0.916193  0.922854  0.906287
0.276906  0.633261  0.943782
0.390523  0.672496  0.919264
0.502549  0.717503  0.895279
0.593142  0.764435  0.888266
0.662061  0.811128  0.907064
0.745722  0.870027  0.939360
0.836480  0.918473  0.955994
0.950768  0.962099  0.971912
0.304254  0.685634  0.971469
0.433814  0.721245  0.953003
0.543355  0.750754  0.938686
0.633843  0.810961  0.934594
0.711886  0.847644  0.951918
0.803439  0.902479  0.967891
0.896128  0.953213  0.974761
0.991440  0.994782  1.002300
