LUT/LUT_22.CUBE
TITLE "LUT_22" 
#LUT size 
LUT_3D_SIZE 15 
DOMAIN_MIN 0.0 0.0 0.0 
DOMAIN_MAX 1.0 1.0 1.0 
#data point 
0.063137  0.059424  0.029230
0.076624  0.072323  0.028810
0.098963  0.093357  0.048024
0.128214  0.122770  0.065405
0.185591  0.161268  0.070426
0.249444  0.203360  0.064499
0.315757  0.235166  0.057541
0.357278  0.252614  0.053484
0.428629  0.296755  0.055922
0.470124  0.320610  0.055058
0.536060  0.340003  0.048114
0.565597  0.370705  0.049491
0.643696  0.390348  0.047229
0.702375  0.419723  0.049967
0.774417  0.443135  0.052594
0.077247  0.077164  0.038572
0.089743  0.081428  0.040302
0.112892  0.103707  0.047560
0.156533  0.137840  0.063558
0.211258  0.175983  0.076168
0.274702  0.209869  0.070859
0.329261  0.253571  0.065993
0.383929  0.285040  0.063043
0.438951  0.308995  0.057549
0.474888  0.327112  0.061082
0.545240  0.356381  0.059497
0.614819  0.393405  0.054402
0.673310  0.424429  0.049904
0.732415  0.441932  0.048571
0.783243  0.460466  0.058332
0.102679  0.099295  0.046095
0.101243  0.095303  0.047013
0.135916  0.116311  0.053082
0.168632  0.155915  0.082578
0.243702  0.198963  0.078443
0.285137  0.220392  0.068396
0.362522  0.266716  0.072926
0.399415  0.295555  0.059613
0.459453  0.322723  0.066257
0.507590  0.348530  0.062729
0.557086  0.373976  0.062059
0.630397  0.416555  0.063723
0.684409  0.435920  0.056075
0.754288  0.458892  0.061425
0.807771  0.481273  0.056136
0.116293  0.106303  0.059686
0.124306  0.119836  0.063352
0.163910  0.142035  0.067693
0.210591  0.179967  0.085131
0.277206  0.227606  0.077615
0.324581  0.251554  0.080583
0.376259  0.283048  0.065269
0.437176  0.310667  0.059754
0.480503  0.343823  0.066880
0.522739  0.369974  0.061709
0.583512  0.399603  0.063008
0.646296  0.422043  0.060936
0.693745  0.448179  0.047912
0.763363  0.471205  0.054920
0.832186  0.512536  0.054351
0.147123  0.139896  0.071777
0.173555  0.157884  0.083648
0.218686  0.187330  0.087434
0.253480  0.212866  0.086632
0.294830  0.235282  0.077770
0.358138  0.283113  0.085134
0.398974  0.306233  0.074450
0.455279  0.330229  0.070117
0.516098  0.368270  0.068007
0.563064  0.389409  0.059180
0.601277  0.428262  0.065052
0.682416  0.460625  0.063000
0.721770  0.473614  0.055446
0.786128  0.505902  0.058791
0.843449  0.524560  0.054672
0.174969  0.169609  0.099094
0.220171  0.192345  0.083575
0.251342  0.211737  0.090850
0.308471  0.246000  0.081021
0.344709  0.274248  0.072018
0.366086  0.289742  0.088270
0.429038  0.327514  0.076778
0.486546  0.368337  0.078351
0.523851  0.382306  0.065659
0.562838  0.414373  0.059493
0.630092  0.449966  0.060923
0.681058  0.476648  0.069225
0.756201  0.499782  0.062799
0.800224  0.531923  0.062732
0.860637  0.555547  0.065280
0.222755  0.193517  0.085764
0.261814  0.223035  0.090839
0.307166  0.252482  0.096493
0.349069  0.280693  0.098570
0.379269  0.298708  0.079289
0.427147  0.336417  0.089247
0.454831  0.350585  0.076433
0.520932  0.404736  0.083362
0.550250  0.412971  0.069017
0.620126  0.478944  0.069375
0.660958  0.491042  0.064672
0.693078  0.497567  0.071472
0.758204  0.529636  0.062885
0.823029  0.557196  0.065373
0.887330  0.583914  0.065456
0.281618  0.237967  0.101379
0.307118  0.262660  0.099360
0.333708  0.270680  0.091804
0.384414  0.300854  0.081721
0.430042  0.342702  0.087258
0.467813  0.373208  0.074479
0.494059  0.396260  0.078971
0.531518  0.423568  0.074973
0.579820  0.464082  0.080925
0.638817  0.493354  0.067058
0.687132  0.526798  0.067312
0.737325  0.550698  0.073031
0.789476  0.576750  0.076760
0.850219  0.595999  0.070523
0.917231  0.625878  0.063750
0.301815  0.253260  0.108761
0.348006  0.290976  0.092159
0.389691  0.304675  0.072164
0.415194  0.330785  0.079795
0.468473  0.382009  0.084925
0.496847  0.393197  0.081287
0.528113  0.426828  0.076376
0.579549  0.461391  0.081667
0.608625  0.501149  0.071755
0.671964  0.543728  0.065651
0.692363  0.563076  0.071664
0.748480  0.590694  0.079567
0.813496  0.616655  0.074480
0.850146  0.654699  0.076840
0.931529  0.664091  0.070066
0.366254  0.302365  0.100972
0.391383  0.320735  0.088482
0.424322  0.338703  0.081889
0.459699  0.376424  0.086121
0.501440  0.398308  0.080260
0.532565  0.431234  0.076727
0.572776  0.471988  0.076453
0.622450  0.502829  0.071330
0.658769  0.541756  0.068472
0.693078  0.572965  0.068402
0.745840  0.617788  0.068893
0.776093  0.631414  0.066932
0.825540  0.662774  0.082521
0.881150  0.670567  0.078174
0.935270  0.712038  0.076817
0.380703  0.316091  0.102108
0.427001  0.344016  0.089436
0.457723  0.393991  0.084967
0.501262  0.402006  0.085271
0.554178  0.446017  0.083901
0.569206  0.477121  0.076087
0.602246  0.502436  0.090139
0.657388  0.543863  0.074289
0.702249  0.585008  0.071718
0.726654  0.603971  0.070264
0.776425  0.649538  0.071787
0.800990  0.662934  0.076799
0.863692  0.702584  0.071656
0.917320  0.719271  0.068149
0.956643  0.744536  0.082348
0.431340  0.354927  0.087453
0.462996  0.374645  0.090865
0.501817  0.410382  0.084411
0.532481  0.435103  0.080050
0.574521  0.474253  0.071607
0.622927  0.507647  0.072254
0.644433  0.543539  0.070696
0.670354  0.578132  0.064554
0.723608  0.618445  0.075639
0.756402  0.637064  0.065170
0.797750  0.672149  0.076309
0.844569  0.699317  0.074877
0.891591  0.717199  0.070009
0.917864  0.759553  0.081806
0.986744  0.774837  0.077337
0.462719  0.384544  0.081495
0.496055  0.407746  0.077035
0.534914  0.440813  0.074497
0.568575  0.477438  0.064001
0.613103  0.512052  0.089751
0.646217  0.547789  0.080054
0.689465  0.578429  0.074480
0.714673  0.596513  0.076118
0.758037  0.633589  0.074942
0.781979  0.661219  0.081198
0.828847  0.680356  0.073653
0.886992  0.718584  0.079677
0.903252  0.746510  0.083249
0.951802  0.773147  0.074421
1.024619  0.799141  0.087993
0.504420  0.421263  0.076939
0.545070  0.464780  0.079667
0.576805  0.489232  0.071824
0.615022  0.520346  0.082898
0.645895  0.549132  0.077961
0.679867  0.566746  0.063669
0.714865  0.602488  0.074112
0.751568  0.634211  0.074620
0.779354  0.654612  0.079179
0.812418  0.674888  0.078226
0.857568  0.704194  0.070880
0.900410  0.733982  0.074007
0.943313  0.770214  0.078367
0.982379  0.793010  0.084572
1.027941  0.807934  0.080292
0.540101  0.450789  0.082209
0.561219  0.472461  0.082772
0.603324  0.512887  0.086942
0.653741  0.543205  0.064819
0.686390  0.569386  0.071666
0.698119  0.598866  0.077968
0.742309  0.622670  0.079783
0.793071  0.664317  0.079259
0.808756  0.681150  0.071094
0.849869  0.707970  0.074292
0.888445  0.727846  0.081446
0.923395  0.762910  0.079555
0.968116  0.788028  0.089596
1.026038  0.807134  0.082480
1.075188  0.849249  0.082075
0.070980  0.064897  0.035076
0.086974  0.078984  0.034606
0.101630  0.094708  0.044518
0.122074  0.112301  0.053039
0.178658  0.158083  0.071065
0.244961  0.196515  0.068862
0.316659  0.245864  0.071916
0.369123  0.269044  0.057798
0.423211  0.295569  0.056663
0.458332  0.303318  0.053012
0.531140  0.346450  0.049021
0.583886  0.374068  0.045958
0.655191  0.398414  0.049452
0.702606  0.423287  0.047968
0.763079  0.447163  0.055137
0.087499  0.084128  0.039240
0.091899  0.091013  0.045597
0.119451  0.104067  0.052818
0.159311  0.145251  0.073560
0.210064  0.178674  0.078931
0.287185  0.229473  0.066474
0.331394  0.252620  0.066639
0.372810  0.275087  0.062860
0.444843  0.313848  0.058105
0.504112  0.339271  0.049581
0.536989  0.360199  0.052958
0.600500  0.386726  0.049351
0.670287  0.428731  0.052218
0.725813  0.436454  0.053169
0.785225  0.465578  0.056509
0.100108  0.097125  0.047259
0.105421  0.103407  0.056429
0.140612  0.132357  0.076484
0.172198  0.159196  0.082490
0.223040  0.195431  0.091138
0.302266  0.241294  0.078415
0.338860  0.260435  0.066404
0.402231  0.295813  0.067804
0.456374  0.322756  0.065863
0.506312  0.344577  0.060562
0.571158  0.381627  0.059920
0.621398  0.411748  0.057046
0.691107  0.435822  0.053204
0.745248  0.468899  0.053985
0.821014  0.487087  0.056806
0.128419  0.124041  0.073658
0.149619  0.141354  0.075291
0.169208  0.159781  0.091140
0.201704  0.185957  0.092763
0.256271  0.217602  0.083749
0.327465  0.258784  0.079583
0.368610  0.282890  0.079515
0.435989  0.326381  0.079613
0.475097  0.348610  0.073091
0.516039  0.373767  0.071649
0.583961  0.403826  0.073105
0.641734  0.433543  0.063579
0.700498  0.457748  0.057031
0.742479  0.484567  0.057487
0.822714  0.507123  0.057919
0.157237  0.145932  0.092649
0.172106  0.162879  0.094974
0.208178  0.190818  0.107814
0.246417  0.210811  0.096144
0.299999  0.251528  0.108131
0.350520  0.266422  0.084939
0.393719  0.306726  0.092248
0.443581  0.332412  0.073142
0.504330  0.372563  0.084640
0.551932  0.401399  0.086259
0.601057  0.420893  0.062485
0.669521  0.451450  0.063143
0.728898  0.483809  0.066511
0.780737  0.505274  0.063964
0.830228  0.530886  0.062188
0.187138  0.175003  0.100171
0.216216  0.197285  0.110621
0.250079  0.231917  0.127516
0.286973  0.248406  0.123846
0.340072  0.268533  0.094197
0.388124  0.306421  0.098658
0.449195  0.337801  0.088783
0.465293  0.361356  0.100709
0.519071  0.389968  0.081139
0.575290  0.424758  0.095406
0.620506  0.451677  0.076475
0.680776  0.488378  0.068386
0.737428  0.500572  0.072231
0.809082  0.540183  0.066531
0.869177  0.570342  0.059147
0.227375  0.222839  0.143737
0.267475  0.234943  0.113029
0.285087  0.259511  0.138489
0.327853  0.271141  0.120202
0.382766  0.305018  0.097889
0.425086  0.338719  0.099330
0.461862  0.366935  0.092692
0.514618  0.393557  0.102695
0.546379  0.422053  0.097322
0.592685  0.447073  0.090883
0.658574  0.485641  0.080855
0.707911  0.512464  0.071922
0.763185  0.540557  0.066060
0.829315  0.571087  0.060045
0.882631  0.593513  0.064817
0.254183  0.236061  0.123589
0.287304  0.261894  0.133238
0.339996  0.292234  0.137750
0.377293  0.310398  0.130827
0.426234  0.341287  0.091387
0.458035  0.367709  0.105035
0.508216  0.407122  0.086542
0.557602  0.431501  0.091425
0.583056  0.460130  0.091413
0.618701  0.484072  0.082822
0.680159  0.524742  0.074729
0.727188  0.546110  0.068624
0.793952  0.570181  0.067698
0.846202  0.594333  0.068612
0.925878  0.614606  0.074477
0.308046  0.261911  0.127716
0.341753  0.296330  0.139742
0.379775  0.309344  0.119314
0.399680  0.333293  0.122911
0.447218  0.366880  0.105354
0.499599  0.408283  0.099304
0.535174  0.431246  0.104258
0.575478  0.472427  0.076055
0.615329  0.502635  0.086397
0.672638  0.545065  0.093728
0.716687  0.561585  0.086029
0.756568  0.586959  0.087893
0.809478  0.614739  0.079696
0.874248  0.649271  0.082555
0.919460  0.661276  0.079029
0.332423  0.283769  0.131969
0.392079  0.330850  0.132013
0.423529  0.348016  0.131509
0.465398  0.379643  0.104282
0.495991  0.406397  0.111375
0.548433  0.448714  0.094040
0.590023  0.486738  0.098222
0.612069  0.509601  0.097487
0.657891  0.546759  0.090494
0.687775  0.571605  0.083895
0.747051  0.621001  0.071757
0.777140  0.634505  0.075322
0.828747  0.651851  0.077884
0.884580  0.680215  0.077400
0.950177  0.715766  0.082254
0.370009  0.317444  0.144504
0.396097  0.340456  0.137420
0.435819  0.373106  0.125590
0.503326  0.413879  0.103939
0.537393  0.434588  0.105916
0.578630  0.483088  0.098847
0.628753  0.525487  0.089228
0.658517  0.552733  0.081358
0.690465  0.580016  0.089656
0.728350  0.615157  0.086239
0.776779  0.638280  0.078524
0.820657  0.673751  0.092138
0.856730  0.689005  0.068404
0.919596  0.723225  0.082876
0.959242  0.729178  0.093905
0.409335  0.344935  0.133831
0.456173  0.378051  0.124049
0.508041  0.425175  0.109656
0.532156  0.434951  0.103068
0.568514  0.490409  0.108728
0.615580  0.511656  0.097765
0.634133  0.534931  0.098487
0.683386  0.568188  0.106401
0.713762  0.595469  0.087868
0.738270  0.627467  0.093799
0.795431  0.658928  0.077699
0.848018  0.691572  0.092851
0.901315  0.726724  0.086793
0.925003  0.757183  0.082999
0.979430  0.777327  0.071942
0.464955  0.381158  0.122456
0.520122  0.425581  0.082230
0.540523  0.444321  0.108116
0.593505  0.486432  0.095327
0.607502  0.506893  0.100136
0.646677  0.549283  0.100645
0.691337  0.582997  0.095539
0.700905  0.596059  0.088962
0.757261  0.630593  0.095636
0.793201  0.661868  0.092790
0.829485  0.685677  0.083426
0.881186  0.723206  0.097390
0.917861  0.748798  0.088997
0.978627  0.774475  0.083864
1.004195  0.790919  0.084072
0.491117  0.408736  0.120943
0.519139  0.434585  0.103584
0.566484  0.477999  0.090633
0.585140  0.487821  0.090131
0.645984  0.551155  0.091027
0.673540  0.566679  0.085999
0.694042  0.599613  0.110287
0.754997  0.636684  0.079933
0.785399  0.652762  0.087070
0.816003  0.682754  0.097041
0.859182  0.717373  0.093723
0.891396  0.730445  0.099010
0.934368  0.761456  0.092864
0.984422  0.795876  0.080380
1.031398  0.812296  0.087302
0.543812  0.454979  0.122457
0.572124  0.483179  0.094689
0.589264  0.486238  0.101403
0.636831  0.531501  0.091730
0.667587  0.568382  0.089804
0.708966  0.600879  0.094044
0.743329  0.627881  0.092142
0.780052  0.653959  0.100690
0.809341  0.673876  0.098473
0.857320  0.704477  0.097210
0.896239  0.738343  0.100601
0.915880  0.756101  0.090446
0.974890  0.795026  0.095317
1.026524  0.818393  0.088061
1.077718  0.848319  0.101720
0.092321  0.085196  0.037599
0.106977  0.101406  0.061152
0.115217  0.110455  0.058224
0.154732  0.140168  0.074488
0.191867  0.167339  0.085113
0.247734  0.205235  0.074849
0.307452  0.242454  0.066108
0.376544  0.273303  0.066133
0.427179  0.300491  0.057284
0.471057  0.322210  0.058159
0.525984  0.349475  0.053837
0.586492  0.376230  0.061424
0.639765  0.403949  0.047775
0.723883  0.435189  0.054490
0.777648  0.443419  0.047998
0.109843  0.110533  0.063896
0.118235  0.123786  0.074192
0.139050  0.134887  0.079700
0.159177  0.159490  0.095859
0.218462  0.194324  0.097185
0.287355  0.235574  0.078195
0.340282  0.262138  0.077716
0.377854  0.283044  0.074088
0.444087  0.320240  0.056787
0.494583  0.346489  0.065842
0.554191  0.380566  0.060113
0.606606  0.401529  0.057137
0.659665  0.423734  0.059577
0.749036  0.457269  0.052704
0.788330  0.470180  0.059705
0.124651  0.123322  0.077262
0.135495  0.143949  0.105126
0.155381  0.158950  0.104971
0.187294  0.175488  0.109408
0.223692  0.205106  0.111489
0.300632  0.250758  0.115180
0.340316  0.280532  0.092790
0.389544  0.300744  0.085487
0.465216  0.335696  0.078147
0.514816  0.368009  0.093938
0.563517  0.400204  0.069450
0.620472  0.423382  0.064158
0.689527  0.442248  0.054714
0.748570  0.473145  0.060453
0.796413  0.489635  0.054957
0.143032  0.156487  0.115231
0.153166  0.164036  0.120154
0.161485  0.179135  0.142557
0.201377  0.200823  0.134400
0.234434  0.217660  0.126443
0.323617  0.276734  0.126746
0.369404  0.307745  0.120599
0.416310  0.319713  0.108766
0.483011  0.367376  0.092749
0.533945  0.389873  0.096288
0.574680  0.406187  0.086450
0.644763  0.440161  0.072659
0.692466  0.465215  0.072468
0.744961  0.487867  0.061223
0.823014  0.518779  0.063997
0.153140  0.175360  0.142398
0.193828  0.209678  0.178885
0.205850  0.210948  0.150389
0.219920  0.224303  0.158386
0.289492  0.258077  0.145250
0.330131  0.284422  0.141106
0.387762  0.316459  0.134308
0.458978  0.358451  0.113491
0.497050  0.382831  0.116649
0.553230  0.404745  0.104093
0.610303  0.438613  0.105014
0.665076  0.462196  0.090339
0.718927  0.487274  0.076070
0.779270  0.532675  0.077073
0.835519  0.551043  0.067332
0.174536  0.195066  0.172780
0.196690  0.211374  0.168878
0.239766  0.241837  0.170663
0.262910  0.252551  0.163546
0.313292  0.280684  0.165381
0.361486  0.315496  0.167346
0.426169  0.343602  0.138503
0.472467  0.368546  0.124812
0.535357  0.413172  0.108145
0.574240  0.433906  0.115187
0.634969  0.461931  0.098756
0.677605  0.493240  0.115270
0.727081  0.506759  0.091551
0.807422  0.554471  0.092170
0.850309  0.569936  0.082803
0.205428  0.223132  0.182756
0.233765  0.242753  0.184636
0.278632  0.267360  0.183524
0.319992  0.297402  0.185758
0.352949  0.315468  0.168230
0.401327  0.340068  0.164507
0.455584  0.372847  0.154688
0.498454  0.400652  0.143542
0.539185  0.425144  0.135882
0.587140  0.464653  0.131219
0.643935  0.494191  0.129190
0.703237  0.522174  0.128451
0.759526  0.542611  0.125668
0.826814  0.580434  0.104743
0.876551  0.592949  0.088288
0.258566  0.264145  0.200583
0.289435  0.282635  0.203903
0.334159  0.302879  0.190053
0.356337  0.323099  0.170633
0.393388  0.348794  0.182910
0.442021  0.372715  0.159622
0.494570  0.410572  0.158136
0.539899  0.434653  0.145576
0.594234  0.472462  0.116342
0.643219  0.505271  0.124681
0.676473  0.519733  0.125612
0.715850  0.550544  0.140853
0.775638  0.582283  0.123384
0.850626  0.615003  0.111062
0.892062  0.636742  0.110804
0.278218  0.278175  0.200697
0.328987  0.304628  0.193255
0.351404  0.311344  0.190076
0.402625  0.354865  0.192084
0.426453  0.382565  0.192885
0.469612  0.401829  0.178274
0.535606  0.441545  0.161434
0.568565  0.470390  0.142110
0.627464  0.512294  0.119301
0.666441  0.528602  0.134898
0.714559  0.567474  0.116714
0.753839  0.602069  0.125228
0.810902  0.620457  0.126194
0.867438  0.644333  0.129627
0.927744  0.669988  0.114833
0.313024  0.305308  0.219651
0.361444  0.336193  0.196927
0.401519  0.348683  0.183740
0.426434  0.379024  0.201553
0.462789  0.395031  0.191680
0.526511  0.443991  0.164170
0.571950  0.472300  0.162554
0.605458  0.497617  0.136479
0.655901  0.536585  0.138061
0.694797  0.580832  0.124604
0.744525  0.612735  0.131549
0.789685  0.631219  0.125579
0.837064  0.659942  0.141452
0.879542  0.687499  0.131655
0.931128  0.699567  0.116716
0.360905  0.332883  0.200342
0.397098  0.355490  0.192770
0.431653  0.384865  0.203081
0.494920  0.419968  0.170118
0.518008  0.438899  0.158253
0.552620  0.466327  0.169747
0.590403  0.501782  0.155435
0.640901  0.546469  0.142403
0.679103  0.575544  0.121620
0.721823  0.601768  0.126081
0.760615  0.628273  0.125558
0.799777  0.660271  0.123161
0.861869  0.711918  0.129718
0.906953  0.714743  0.125346
0.981616  0.761864  0.132903
0.402895  0.363974  0.203945
0.432761  0.381361  0.196025
0.482330  0.417805  0.192997
0.517446  0.443760  0.182436
0.570572  0.473233  0.173373
0.598315  0.508475  0.156635
0.620565  0.525470  0.150163
0.677572  0.564025  0.134226
0.719329  0.598718  0.148402
0.765979  0.644911  0.123010
0.797227  0.659438  0.131556
0.835708  0.704611  0.135425
0.891547  0.726935  0.128339
0.931849  0.760439  0.132826
0.986228  0.789105  0.146726
0.436905  0.381072  0.197559
0.469253  0.409636  0.190550
0.515128  0.438677  0.172492
0.534821  0.460610  0.198839
0.584428  0.496070  0.177748
0.639519  0.535585  0.167819
0.671735  0.562635  0.138263
0.704330  0.601469  0.144760
0.751065  0.630238  0.138127
0.788439  0.656426  0.137711
0.817306  0.686631  0.135306
0.859285  0.719759  0.142514
0.913467  0.751627  0.125529
0.968426  0.781786  0.153667
1.005140  0.790282  0.126668
0.470117  0.402778  0.207034
0.514613  0.438651  0.181942
0.528870  0.459230  0.192399
0.581693  0.510523  0.157065
0.615487  0.536076  0.150356
0.683923  0.583994  0.143773
0.713319  0.596515  0.138223
0.747117  0.638835  0.125745
0.781093  0.653532  0.138220
0.804330  0.682025  0.132250
0.841598  0.709581  0.127151
0.898092  0.750702  0.132126
0.935474  0.765847  0.136696
0.995362  0.794926  0.128338
1.038016  0.819687  0.153661
0.501794  0.444153  0.212254
0.557351  0.479599  0.192778
0.588961  0.514254  0.164526
0.627088  0.539466  0.153605
0.677408  0.558566  0.154691
0.695737  0.598000  0.148216
0.747792  0.628648  0.133237
0.770890  0.652188  0.136059
0.801940  0.679955  0.136540
0.855569  0.721341  0.144073
0.897805  0.746491  0.123494
0.920448  0.755039  0.146476
0.962902  0.791065  0.143446
1.022313  0.812725  0.131547
1.069049  0.844436  0.135357
0.119808  0.116761  0.073840
0.122602  0.123074  0.076067
0.141804  0.147465  0.100327
0.156062  0.164077  0.117001
0.196950  0.181217  0.094825
0.244247  0.214017  0.090135
0.331809  0.257970  0.092740
0.380007  0.287423  0.079077
0.410004  0.303541  0.071574
0.482758  0.337920  0.072976
0.521681  0.368283  0.069796
0.598402  0.389452  0.069862
0.629402  0.410889  0.055860
0.712450  0.434794  0.048969
0.764864  0.448581  0.057293
0.122958  0.135885  0.098000
0.134959  0.147281  0.121615
0.156097  0.167575  0.128076
0.177939  0.186141  0.135197
0.211180  0.203725  0.138077
0.268554  0.238955  0.117489
0.341271  0.279185  0.123939
0.389474  0.308823  0.103961
0.435696  0.325187  0.081707
0.490786  0.359388  0.084158
0.547312  0.382702  0.075518
0.602786  0.410097  0.077337
0.676372  0.436919  0.072483
0.723531  0.451337  0.057095
0.795341  0.482640  0.056210
0.139068  0.152632  0.120186
0.150745  0.173245  0.143826
0.166631  0.194711  0.156184
0.196004  0.211071  0.178559
0.224117  0.226420  0.159174
0.292014  0.262974  0.142373
0.357937  0.299179  0.136147
0.401072  0.319743  0.126850
0.466548  0.348966  0.103919
0.516221  0.384494  0.102782
0.564081  0.404005  0.103128
0.616846  0.430485  0.076869
0.668686  0.453981  0.076414
0.741464  0.480271  0.073524
0.823093  0.515847  0.065095
0.145505  0.175710  0.155947
0.164624  0.201715  0.184174
0.180996  0.215191  0.189740
0.203910  0.222546  0.190793
0.254376  0.255726  0.191714
0.301440  0.286342  0.177930
0.372697  0.318610  0.159805
0.417490  0.335126  0.135291
0.491466  0.378456  0.124693
0.545569  0.418548  0.119028
0.576129  0.419191  0.116561
0.635224  0.454546  0.109772
0.710511  0.491288  0.101987
0.751442  0.500482  0.091250
0.816581  0.525658  0.098624
0.166170  0.206198  0.199547
0.186332  0.229891  0.220445
0.195132  0.233886  0.211698
0.237464  0.259782  0.211836
0.271302  0.274550  0.201974
0.318566  0.298864  0.195912
0.368345  0.331613  0.188968
0.448579  0.369041  0.168034
0.486481  0.379145  0.156382
0.550386  0.418174  0.125745
0.604501  0.450325  0.128685
0.653292  0.472913  0.130061
0.706819  0.508499  0.131855
0.763949  0.530890  0.110343
0.841214  0.562323  0.104475
0.191358  0.230108  0.215871
0.198024  0.243967  0.226984
0.227364  0.263017  0.238997
0.244738  0.275233  0.240327
0.296806  0.304483  0.240464
0.353614  0.327624  0.222254
0.421606  0.362425  0.183308
0.470427  0.390124  0.199728
0.511307  0.409046  0.174729
0.553011  0.426429  0.169194
0.616740  0.476026  0.153804
0.665692  0.513116  0.152655
0.740051  0.536195  0.133653
0.782649  0.565218  0.138230
0.836786  0.574331  0.128572
0.212304  0.260961  0.246404
0.225936  0.259666  0.235223
0.259228  0.288794  0.256157
0.296882  0.305604  0.258694
0.331166  0.326254  0.236874
0.384288  0.364120  0.246966
0.440035  0.391056  0.213218
0.491190  0.417551  0.215517
0.544254  0.444180  0.193170
0.586976  0.459741  0.173096
0.637543  0.484902  0.177532
0.713287  0.537142  0.160499
0.747490  0.554700  0.171718
0.807496  0.593385  0.144099
0.871711  0.622645  0.154823
0.220959  0.272362  0.258515
0.272608  0.300402  0.258389
0.299969  0.319643  0.272163
0.337420  0.340520  0.270537
0.380440  0.356552  0.241546
0.435647  0.385868  0.215927
0.469686  0.413154  0.228420
0.527447  0.443650  0.224512
0.566024  0.473988  0.230598
0.620874  0.496600  0.191791
0.687913  0.541883  0.170509
0.725755  0.557492  0.188670
0.791933  0.594824  0.167847
0.818367  0.612350  0.184176
0.884625  0.629443  0.175496
0.263622  0.299468  0.263929
0.289449  0.320338  0.273346
0.330319  0.337421  0.268570
0.370022  0.357532  0.260245
0.426113  0.397439  0.253489
0.460443  0.420982  0.257057
0.498319  0.441400  0.234936
0.549905  0.480403  0.223727
0.592232  0.493765  0.229219
0.663831  0.539391  0.201322
0.718424  0.580883  0.172196
0.762676  0.597481  0.196295
0.797066  0.620566  0.188242
0.864782  0.662950  0.192171
0.915764  0.674768  0.191322
0.288850  0.322476  0.295690
0.339394  0.339365  0.272116
0.387498  0.372257  0.270600
0.414090  0.386113  0.262306
0.474156  0.426715  0.246675
0.517011  0.447141  0.248961
0.542460  0.470334  0.247002
0.592054  0.510685  0.231922
0.643846  0.541911  0.208347
0.677858  0.564733  0.200094
0.740960  0.610232  0.185521
0.795011  0.645578  0.181336
0.812773  0.657470  0.186560
0.899560  0.698603  0.191605
