LUT/LUT_23.CUBE
TITLE "LUT_23" 
#LUT size 
LUT_3D_SIZE 5 
#data point 
DOMAIN_MIN 0.000000 0.000000 0.000000
DOMAIN_MAX 0.857143 0.857143 0.857143
0.063276  0.058839  0.028260
0.126484  0.118238  0.066999
0.316590  0.234490  0.059729
0.469360  0.321677  0.058090
0.639448  0.392978  0.047158
0.113076  0.109855  0.058112
0.208810  0.179309  0.082233
0.377623  0.284890  0.067548
0.521994  0.368013  0.061838
0.690172  0.454923  0.051975
0.225562  0.191036  0.085137
0.349563  0.281350  0.098946
0.456905  0.352628  0.078602
0.618595  0.478416  0.071593
0.757311  0.532539  0.065710
0.364430  0.303858  0.101376
0.460687  0.371643  0.091070
0.577146  0.470457  0.077003
0.690837  0.573089  0.074559
0.823185  0.664071  0.083872
0.464351  0.384162  0.082681
0.571506  0.477484  0.065713
0.692715  0.577332  0.073324
0.785522  0.658120  0.079643
0.902861  0.746090  0.084209
0.118750  0.116858  0.072156
0.156785  0.163903  0.117829
0.327344  0.257312  0.091387
0.478766  0.341139  0.074399
0.625656  0.411216  0.060456
0.150262  0.175128  0.155189
0.204657  0.225173  0.192686
0.371221  0.319401  0.159036
0.547358  0.415195  0.116587
0.702839  0.496231  0.101502
0.210790  0.257373  0.247139
0.295636  0.307606  0.254315
0.440114  0.389647  0.213123
0.583922  0.458709  0.169715
0.745618  0.555278  0.173342
0.288734  0.319973  0.296886
0.412678  0.389923  0.262354
0.541619  0.472675  0.245324
0.679368  0.563595  0.202182
0.813165  0.659141  0.187003
0.407239  0.394830  0.284250
0.542483  0.473158  0.251876
0.652197  0.565250  0.250882
0.791114  0.661014  0.197347
0.927651  0.749550  0.190639
0.158350  0.191654  0.176918
0.185259  0.234558  0.224204
0.294537  0.305234  0.240119
0.493375  0.387989  0.164513
0.654139  0.462870  0.139594
0.205341  0.257460  0.257563
0.254070  0.307965  0.299945
0.352028  0.376882  0.333121
0.512194  0.449922  0.276934
0.703123  0.541884  0.226278
0.250206  0.325106  0.348389
0.300816  0.390917  0.418244
0.393377  0.442019  0.404601
0.575531  0.530437  0.384609
0.743575  0.611678  0.327525
0.309908  0.397322  0.417846
0.373965  0.461966  0.469145
0.496423  0.526719  0.463098
0.641844  0.600658  0.469973
0.818012  0.692805  0.405282
0.361623  0.464880  0.498195
0.489563  0.529708  0.495115
0.599732  0.592203  0.489743
0.743797  0.686618  0.476566
0.900764  0.769788  0.454634
0.204118  0.267808  0.273343
0.247066  0.323114  0.338171
0.328178  0.373880  0.347301
0.471800  0.442786  0.314488
0.667320  0.519316  0.262300
0.263796  0.343365  0.375168
0.302741  0.397317  0.426121
0.357422  0.447663  0.456478
0.506938  0.514349  0.444172
0.700725  0.600962  0.376059
0.314947  0.411342  0.438312
0.357531  0.471721  0.507478
0.403137  0.523892  0.555091
0.550976  0.588041  0.533869
0.727481  0.672925  0.497027
0.367478  0.482366  0.527175
0.412703  0.535880  0.580319
0.480615  0.606272  0.641046
0.642191  0.679492  0.633011
0.776937  0.747120  0.606957
0.422573  0.544101  0.579729
0.477340  0.605841  0.642814
0.550580  0.672086  0.704243
0.710575  0.747568  0.694503
0.860402  0.811706  0.675065
0.272496  0.358441  0.393705
0.314402  0.408334  0.440795
0.359610  0.466123  0.501948
0.463544  0.510205  0.469724
0.644341  0.581289  0.405858
0.319234  0.420374  0.450244
0.371023  0.481057  0.517464
0.427296  0.550198  0.586927
0.521196  0.589812  0.572802
0.681440  0.667625  0.547977
0.372240  0.490039  0.528282
0.430721  0.560502  0.596940
0.496069  0.623977  0.657393
0.562598  0.678787  0.704682
0.753083  0.745284  0.649106
0.424100  0.547408  0.586341
0.498142  0.629613  0.665521
0.542668  0.679283  0.717067
0.630811  0.758804  0.803153
0.764152  0.799511  0.763016
0.490752  0.618298  0.663320
0.547610  0.684040  0.724558
0.624230  0.754811  0.806258
0.696845  0.812961  0.869584
0.833398  0.894553  0.895724
