LUT/LUT_4.CUBE
TITLE "LUT_4" 
#LUT size 
LUT_3D_SIZE 5 
#data point 
DOMAIN_MIN 0.000000 0.000000 0.000000
DOMAIN_MAX 0.857143 0.857143 0.857143
0.019773  0.016541  0.013029
0.171089  0.097388  0.022685
0.383611  0.133694  0.003810
0.585560  0.149803  -0.008345
0.793463  0.155017  -0.014309
0.116844  0.109989  0.049567
0.232457  0.187704  0.040175
0.415469  0.236311  0.028813
0.606682  0.283468  0.024105
0.811757  0.300522  0.016234
0.208257  0.235670  0.059966
0.321175  0.330102  0.043940
0.444970  0.396532  0.041469
0.627086  0.444792  0.040940
0.836270  0.454123  0.041081
0.289261  0.379127  0.062594
0.411900  0.460274  0.044846
0.520352  0.537832  0.040193
0.665618  0.612342  0.033273
0.845791  0.650918  0.041980
0.351254  0.524192  0.056779
0.491668  0.576106  0.034479
0.607339  0.654573  0.039386
0.741343  0.732594  0.045944
0.886722  0.795274  0.046270
0.052530  0.094644  0.114913
0.162172  0.160374  0.126351
0.377327  0.167214  0.105706
0.577205  0.169184  0.111945
0.791866  0.165054  0.123563
0.105626  0.170545  0.196911
0.201963  0.234171  0.210036
0.403404  0.295389  0.173887
0.598241  0.331254  0.143055
0.798826  0.348815  0.142612
0.188004  0.249359  0.256574
0.299159  0.335113  0.240735
0.439134  0.410920  0.212999
0.620071  0.445190  0.203922
0.822044  0.477489  0.186054
0.269678  0.378288  0.259933
0.384537  0.453655  0.239475
0.507965  0.542570  0.231989
0.665676  0.622876  0.212250
0.841323  0.646277  0.205417
0.334815  0.507505  0.256324
0.473346  0.579456  0.235017
0.594834  0.657350  0.240822
0.731593  0.740416  0.226644
0.892344  0.798901  0.206228
0.057283  0.164540  0.245387
0.162618  0.203734  0.270657
0.374855  0.212849  0.276701
0.589280  0.201981  0.276657
0.806177  0.187339  0.281075
0.129833  0.251339  0.316776
0.211763  0.302640  0.341420
0.367242  0.360199  0.335857
0.577334  0.382289  0.320956
0.795254  0.378082  0.317022
0.191103  0.323157  0.392988
0.265116  0.382434  0.436935
0.420922  0.445923  0.409581
0.605425  0.504483  0.381502
0.807915  0.541170  0.356613
0.252195  0.391441  0.472799
0.365831  0.463194  0.473341
0.492453  0.562187  0.443907
0.648701  0.627956  0.440173
0.842749  0.668769  0.424082
0.300491  0.497561  0.495328
0.458121  0.574898  0.465852
0.589118  0.656324  0.449619
0.714977  0.734436  0.438580
0.874493  0.812500  0.439243
0.016021  0.166697  0.500531
0.165863  0.225047  0.473515
0.380946  0.230093  0.457966
0.589288  0.218499  0.465611
0.810616  0.217289  0.468966
0.082677  0.325058  0.508186
0.225196  0.389760  0.479085
0.369622  0.415910  0.485949
0.579686  0.425644  0.490365
0.797932  0.407780  0.487232
0.162261  0.401618  0.558751
0.312035  0.465226  0.536385
0.407058  0.524424  0.558018
0.573075  0.577397  0.544258
0.785877  0.604232  0.528245
0.241181  0.473637  0.615722
0.374034  0.544434  0.620703
0.468876  0.604072  0.646109
0.634414  0.669920  0.623741
0.809781  0.728893  0.591387
0.300586  0.531206  0.684065
0.424205  0.603905  0.683267
0.552309  0.668522  0.690518
0.713463  0.749995  0.664187
0.873691  0.827009  0.656170
0.021219  0.163202  0.702889
0.170460  0.213100  0.709700
0.348453  0.233020  0.719957
0.592061  0.222184  0.672137
0.800800  0.214931  0.676928
0.056776  0.338223  0.707579
0.219036  0.396169  0.705636
0.355314  0.440197  0.723708
0.583811  0.438393  0.671832
0.793281  0.432801  0.684184
0.155309  0.449978  0.705206
0.292172  0.534757  0.708783
0.408665  0.613355  0.723614
0.574641  0.650662  0.709263
0.793149  0.642570  0.697221
0.224565  0.515712  0.763970
0.385256  0.602137  0.744168
0.489047  0.680159  0.770267
0.604243  0.752790  0.816990
0.793141  0.796322  0.752599
0.289035  0.588511  0.829913
0.445174  0.659184  0.805537
0.569919  0.734637  0.833620
0.680920  0.804484  0.869073
0.838883  0.875477  0.856850
