LUT/LUT_5.CUBE
TITLE "LUT_5" 
#LUT size 
LUT_3D_SIZE 15 
DOMAIN_MIN 0.0 0.0 0.0 
DOMAIN_MAX 1.0 1.0 1.0 
#data point 
0.024362  0.023000  0.012926
0.047488  0.047606  0.020966
0.092653  0.081307  0.027254
0.163356  0.107478  0.030635
0.238877  0.132373  0.019620
0.296230  0.136363  0.016747
0.376459  0.153314  0.009846
0.434040  0.157233  0.001353
0.503161  0.164172  -0.000037
0.571322  0.175135  -0.000889
0.641617  0.181207  -0.001952
0.702294  0.179007  -0.007398
0.779679  0.185433  -0.013497
0.843296  0.190332  -0.019057
0.920471  0.195998  -0.022675
0.044474  0.046719  0.018462
0.074228  0.068706  0.029998
0.111452  0.097889  0.039538
0.180990  0.135389  0.033874
0.246993  0.151019  0.026347
0.309877  0.168997  0.020586
0.380173  0.188535  0.018133
0.437948  0.197095  0.020026
0.506768  0.206414  0.012199
0.573537  0.210874  0.010801
0.641197  0.223442  0.015656
0.718061  0.232515  0.000604
0.787033  0.233665  -0.003411
0.856434  0.237026  -0.007601
0.917029  0.252940  -0.013501
0.083811  0.083186  0.039248
0.104468  0.091881  0.041084
0.144754  0.121889  0.047136
0.202407  0.151829  0.038320
0.268563  0.180356  0.032399
0.326456  0.194022  0.030523
0.395702  0.209414  0.030358
0.448216  0.226872  0.021104
0.519028  0.244069  0.023690
0.584351  0.254243  0.018534
0.652855  0.258617  0.015517
0.720373  0.272767  0.015240
0.790987  0.284234  0.012984
0.861525  0.285595  0.011763
0.927862  0.290243  0.007205
0.114997  0.104643  0.052838
0.142028  0.129689  0.061252
0.182760  0.158634  0.051555
0.231192  0.187730  0.046586
0.284213  0.210391  0.044016
0.343346  0.231671  0.041297
0.410825  0.244552  0.034972
0.473687  0.263794  0.036225
0.532012  0.282289  0.028358
0.601118  0.293817  0.028483
0.659119  0.305244  0.026089
0.726265  0.309472  0.022862
0.802775  0.319171  0.022041
0.867461  0.318288  0.017929
0.942408  0.340852  0.020439
0.148920  0.143241  0.062061
0.181486  0.169432  0.064499
0.222643  0.199939  0.061984
0.260693  0.229157  0.049086
0.302219  0.258023  0.041311
0.364111  0.281885  0.044280
0.417266  0.294435  0.040538
0.484065  0.306971  0.039681
0.546518  0.323845  0.037455
0.613333  0.331818  0.033698
0.668035  0.347373  0.037734
0.744830  0.370647  0.031710
0.804676  0.364187  0.027700
0.878529  0.372360  0.024323
0.935350  0.386982  0.023425
0.184973  0.184493  0.067171
0.219873  0.210072  0.057498
0.251794  0.235281  0.052742
0.294386  0.278857  0.041157
0.328611  0.299328  0.041744
0.370474  0.328625  0.042695
0.439103  0.346473  0.043052
0.499913  0.364215  0.040768
0.554316  0.366891  0.038735
0.613387  0.376843  0.031025
0.682434  0.388463  0.034018
0.751647  0.398790  0.038160
0.816171  0.414131  0.036933
0.891769  0.424833  0.036013
0.952463  0.442621  0.031110
0.217889  0.225827  0.064404
0.253128  0.256617  0.060573
0.296938  0.293084  0.051704
0.331224  0.320802  0.049910
0.353803  0.351898  0.049077
0.402261  0.374197  0.046473
0.448903  0.393207  0.045949
0.508364  0.417546  0.047483
0.565135  0.419876  0.042821
0.625612  0.449082  0.041373
0.692580  0.452624  0.035664
0.753409  0.455441  0.042630
0.827193  0.461822  0.044516
0.896351  0.468459  0.045338
0.964766  0.478961  0.046729
0.248675  0.276787  0.072931
0.283316  0.301173  0.056319
0.314217  0.328794  0.051447
0.358221  0.353605  0.046344
0.393218  0.396640  0.045286
0.430393  0.432030  0.040115
0.466549  0.453165  0.039176
0.513811  0.468283  0.039740
0.578292  0.490470  0.042143
0.638155  0.498336  0.039588
0.711865  0.502025  0.043102
0.769106  0.525907  0.046061
0.832304  0.529575  0.045568
0.908552  0.532337  0.049987
0.976699  0.537460  0.048648
0.281231  0.315387  0.068381
0.317794  0.350730  0.071117
0.349926  0.373953  0.048808
0.382306  0.396723  0.044060
0.421447  0.441544  0.044258
0.454048  0.463287  0.043016
0.498937  0.496645  0.044278
0.537923  0.522124  0.046741
0.595562  0.533834  0.041604
0.657329  0.556721  0.043317
0.707795  0.571625  0.040619
0.770656  0.567469  0.046387
0.850953  0.581609  0.042775
0.904853  0.596288  0.045076
0.973228  0.597662  0.051483
0.308077  0.361720  0.066611
0.345922  0.385329  0.055480
0.383717  0.416202  0.055208
0.424254  0.448057  0.051072
0.446460  0.472190  0.046954
0.486738  0.501683  0.041973
0.528129  0.529660  0.042529
0.565396  0.563860  0.044080
0.615795  0.589530  0.045709
0.669040  0.606225  0.038193
0.727720  0.626464  0.040040
0.784241  0.643638  0.043868
0.845282  0.653407  0.043148
0.913621  0.657257  0.047680
0.975528  0.667090  0.053249
0.334895  0.398807  0.062081
0.369366  0.421174  0.059570
0.413687  0.458491  0.050031
0.447340  0.487041  0.051581
0.493723  0.515430  0.043404
0.520328  0.549171  0.045944
0.559785  0.573076  0.050498
0.606082  0.601938  0.041770
0.652301  0.633741  0.041985
0.687534  0.644938  0.043305
0.744870  0.677100  0.045046
0.797778  0.681653  0.044522
0.852931  0.708010  0.045211
0.916109  0.724862  0.047877
0.987512  0.727831  0.051962
0.362051  0.436714  0.061214
0.404048  0.466763  0.053792
0.436583  0.490831  0.051990
0.474233  0.518169  0.041733
0.516236  0.550420  0.044687
0.552946  0.579233  0.048043
0.589115  0.606161  0.044861
0.629239  0.631146  0.040618
0.671837  0.659696  0.045884
0.723059  0.675725  0.043349
0.766149  0.708834  0.042908
0.821970  0.727937  0.046759
0.883294  0.750571  0.046964
0.937662  0.775687  0.049620
0.990102  0.787562  0.048057
0.387915  0.483434  0.060222
0.432282  0.505019  0.051309
0.466794  0.531176  0.048865
0.509253  0.557404  0.045710
0.542788  0.589059  0.046372
0.580599  0.613841  0.047382
0.617428  0.639094  0.044586
0.659590  0.664620  0.048757
0.705236  0.695764  0.049580
0.748628  0.719273  0.049326
0.797552  0.744465  0.049684
0.846608  0.765022  0.048141
0.889408  0.786368  0.052404
0.952147  0.810796  0.048312
1.012630  0.832164  0.048289
0.407591  0.529980  0.052403
0.454734  0.552221  0.054848
0.499265  0.574269  0.045500
0.539111  0.599568  0.043110
0.576842  0.622652  0.045814
0.613380  0.656502  0.039991
0.654820  0.676192  0.044437
0.689749  0.707092  0.050702
0.732582  0.723559  0.042569
0.773004  0.749879  0.046939
0.819547  0.779256  0.045393
0.874947  0.801799  0.045464
0.921250  0.822092  0.051380
0.970596  0.847599  0.048156
1.024367  0.863090  0.050562
0.429961  0.575742  0.048564
0.472074  0.591734  0.049147
0.513699  0.610504  0.047126
0.568056  0.641699  0.042920
0.603201  0.664352  0.048444
0.637418  0.686730  0.038685
0.680872  0.710419  0.045738
0.721245  0.737570  0.042973
0.761971  0.768469  0.046495
0.801144  0.788838  0.048440
0.845907  0.807819  0.048017
0.895251  0.833980  0.052571
0.945255  0.855176  0.051637
1.001869  0.880537  0.044941
1.056297  0.900859  0.045370
0.040383  0.040864  0.020995
0.059250  0.057540  0.024714
0.095279  0.089500  0.034623
0.149595  0.111851  0.033235
0.218438  0.130866  0.030519
0.294924  0.143948  0.020571
0.369240  0.157795  0.016508
0.426456  0.169780  0.013187
0.505601  0.175252  0.007399
0.563925  0.172100  0.003604
0.635551  0.177345  0.000407
0.716029  0.191562  0.003364
0.781063  0.195528  0.000505
0.843497  0.192910  -0.002692
0.914221  0.191479  -0.005136
0.060069  0.068994  0.039410
0.077757  0.083461  0.043951
0.118913  0.108509  0.050746
0.176568  0.140900  0.052536
0.240864  0.167694  0.044775
0.310641  0.175375  0.032437
0.375339  0.186195  0.026813
0.434984  0.207204  0.028990
0.502515  0.210592  0.023199
0.582870  0.226905  0.021039
0.642986  0.239469  0.012112
0.710810  0.242559  0.016466
0.778791  0.242419  0.012772
0.851790  0.246034  0.003855
0.917296  0.255737  0.009396
0.078246  0.093913  0.067718
0.103945  0.104909  0.063478
0.146661  0.137766  0.070777
0.190309  0.165840  0.072914
0.255481  0.188485  0.058843
0.322866  0.202903  0.052519
0.383677  0.231481  0.049941
0.451551  0.241681  0.036974
0.515973  0.253700  0.030739
0.581702  0.266735  0.026234
0.654064  0.271148  0.023742
0.720768  0.283016  0.024833
0.794238  0.288759  0.022277
0.863275  0.290968  0.021868
0.931915  0.300728  0.021182
0.109932  0.122390  0.090082
0.150846  0.143915  0.086453
0.181949  0.167308  0.087824
0.212060  0.189537  0.083509
0.277575  0.219600  0.074601
0.344971  0.243504  0.071083
0.396914  0.258190  0.064940
0.463302  0.274076  0.061271
0.529471  0.288874  0.046812
0.587650  0.296909  0.040983
0.657269  0.313389  0.038190
0.729017  0.335450  0.039864
0.796008  0.325565  0.027795
0.871097  0.350293  0.030931
0.934917  0.351542  0.027706
0.152150  0.154992  0.093693
0.183983  0.179635  0.094123
0.216204  0.203008  0.094625
0.253851  0.234524  0.088181
0.307001  0.261900  0.079018
0.353835  0.281152  0.078505
0.412474  0.295297  0.065896
0.474889  0.310348  0.063788
0.538145  0.328084  0.068090
0.603527  0.341720  0.059524
0.663987  0.356095  0.044969
0.737331  0.374586  0.044520
0.797341  0.373024  0.037210
0.868879  0.385328  0.041544
0.941387  0.397857  0.033245
0.183720  0.183992  0.110029
0.216085  0.210769  0.099988
0.249617  0.250493  0.111530
0.282023  0.273037  0.100614
0.332290  0.303695  0.074928
0.375231  0.333355  0.086364
0.437671  0.350601  0.073332
0.484933  0.359096  0.081073
0.547666  0.376919  0.073809
0.617771  0.386644  0.075837
0.681168  0.396653  0.068504
0.756640  0.413285  0.053588
0.818733  0.417580  0.053366
0.886699  0.430634  0.049325
0.953443  0.448937  0.047772
0.217841  0.236728  0.122882
0.250567  0.261369  0.111541
0.286857  0.287759  0.108362
0.317548  0.320124  0.104804
0.359877  0.351576  0.089552
0.398639  0.381080  0.078174
0.448184  0.403797  0.078225
0.509361  0.418559  0.078067
0.565963  0.425736  0.074773
0.631434  0.432201  0.068405
0.694912  0.454149  0.067379
0.764709  0.459638  0.060307
0.826374  0.466154  0.068859
0.905978  0.476930  0.059844
0.966953  0.491371  0.055149
0.245231  0.283331  0.109508
0.279292  0.304052  0.109663
0.314877  0.333884  0.112324
0.347425  0.356476  0.105324
0.396554  0.392835  0.082339
0.427298  0.430823  0.082452
0.477287  0.458973  0.072155
0.524910  0.472650  0.072569
0.578205  0.487909  0.082551
0.637003  0.495575  0.072680
0.704810  0.512344  0.070702
0.765580  0.515457  0.061681
0.834294  0.527642  0.064335
0.905054  0.535540  0.064731
0.978624  0.538452  0.063550
0.277070  0.314387  0.114188
0.310134  0.345973  0.112650
0.344372  0.376044  0.110890
0.381478  0.397931  0.104113
0.416056  0.434145  0.089758
0.458549  0.465593  0.076029
0.491573  0.493240  0.075929
0.531610  0.520486  0.070953
0.595560  0.539179  0.071659
0.652909  0.563609  0.074078
0.713181  0.569256  0.071870
0.777002  0.575873  0.072402
0.846963  0.591021  0.073285
0.915787  0.589843  0.068453
0.978088  0.600778  0.066385
0.291052  0.358398  0.116583
0.341452  0.387206  0.114755
0.379802  0.418898  0.109818
0.412789  0.443685  0.096434
0.448884  0.471102  0.091375
0.490832  0.510328  0.080434
0.534062  0.542788  0.084296
0.567826  0.565970  0.079730
0.618142  0.595294  0.081981
0.667853  0.612007  0.076892
0.724687  0.631267  0.070538
0.783740  0.644254  0.066301
0.848455  0.658403  0.069508
0.916851  0.660746  0.068433
0.983765  0.670974  0.068179
0.329869  0.399556  0.108993
0.354330  0.422534  0.112471
0.400716  0.453611  0.108121
0.445956  0.490992  0.105511
0.482103  0.512947  0.090956
0.522982  0.547445  0.090395
0.557670  0.579076  0.078981
0.597927  0.605332  0.080055
0.643777  0.625157  0.077499
0.686040  0.648565  0.087154
0.745916  0.678589  0.075221
0.796749  0.695762  0.072778
0.858031  0.712663  0.064767
0.921190  0.729512  0.074723
0.996485  0.716032  0.070481
0.350807  0.435192  0.111739
0.390423  0.459711  0.103103
0.439423  0.496310  0.093359
0.473547  0.521075  0.092357
0.514415  0.560162  0.093225
0.550917  0.583849  0.084773
0.585315  0.608494  0.080692
0.631393  0.632999  0.086567
0.669393  0.658397  0.086998
0.718857  0.676161  0.079602
0.770482  0.707198  0.075011
0.815732  0.733516  0.089361
0.876415  0.746218  0.072784
0.931717  0.768821  0.067398
0.988517  0.787756  0.068590
0.375015  0.484302  0.113647
0.427520  0.513679  0.089803
0.459835  0.529187  0.096515
0.502938  0.562101  0.091039
0.545816  0.586134  0.085834
0.578747  0.616575  0.082939
0.624351  0.641033  0.078261
0.661772  0.664548  0.083050
0.704262  0.700498  0.082732
0.747753  0.720911  0.091394
0.798504  0.745561  0.086276
0.848692  0.772774  0.076337
0.894740  0.789450  0.080109
0.959737  0.814707  0.075688
1.010604  0.836576  0.073813
0.405879  0.525770  0.106659
0.443195  0.546663  0.095084
0.493547  0.569068  0.090344
0.530224  0.591760  0.087350
0.565886  0.618246  0.075701
0.611987  0.644119  0.076637
0.649387  0.680437  0.088128
0.692120  0.708142  0.079215
0.739673  0.729117  0.082840
0.767457  0.751658  0.086746
0.826532  0.782813  0.083012
0.868337  0.808185  0.082569
0.922253  0.830193  0.086117
0.979043  0.848432  0.071964
1.032413  0.871087  0.078683
0.424419  0.579208  0.103170
0.475261  0.595813  0.088597
0.506022  0.617702  0.097748
0.565527  0.637448  0.080114
0.596925  0.659731  0.080681
0.641053  0.690074  0.081458
0.680360  0.709967  0.078530
0.725821  0.735261  0.083112
0.756981  0.764440  0.086894
0.798727  0.789607  0.083434
0.848216  0.819360  0.092749
0.889910  0.831257  0.082254
0.945070  0.862349  0.080840
0.995240  0.887647  0.076628
1.058839  0.906977  0.082301
0.055097  0.077386  0.068230
0.077141  0.089992  0.067087
0.101596  0.113838  0.069264
0.163478  0.133945  0.063348
0.225799  0.147751  0.054743
0.295718  0.160135  0.053909
0.360111  0.174765  0.047281
0.427268  0.179795  0.051785
0.500446  0.186775  0.049442
0.560475  0.191859  0.047659
0.632889  0.185679  0.034348
0.710343  0.194969  0.038516
0.775584  0.198017  0.039173
0.852417  0.203113  0.032831
0.922851  0.197943  0.035002
0.076672  0.102894  0.092007
0.086319  0.110028  0.096998
0.122020  0.134924  0.104110
0.173304  0.159898  0.096209
0.244251  0.185160  0.086558
0.308784  0.199668  0.076074
0.374136  0.210748  0.068873
0.432275  0.223786  0.061912
0.510874  0.235845  0.053810
0.565605  0.239646  0.057092
0.643574  0.249134  0.049082
0.713018  0.249384  0.044127
0.782956  0.264370  0.045481
0.858359  0.260362  0.034478
0.917928  0.264210  0.040982
0.084334  0.118951  0.125118
0.108471  0.139071  0.128419
0.134535  0.159314  0.127203
0.195291  0.189453  0.114702
0.245037  0.206692  0.109836
0.320259  0.227516  0.100113
0.385144  0.242847  0.087460
0.444334  0.264004  0.072704
0.514072  0.275997  0.083301
0.574829  0.287802  0.087380
0.647399  0.296203  0.068173
0.713551  0.299918  0.061214
0.787120  0.300306  0.058321
0.853819  0.314703  0.055672
0.918259  0.312776  0.045216
0.106597  0.152750  0.148375
0.131515  0.164868  0.147530
0.164204  0.184470  0.148897
0.217690  0.210225  0.141758
0.254791  0.229652  0.134903
0.334368  0.257495  0.122789
0.400333  0.284158  0.114188
0.451594  0.286949  0.108950
0.526966  0.306145  0.095050
0.584403  0.330597  0.099102
0.646530  0.329362  0.085341
0.713201  0.340460  0.085637
0.792333  0.349410  0.064445
0.858711  0.357957  0.064638
0.925095  0.365101  0.061119
0.133351  0.175321  0.170521
0.172454  0.198012  0.174393
0.207629  0.219364  0.164724
0.244423  0.235391  0.156325
0.297425  0.266898  0.143896
0.334699  0.284808  0.141893
0.409477  0.309089  0.130168
0.472463  0.330115  0.118115
0.533773  0.345057  0.113690
0.596693  0.358202  0.114995
0.663434  0.374727  0.107071
0.727687  0.385350  0.103914
0.804114  0.399895  0.098230
0.861487  0.410016  0.080733
0.938626  0.410765  0.080999
0.164001  0.196386  0.184931
0.201096  0.225723  0.174286
0.233473  0.253792  0.177034
0.276428  0.281288  0.169540
0.319500  0.307395  0.155351
0.362664  0.339604  0.155156
0.431766  0.350115  0.149171
0.490400  0.361205  0.139926
0.551283  0.379709  0.130847
0.615164  0.401635  0.132918
0.675639  0.415128  0.122119
0.738098  0.432589  0.126948
0.806151  0.436505  0.108996
0.881797  0.449491  0.101566
0.945886  0.459288  0.096632
0.202250  0.236346  0.186689
0.238177  0.263075  0.182494
0.278762  0.298981  0.177239
0.311150  0.321694  0.161536
0.352929  0.353095  0.153098
0.391500  0.382926  0.158710
0.450552  0.402636  0.146225
0.507574  0.414385  0.138620
0.556833  0.427777  0.132430
0.625396  0.446330  0.136019
0.687310  0.452604  0.143436
0.754660  0.462240  0.144006
0.831902  0.473254  0.133408
0.890396  0.487320  0.117412
0.950770  0.504337  0.102720
0.241188  0.281525  0.190614
0.269606  0.311093  0.186198
0.307297  0.331225  0.174822
0.349703  0.360507  0.164081
0.380726  0.397724  0.168203
0.413277  0.422920  0.161526
0.465856  0.454201  0.153391
0.525000  0.470719  0.138836
0.586935  0.479087  0.128642
0.643229  0.499088  0.133307
0.698226  0.507769  0.140024
0.756651  0.520349  0.141518
0.830239  0.529602  0.139488
0.909049  0.535722  0.128222
0.965110  0.549697  0.116297
0.262396  0.318979  0.187309
0.305082  0.351713  0.180546
0.335747  0.375123  0.172058
0.377133  0.406408  0.171229
0.410529  0.434359  0.175565
0.447647  0.462591  0.160075
0.496230  0.502007  0.151556
0.537506  0.529720  0.143353
0.590463  0.544064  0.132037
0.651047  0.555757  0.137710
0.715589  0.563778  0.138329
0.766564  0.583128  0.141298
0.840002  0.592886  0.141203
0.909362  0.595313  0.133362
0.975132  0.609322  0.126780
0.291965  0.358537  0.190538
0.336521  0.388679  0.181647
0.367592  0.416272  0.172612
0.401220  0.448257  0.181518
0.442622  0.469925  0.172498
0.475369  0.505677  0.161655
0.521871  0.536673  0.151365
0.563842  0.568353  0.146583
0.610102  0.599463  0.144874
0.668453  0.614398  0.139780
0.728215  0.629470  0.137842
0.785688  0.645578  0.145734
0.853386  0.649657  0.139120
0.904211  0.657408  0.141373
0.981956  0.658319  0.133344
0.317134  0.398308  0.188995
0.354592  0.427028  0.179790
0.400513  0.458879  0.174820
0.437937  0.482794  0.165963
0.473372  0.513816  0.165519
0.515165  0.540192  0.157842
0.545627  0.572328  0.161614
0.598985  0.597847  0.146100
0.635106  0.625013  0.139042
0.690352  0.656834  0.142808
0.742299  0.677139  0.145612
0.800337  0.695852  0.143713
0.845581  0.713915  0.142113
0.917397  0.721367  0.135379
1.000570  0.730465  0.134574
0.350848  0.442629  0.180933
0.385309  0.468399  0.180584
0.427652  0.496094  0.174134
0.469377  0.523894  0.169221
0.502830  0.551103  0.172215
0.548080  0.579792  0.167358
0.579911  0.605528  0.157660
0.620351  0.632794  0.147313
0.665926  0.665272  0.145073
0.720888  0.690417  0.136293
0.759048  0.712543  0.143871
0.815660  0.733925  0.144098
0.871328  0.760257  0.143611
0.932205  0.776842  0.147942
1.001850  0.787080  0.146707
0.373138  0.481870  0.175750
0.411962  0.509995  0.170915
0.455285  0.531797  0.164290
0.490919  0.558953  0.175378
0.530407  0.581373  0.167284
0.578437  0.615077  0.160836
0.609385  0.642503  0.155145
0.657674  0.671596  0.148007
0.699488  0.696616  0.148001
0.743796  0.723077  0.151289
0.793497  0.739328  0.144595
0.837165  0.768265  0.142684
0.897914  0.796006  0.135007
0.947812  0.809318  0.148967
1.007877  0.826595  0.133782
0.402222  0.520845  0.182600
0.441325  0.545412  0.164606
0.481853  0.565684  0.179462
0.522783  0.594523  0.157893
0.560999  0.626217  0.160143
0.608988  0.652793  0.156920
0.646532  0.669538  0.152393
0.693045  0.710066  0.153326
0.728599  0.726168  0.141882
0.774650  0.754735  0.138210
0.817138  0.780904  0.147822
0.869474  0.804583  0.142202
0.915546  0.826561  0.145056
0.975035  0.851980  0.142608
1.023530  0.877810  0.152010
0.411670  0.559306  0.175272
0.467149  0.591616  0.172173
0.512022  0.617416  0.164700
0.550642  0.635082  0.160131
0.594777  0.660828  0.157183
0.629993  0.684406  0.159672
0.673474  0.708152  0.145691
0.721642  0.734867  0.144298
0.752789  0.770600  0.145179
0.807404  0.797526  0.151728
0.846222  0.814720  0.148550
0.891403  0.835641  0.143468
0.936467  0.857469  0.142714
0.993431  0.887363  0.151491
1.046677  0.902747  0.144448
0.065681  0.101627  0.108976
0.079976  0.115971  0.121572
0.104963  0.139507  0.133825
0.159386  0.166883  0.123301
0.220473  0.177664  0.108732
0.292603  0.183919  0.097723
0.364173  0.192186  0.094281
0.431827  0.196881  0.086929
0.496682  0.202812  0.089806
0.563915  0.203932  0.095793
0.625978  0.205374  0.100702
0.702218  0.197655  0.106496
0.771689  0.201316  0.102285
0.845444  0.204091  0.086480
0.918264  0.204869  0.100384
0.083548  0.123054  0.130565
0.093025  0.142592  0.147877
0.124256  0.158700  0.145358
0.170569  0.181332  0.140737
0.230991  0.207563  0.137549
0.299639  0.215098  0.121350
0.368460  0.229728  0.113564
0.437954  0.249243  0.112981
0.501672  0.247908  0.110958
0.570964  0.257641  0.110023
0.638077  0.258530  0.109368
0.702348  0.262156  0.101662
0.775213  0.276908  0.106610
0.841271  0.266634  0.098383
0.920960  0.266663  0.090560
0.098284  0.143753  0.163139
0.126500  0.167301  0.176909
0.146702  0.186831  0.185355
0.189497  0.213962  0.180729
0.239980  0.229019  0.167291
0.309972  0.248103  0.151588
0.379838  0.263592  0.140812
0.437932  0.276329  0.132027
0.508270  0.287719  0.128171
0.577688  0.300428  0.119143
0.642954  0.311631  0.124794
0.710669  0.315171  0.109819
0.776545  0.317611  0.115297
0.840837  0.325985  0.113755
0.923387  0.334089  0.104866
0.116013  0.169962  0.190061
0.133917  0.185319  0.203958
0.158972  0.210922  0.209126
0.200848  0.233907  0.209574
0.263205  0.258358  0.200025
0.321764  0.284955  0.184763
0.400351  0.300886  0.172171
0.451276  0.311542  0.159937
0.518743  0.325533  0.151122
0.587603  0.344154  0.141815
0.642467  0.346564  0.135667
0.714973  0.361236  0.137389
0.790907  0.366446  0.134908
0.853753  0.377265  0.126363
0.919265  0.385994  0.131619
0.136630  0.203248  0.223649
0.163621  0.225653  0.236919
0.194982  0.237194  0.221228
0.228715  0.258837  0.229397
0.287452  0.281204  0.208088
0.341734  0.303669  0.203398
0.397411  0.324021  0.194599
0.468094  0.348912  0.182356
0.524892  0.358243  0.170991
0.601193  0.374614  0.151846
0.654502  0.387354  0.157539
0.722716  0.402123  0.157432
0.791993  0.410329  0.151111
0.859684  0.426227  0.152890
0.932863  0.436492  0.145585
0.162201  0.222039  0.244103
0.192464  0.240836  0.232200
0.227292  0.266855  0.238080
0.261544  0.287836  0.234333
0.309452  0.316479  0.231020
0.357518  0.339326  0.218502
0.427288  0.369049  0.201126
0.482889  0.376453  0.214038
0.548152  0.389405  0.194829
0.599208  0.407949  0.187394
0.680943  0.421205  0.179264
0.734447  0.444451  0.173869
0.802277  0.454713  0.162921
0.872741  0.465651  0.163688
0.931866  0.476266  0.160541
0.190410  0.248968  0.256629
0.227307  0.272073  0.246190
0.264834  0.304087  0.246586
0.303056  0.325597  0.242279
0.336478  0.352632  0.230750
0.393977  0.383858  0.221199
0.440343  0.410451  0.210517
0.498352  0.423990  0.217426
0.557583  0.440923  0.209538
0.617803  0.444822  0.201923
0.688014  0.468299  0.192039
0.755540  0.483110  0.192166
0.816664  0.487671  0.185004
0.873223  0.509663  0.184707
0.950478  0.517263  0.174638
0.221049  0.278825  0.270139
0.264817  0.313014  0.255538
0.303681  0.348607  0.250291
0.333977  0.364873  0.247925
0.372293  0.402850  0.236378
0.420973  0.430323  0.213996
0.465226  0.458196  0.223308
0.514108  0.476228  0.221191
0.568488  0.487569  0.219086
0.634132  0.501357  0.211837
0.699519  0.525857  0.193198
0.771290  0.515697  0.203495
0.830210  0.542643  0.201378
0.890136  0.548100  0.198440
0.953454  0.566398  0.190907
0.256444  0.315422  0.260606
0.291626  0.344130  0.262150
0.330572  0.380022  0.251276
0.359912  0.406180  0.243634
0.405687  0.435980  0.238174
0.446392  0.465880  0.225280
0.483818  0.497669  0.219898
0.523897  0.520803  0.225151
0.585198  0.538334  0.219829
0.655513  0.548550  0.212201
0.721098  0.570671  0.202265
0.783661  0.581195  0.211482
0.827659  0.587618  0.208965
0.904362  0.600118  0.212473
0.975868  0.603300  0.207971
0.280795  0.356152  0.267643
0.322326  0.386225  0.252567
0.367368  0.421041  0.254678
0.397929  0.442781  0.244452
0.440619  0.482595  0.232377
0.475915  0.512516  0.232041
0.515571  0.531647  0.237104
0.558551  0.567363  0.222437
0.605602  0.599747  0.216237
0.666467  0.619111  0.213394
0.728476  0.626552  0.210669
0.790616  0.643058  0.212026
0.838857  0.648074  0.202492
