LUT/LUT_27.CUBE
TITLE "LUT_27" 
#LUT size 
LUT_3D_SIZE 5 
#data point 
DOMAIN_MIN 0.000000 0.000000 0.000000
DOMAIN_MAX 0.857143 0.857143 0.857143
0.069120  0.070713  0.030719
0.124863  0.119482  0.063950
0.313662  0.235730  0.061841
0.463483  0.331694  0.067639
0.628241  0.407110  0.050273
0.117130  0.110033  0.059223
0.208257  0.179215  0.086283
0.374108  0.286030  0.069459
0.514965  0.373873  0.060072
0.675644  0.465039  0.054702
0.227089  0.195899  0.085472
0.344705  0.283541  0.094359
0.451398  0.346652  0.081114
0.618883  0.475898  0.075295
0.748818  0.538419  0.076725
0.367151  0.299269  0.108748
0.460089  0.366313  0.094838
0.580856  0.464420  0.078395
0.700610  0.582907  0.075920
0.824916  0.665035  0.079703
0.469153  0.378037  0.091288
0.584312  0.471179  0.075294
0.696670  0.572153  0.074644
0.784004  0.654402  0.081247
0.910337  0.742656  0.086090
0.117129  0.119217  0.073998
0.157037  0.164962  0.119041
0.317481  0.260746  0.095399
0.472943  0.341030  0.082190
0.616177  0.426328  0.070803
0.155697  0.176239  0.150324
0.202616  0.227456  0.189053
0.368924  0.318051  0.156318
0.538924  0.418595  0.110353
0.690892  0.498394  0.100531
0.220626  0.256350  0.246781
0.296310  0.312911  0.260516
0.427427  0.383469  0.210388
0.579384  0.457317  0.162501
0.738992  0.566898  0.163707
0.282942  0.325344  0.297227
0.413201  0.381815  0.265471
0.533603  0.464020  0.249092
0.673384  0.565366  0.199381
0.812265  0.653507  0.193450
0.409153  0.391976  0.284547
0.543667  0.472510  0.252530
0.654931  0.555308  0.245976
0.796617  0.651731  0.195492
0.924896  0.744605  0.192255
0.161732  0.191417  0.174814
0.188871  0.232145  0.222304
0.294999  0.305905  0.245474
0.493622  0.386029  0.163520
0.650035  0.472620  0.137255
0.205890  0.262224  0.260390
0.256518  0.310716  0.306743
0.354610  0.378730  0.328985
0.508075  0.452688  0.270354
0.699278  0.551735  0.221863
0.257352  0.326986  0.339269
0.300334  0.390585  0.418068
0.395119  0.433314  0.407238
0.568217  0.528654  0.388989
0.742054  0.612482  0.321198
0.315505  0.401361  0.423638
0.380324  0.461091  0.468434
0.492011  0.520213  0.463868
0.633941  0.602641  0.471963
0.824209  0.690279  0.403895
0.355190  0.465776  0.495278
0.483945  0.534211  0.495051
0.593318  0.592622  0.493787
0.743671  0.684329  0.483569
0.904352  0.770369  0.456071
0.204345  0.268793  0.271154
0.254385  0.326019  0.340739
0.330190  0.371930  0.343714
0.470035  0.440697  0.309555
0.665340  0.526845  0.258914
0.264923  0.346332  0.368659
0.310040  0.399090  0.424021
0.358143  0.445280  0.457549
0.499229  0.511468  0.448854
0.697257  0.602524  0.376606
0.316430  0.412803  0.435174
0.367110  0.472364  0.502879
0.405250  0.521382  0.555159
0.550156  0.587406  0.544893
0.726352  0.674205  0.501455
0.370957  0.483796  0.520226
0.411748  0.534153  0.579808
0.483580  0.608237  0.638648
0.636823  0.680016  0.628428
0.775684  0.742348  0.613134
0.424996  0.546301  0.577199
0.480534  0.606555  0.644677
0.553029  0.677490  0.703787
0.707023  0.741812  0.690759
0.856557  0.811222  0.676374
0.280356  0.368070  0.391509
0.315676  0.414357  0.440129
0.364083  0.471624  0.506527
0.466568  0.512863  0.474630
0.634840  0.575943  0.407843
0.323741  0.420572  0.447995
0.376845  0.473522  0.510862
0.437234  0.552791  0.588661
0.514016  0.582974  0.568737
0.672089  0.665437  0.556589
0.374846  0.488184  0.520630
0.435048  0.559388  0.596062
0.494426  0.620693  0.655505
0.561634  0.677492  0.698313
0.747217  0.738445  0.649103
0.424921  0.546356  0.585106
0.498421  0.632094  0.660811
0.548535  0.677099  0.709828
0.630649  0.759764  0.800854
0.760897  0.803665  0.765284
0.490936  0.621601  0.660915
0.555173  0.685123  0.723158
0.624614  0.757413  0.811230
0.698530  0.818396  0.862136
0.832758  0.892711  0.900368
