LUT/LUT_36.CUBE
TITLE "LUT_36" 
#LUT size 
LUT_3D_SIZE 8 
DOMAIN_MIN 0.0 0.0 0.0 
DOMAIN_MAX 1.0 1.0 1.0 
#data point 
0.074258  0.072850  0.037229
0.103004  0.097819  0.051098
0.172636  0.153668  0.077273
0.310329  0.238318  0.068999
0.410470  0.304716  0.067801
0.502908  0.374746  0.074697
0.613583  0.424811  0.062321
0.719691  0.493991  0.064392
0.118111  0.108889  0.053357
0.124823  0.115810  0.059774
0.226059  0.194162  0.092261
0.350882  0.275736  0.088604
0.464787  0.334732  0.089538
0.535003  0.398172  0.081138
0.640921  0.465195  0.075711
0.744221  0.526669  0.059738
0.142686  0.136856  0.084422
0.199954  0.190415  0.103021
0.289630  0.249142  0.091902
0.393394  0.317821  0.089438
0.488208  0.366143  0.073132
0.593920  0.450624  0.086037
0.685492  0.509650  0.072225
0.803248  0.576399  0.071666
0.217802  0.193318  0.089001
0.306163  0.261294  0.105359
0.374191  0.297827  0.097648
0.451286  0.341228  0.088233
0.544832  0.421904  0.084296
0.643819  0.488401  0.079485
0.739972  0.553316  0.086069
0.856254  0.616372  0.073816
0.302447  0.262003  0.121404
0.380515  0.296663  0.090970
0.473055  0.363377  0.089805
0.529241  0.403788  0.087295
0.615534  0.483070  0.081662
0.693275  0.557139  0.083600
0.801119  0.614966  0.088445
0.907976  0.693426  0.084541
0.384433  0.305707  0.118225
0.469204  0.369240  0.091229
0.554661  0.434619  0.096261
0.612585  0.481015  0.099248
0.703976  0.577337  0.081084
0.778717  0.643747  0.086322
0.859136  0.706923  0.079846
0.955034  0.752502  0.099776
0.470264  0.364550  0.097588
0.526897  0.419110  0.101959
0.627721  0.492999  0.087928
0.697483  0.566010  0.084104
0.763571  0.620374  0.090983
0.831960  0.669328  0.085164
0.911551  0.735175  0.083846
1.018653  0.785973  0.090711
0.542330  0.432805  0.096988
0.625776  0.506231  0.104024
0.690778  0.557515  0.086323
0.747624  0.603975  0.089511
0.809146  0.655148  0.086986
0.880988  0.707294  0.102548
0.969717  0.768996  0.097899
1.078352  0.831523  0.091292
0.108361  0.102104  0.052093
0.116774  0.111231  0.060011
0.182734  0.169321  0.084465
0.281357  0.228851  0.091115
0.408504  0.313709  0.079056
0.507722  0.377788  0.075144
0.604512  0.446072  0.071380
0.730055  0.490151  0.068379
0.136072  0.126554  0.068451
0.162889  0.155261  0.088376
0.221727  0.198042  0.109767
0.312529  0.267532  0.114135
0.435767  0.342712  0.095680
0.551379  0.404655  0.085411
0.665231  0.485116  0.073273
0.747680  0.526127  0.069845
0.157299  0.163981  0.119329
0.194577  0.202696  0.146715
0.278105  0.259730  0.158360
0.386497  0.323387  0.126708
0.490346  0.384748  0.121271
0.593706  0.444081  0.106621
0.685366  0.507747  0.091953
0.798953  0.596551  0.090577
0.205385  0.226851  0.191765
0.260827  0.266602  0.194224
0.337295  0.300998  0.164108
0.442514  0.367671  0.154827
0.529296  0.404048  0.134212
0.632943  0.494903  0.134807
0.748824  0.560203  0.130293
0.842333  0.636027  0.094945
0.288828  0.280612  0.197786
0.335004  0.302365  0.183510
0.427281  0.373939  0.192589
0.530720  0.443365  0.176751
0.617836  0.492773  0.114391
0.714635  0.575350  0.104490
0.794102  0.622258  0.123639
0.907753  0.693168  0.122408
0.365075  0.329337  0.195208
0.435797  0.378571  0.196713
0.504092  0.417651  0.161837
0.578596  0.475960  0.154618
0.684714  0.564859  0.112634
0.764151  0.627322  0.114472
0.868136  0.699881  0.126988
0.982536  0.758903  0.135856
0.428815  0.376351  0.208148
0.524534  0.429753  0.177008
0.593726  0.485935  0.184252
0.681183  0.557396  0.125770
0.753914  0.615478  0.125153
0.836680  0.685721  0.121881
0.916756  0.747585  0.115705
0.990017  0.777606  0.119612
0.506119  0.423788  0.217226
0.598526  0.493031  0.163016
0.678053  0.550746  0.167190
0.760878  0.619158  0.134650
0.822538  0.673743  0.124440
0.895830  0.730010  0.122172
0.971134  0.769258  0.126966
1.068860  0.825986  0.139157
0.142609  0.152278  0.101096
0.153115  0.163281  0.128222
0.186649  0.191954  0.144541
0.308689  0.260546  0.125400
0.428095  0.330113  0.093121
0.520699  0.389253  0.098020
0.625485  0.460805  0.088721
0.701473  0.512282  0.086897
0.168203  0.180996  0.144417
0.190329  0.219482  0.185381
0.224798  0.252556  0.221302
0.338661  0.303414  0.178598
0.469518  0.376364  0.147087
0.535405  0.417245  0.142155
0.655310  0.486038  0.101456
0.767218  0.563242  0.104643
0.212571  0.243451  0.225638
0.230868  0.268986  0.251261
0.246903  0.273837  0.248959
0.365425  0.359179  0.255761
0.479028  0.421905  0.226169
0.582146  0.465533  0.156043
0.694128  0.540596  0.142056
0.800977  0.607148  0.143004
0.225080  0.275482  0.266604
0.263751  0.323333  0.316478
0.315660  0.353433  0.323781
0.410727  0.397895  0.307874
0.523613  0.451884  0.259021
0.625563  0.506189  0.213585
0.753613  0.588828  0.201428
0.832906  0.640178  0.199334
0.256533  0.317584  0.313501
0.322233  0.372768  0.347360
0.393059  0.399640  0.332502
0.475895  0.457141  0.335794
0.570373  0.492473  0.302815
0.700699  0.576646  0.285597
0.825064  0.654710  0.227176
0.916914  0.706262  0.231709
0.309046  0.358227  0.350989
0.388800  0.417163  0.377212
0.475124  0.449808  0.330454
0.553358  0.508348  0.326558
0.660583  0.570946  0.329630
0.764418  0.637301  0.279347
0.855718  0.699862  0.256800
0.960951  0.759759  0.255089
0.351852  0.399374  0.369851
0.455000  0.448633  0.359731
0.560838  0.506334  0.340117
0.635445  0.555474  0.342668
0.743356  0.617176  0.315850
0.809856  0.670427  0.295208
0.909854  0.733137  0.259629
1.012747  0.799265  0.240051
0.435369  0.453486  0.382332
0.548333  0.507998  0.350207
0.631133  0.553486  0.330362
0.723590  0.608195  0.319182
0.795115  0.661377  0.304271
0.914252  0.741234  0.273013
0.963794  0.773422  0.271070
1.085694  0.839097  0.252427
0.167231  0.189842  0.164777
0.180144  0.213450  0.202143
0.233747  0.255896  0.221488
0.274904  0.295284  0.247452
0.444790  0.366867  0.172383
0.537095  0.424565  0.143983
0.645896  0.480915  0.135545
0.730447  0.547777  0.138776
0.192236  0.229251  0.209829
0.219168  0.265680  0.250283
0.264731  0.300123  0.278785
0.325202  0.351284  0.296935
0.460074  0.405384  0.225499
0.550546  0.450990  0.194617
0.678453  0.525737  0.183064
0.772702  0.596668  0.178831
0.230271  0.281231  0.267762
0.262606  0.319587  0.316291
0.286536  0.353257  0.350663
0.384604  0.408200  0.371568
0.457421  0.458560  0.366317
0.582115  0.505635  0.271438
0.709489  0.577799  0.258540
0.821629  0.648617  0.244170
0.269235  0.332986  0.328606
0.291423  0.364891  0.370262
0.317339  0.400089  0.414744
0.394346  0.441903  0.410750
0.493226  0.497538  0.412719
0.629535  0.560906  0.345976
0.732994  0.620940  0.319941
0.854757  0.673966  0.295613
0.313173  0.394336  0.407368
0.346506  0.434398  0.448725
0.368498  0.453647  0.458417
0.471119  0.503315  0.457474
0.557981  0.563847  0.481264
0.642552  0.593760  0.431074
0.776918  0.667945  0.392501
0.907376  0.747232  0.361114
0.338095  0.429269  0.448680
0.363102  0.458180  0.474266
0.438573  0.491730  0.459568
0.508680  0.547045  0.496939
0.594652  0.592966  0.491240
0.710225  0.661530  0.487543
0.860508  0.737676  0.438218
0.933459  0.779293  0.435119
0.365328  0.468352  0.493245
0.430649  0.511618  0.504361
0.513576  0.538130  0.468624
0.576695  0.586067  0.504193
0.687505  0.648519  0.493799
0.798704  0.708785  0.473931
0.904656  0.764999  0.464463
0.987304  0.819508  0.494103
0.401292  0.507507  0.525666
0.484972  0.524745  0.492805
0.557647  0.583785  0.521857
0.663132  0.639907  0.491136
0.790451  0.706848  0.491015
0.864394  0.748868  0.465250
0.967576  0.802056  0.491033
1.051503  0.850882  0.489992
0.191844  0.232715  0.213943
0.231959  0.280131  0.277397
0.252470  0.302353  0.295993
0.299798  0.338109  0.314808
0.407464  0.400598  0.298981
0.538410  0.460719  0.245413
0.654788  0.528798  0.202188
0.756747  0.570420  0.174278
0.242791  0.292425  0.281972
0.252640  0.314926  0.321407
0.293470  0.356115  0.362395
0.343277  0.406583  0.399486
0.422159  0.440387  0.381974
0.551347  0.498494  0.324574
0.670471  0.550488  0.275583
0.784319  0.616126  0.249779
0.266079  0.338865  0.349137
0.300671  0.376484  0.386805
0.323957  0.406652  0.422234
0.381892  0.454178  0.455670
0.462613  0.497697  0.456770
0.560004  0.545338  0.432313
0.709763  0.611086  0.373749
0.817831  0.659516  0.327826
0.296737  0.383376  0.394298
0.335235  0.427434  0.438566
0.359074  0.459542  0.485719
0.380876  0.493849  0.527033
0.501484  0.546110  0.494892
0.601965  0.599764  0.502950
0.733163  0.666307  0.456036
0.852551  0.711099  0.394767
0.339410  0.427785  0.449601
0.361759  0.469557  0.501620
0.404004  0.509283  0.541651
0.451990  0.563875  0.584940
0.526328  0.596698  0.574506
0.636445  0.659672  0.577809
0.774345  0.713050  0.524830
0.913219  0.778604  0.484171
0.370432  0.475852  0.498515
0.402717  0.508343  0.534487
0.440890  0.554657  0.587977
0.485184  0.598626  0.618907
0.573556  0.622519  0.590843
0.701869  0.713977  0.639885
0.814007  0.755302  0.605098
0.941066  0.810202  0.554622
0.412304  0.521655  0.556147
0.446902  0.561528  0.579844
0.482232  0.603891  0.634217
0.557781  0.629028  0.618990
0.674293  0.689718  0.609242
0.778436  0.753229  0.636981
0.886669  0.807263  0.622955
0.994425  0.843557  0.601025
0.452199  0.571001  0.602750
0.485243  0.607660  0.639255
0.536800  0.631199  0.627051
0.645898  0.685552  0.632309
0.728714  0.730066  0.636301
0.847357  0.782021  0.625213
0.942235  0.839642  0.642520
1.042001  0.872294  0.610249
0.251667  0.310214  0.305945
0.266540  0.327374  0.335671
0.290031  0.362881  0.379872
0.323919  0.396196  0.396534
0.420362  0.438312  0.383394
0.509135  0.489880  0.368846
0.636682  0.535062  0.298430
0.757979  0.605377  0.269420
0.274729  0.349827  0.365188
0.306779  0.392071  0.409080
0.318362  0.408086  0.431879
0.367665  0.450084  0.464295
0.443536  0.503433  0.489051
0.548803  0.555246  0.472692
0.668163  0.602090  0.406631
0.794045  0.658782  0.363255
0.309534  0.399374  0.415971
0.341836  0.431215  0.441215
0.384486  0.481444  0.503355
0.407696  0.505895  0.530351
0.463444  0.538465  0.531642
0.576937  0.606588  0.548211
0.677461  0.629286  0.478328
0.829002  0.714287  0.456525
0.329011  0.435966  0.467753
0.377797  0.471814  0.487260
0.417119  0.526166  0.558555
0.426987  0.550728  0.583330
0.488918  0.599361  0.620200
0.610156  0.648836  0.600700
0.729039  0.696862  0.541417
0.836860  0.759747  0.566711
0.383857  0.492444  0.529342
0.421397  0.533149  0.562072
0.448918  0.572866  0.612925
0.482111  0.602466  0.636685
0.531993  0.652879  0.682220
0.650999  0.704151  0.657954
0.741027  0.735105  0.630651
0.904130  0.809041  0.603019
0.410510  0.521946  0.565044
0.452474  0.570334  0.604631
0.482984  0.609695  0.647907
0.515125  0.642032  0.676092
0.576351  0.696455  0.739711
0.689895  0.750477  0.722145
0.817872  0.803575  0.703390
0.934737  0.845507  0.677275
0.455369  0.573920  0.611321
0.492690  0.617278  0.655048
0.544960  0.665848  0.694822
0.567120  0.691792  0.719057
0.629107  0.744362  0.771233
0.732263  0.789246  0.770663
0.867958  0.834758  0.747715
0.974752  0.869147  0.711006
0.491882  0.616222  0.643424
0.519733  0.639176  0.672215
0.567130  0.696207  0.733300
0.600764  0.722333  0.746842
0.699162  0.787753  0.797422
0.809676  0.815253  0.753063
0.909833  0.857394  0.747436
1.028566  0.909993  0.742045
0.291327  0.374245  0.389699
0.310192  0.393704  0.408573
0.345973  0.437650  0.460899
0.366579  0.476203  0.503743
0.421197  0.488178  0.475686
0.511457  0.534360  0.476864
0.618577  0.570082  0.419994
0.765021  0.647427  0.381616
0.323041  0.414103  0.431480
0.341574  0.446330  0.479902
0.360126  0.467189  0.499604
0.404285  0.518843  0.558149
0.444796  0.551334  0.580279
0.548796  0.581020  0.524455
0.651215  0.638267  0.529453
0.797143  0.703215  0.477160
0.352328  0.451081  0.480462
0.379049  0.482859  0.515116
0.413821  0.525317  0.552712
0.449633  0.563915  0.596201
0.493110  0.601895  0.630130
0.589636  0.651057  0.615838
0.690236  0.699836  0.616835
0.807109  0.749117  0.573708
0.379549  0.489119  0.518644
0.402938  0.515530  0.547551
0.462504  0.582845  0.620881
0.492105  0.614391  0.650949
0.536472  0.666445  0.702233
0.591616  0.692517  0.698414
0.750848  0.748042  0.649241
0.866056  0.794203  0.644685
0.418506  0.534788  0.563926
0.469055  0.588063  0.612825
0.496043  0.616259  0.647870
0.538203  0.673147  0.701174
0.594890  0.723597  0.768269
0.634530  0.737924  0.761692
0.756506  0.781093  0.722488
0.894999  0.842252  0.707960
0.454594  0.572703  0.611887
0.495064  0.625367  0.658260
0.536466  0.664980  0.702443
0.599889  0.729963  0.769337
0.635079  0.763920  0.805456
0.686522  0.806915  0.846729
0.791109  0.835951  0.811200
0.925875  0.875380  0.759902
0.497270  0.624363  0.655814
0.536788  0.657421  0.686343
0.574134  0.699031  0.735863
0.633331  0.757247  0.806424
0.681260  0.797779  0.835808
0.740957  0.841873  0.889495
0.832911  0.891118  0.897594
0.964741  0.903974  0.795762
0.527690  0.658578  0.693035
0.577785  0.701743  0.731298
0.608916  0.735718  0.787501
0.685252  0.798217  0.846922
0.731029  0.836882  0.877093
0.801419  0.882381  0.909984
0.874921  0.922621  0.933576
0.998790  0.942587  0.859783
0.322355  0.422695  0.447181
0.339141  0.443006  0.474453
0.390215  0.496240  0.528561
0.410024  0.533568  0.571678
0.461292  0.579072  0.612720
0.510292  0.588698  0.580781
0.634085  0.646239  0.558920
0.781438  0.701062  0.495692
0.353830  0.455602  0.485403
0.376121  0.491334  0.527213
0.430232  0.551402  0.584850
0.463372  0.589357  0.621163
0.503279  0.626947  0.653192
0.545091  0.661808  0.680553
0.638764  0.681185  0.636856
0.788999  0.736427  0.583018
0.376034  0.494766  0.534789
0.417641  0.534644  0.570703
0.458650  0.588386  0.622045
0.513410  0.641274  0.673455
0.549358  0.678111  0.712010
0.595737  0.724945  0.752103
0.698502  0.747395  0.704704
0.827989  0.789274  0.669385
0.429728  0.542492  0.574253
0.453759  0.580789  0.615679
0.506723  0.632628  0.664050
0.567141  0.689619  0.719683
0.582326  0.714382  0.765262
0.628743  0.762866  0.805927
0.693324  0.792769  0.819681
0.855354  0.826394  0.744595
0.451997  0.573098  0.607852
0.501587  0.626293  0.657456
0.540191  0.670085  0.704016
0.589947  0.711350  0.762936
0.631752  0.760142  0.797048
0.683936  0.800877  0.849041
0.760711  0.863216  0.899300
0.862588  0.882054  0.840091
0.487102  0.608296  0.643699
0.527443  0.647712  0.687482
0.583611  0.709981  0.743428
0.626003  0.758292  0.806722
0.656909  0.780893  0.833102
0.742817  0.850771  0.888308
0.803133  0.887588  0.926607
0.879894  0.930551  0.933124
0.530045  0.661654  0.694633
0.578026  0.704654  0.748743
0.609713  0.741105  0.787468
0.648873  0.774939  0.820378
0.710115  0.824143  0.871786
0.785793  0.875422  0.911964
0.848965  0.920376  0.947592
0.906875  0.954935  0.968730
0.567623  0.697546  0.732297
0.590137  0.725764  0.776835
0.646023  0.773190  0.818375
0.707002  0.823260  0.865243
0.763324  0.863347  0.902672
0.836074  0.909613  0.938200
0.886521  0.940800  0.959398
0.943559  0.967915  0.983220
