LUT/LUT_15.CUBE
TITLE "LUT_15" 
#LUT size 
LUT_3D_SIZE 8 
DOMAIN_MIN 0.0 0.0 0.0 
DOMAIN_MAX 1.0 1.0 1.0 
#data point 
0.046996  0.047316  0.021495
0.099308  0.088946  0.039546
0.204338  0.163787  0.056241
0.328851  0.225233  0.045107
0.437995  0.275157  0.043543
0.554423  0.310875  0.034607
0.677612  0.359420  0.037335
0.813796  0.384024  0.032223
0.097972  0.090566  0.044668
0.131798  0.119888  0.057217
0.250267  0.196398  0.058624
0.366196  0.263247  0.059296
0.474510  0.311880  0.060012
0.585693  0.347999  0.045550
0.716601  0.403609  0.047993
0.835705  0.438870  0.050803
0.146642  0.131005  0.068058
0.221458  0.189313  0.085584
0.306399  0.243296  0.068588
0.405019  0.298684  0.066749
0.526576  0.349690  0.064842
0.620017  0.406263  0.058939
0.749825  0.451891  0.053752
0.875631  0.491901  0.054306
0.228634  0.197053  0.082815
0.306807  0.255054  0.080669
0.376672  0.310721  0.067079
0.460574  0.367060  0.069213
0.558159  0.416268  0.062525
0.664290  0.479808  0.053002
0.778654  0.514579  0.048378
0.913015  0.545364  0.056775
0.305766  0.258327  0.101176
0.379541  0.320923  0.068361
0.462362  0.395714  0.077864
0.524798  0.447396  0.067335
0.612475  0.508762  0.071158
0.705426  0.569110  0.067176
0.818507  0.601180  0.063937
0.942519  0.648506  0.058596
0.380388  0.329221  0.087445
0.454199  0.399972  0.071263
0.537111  0.460777  0.071651
0.600124  0.518852  0.084603
0.690850  0.593906  0.064645
0.767608  0.655348  0.065726
0.860534  0.700380  0.070164
0.965195  0.738458  0.078215
0.447829  0.400361  0.073436
0.524275  0.457858  0.068883
0.599184  0.533382  0.067153
0.663052  0.588447  0.063059
0.751431  0.643264  0.073350
0.821571  0.702056  0.063318
0.911363  0.760625  0.074150
1.018898  0.810919  0.075866
0.524451  0.471689  0.074158
0.590732  0.532150  0.070109
0.662797  0.596276  0.073896
0.729175  0.642450  0.072669
0.797297  0.694462  0.063639
0.884408  0.735459  0.077610
0.969453  0.794053  0.074961
1.075159  0.851066  0.080260
0.086342  0.086942  0.041257
0.115875  0.114462  0.059296
0.196637  0.170612  0.075551
0.315006  0.229757  0.056737
0.453613  0.281765  0.052504
0.551352  0.318870  0.040528
0.670791  0.359720  0.042739
0.811127  0.394094  0.034068
0.112290  0.123761  0.091995
0.152658  0.157161  0.105398
0.237174  0.207815  0.113089
0.356143  0.277714  0.085117
0.476999  0.326402  0.077321
0.582413  0.374520  0.058752
0.722259  0.410227  0.053591
0.829039  0.447846  0.049938
0.144464  0.175303  0.154779
0.204979  0.213877  0.160901
0.290617  0.260526  0.136419
0.396699  0.313507  0.134216
0.509950  0.375324  0.111603
0.621716  0.422275  0.106901
0.742135  0.469828  0.082475
0.874863  0.513928  0.063598
0.208124  0.226787  0.188610
0.283439  0.269368  0.189653
0.361795  0.323364  0.167064
0.458272  0.379892  0.150325
0.540681  0.419127  0.128043
0.663722  0.490653  0.134841
0.783907  0.523924  0.119684
0.904016  0.569347  0.091600
0.275481  0.279354  0.203334
0.356179  0.327132  0.180604
0.431801  0.387994  0.188096
0.526505  0.460058  0.163791
0.625089  0.514151  0.122711
0.717721  0.566026  0.128269
0.821019  0.605172  0.137115
0.946331  0.649733  0.124159
0.361230  0.338521  0.194101
0.432367  0.397651  0.197136
0.509731  0.454185  0.164475
0.576678  0.521769  0.158909
0.681807  0.588828  0.118839
0.761340  0.640668  0.135858
0.851482  0.710805  0.129493
0.986604  0.749683  0.130535
0.438046  0.399529  0.195876
0.508920  0.459161  0.169194
0.575644  0.515317  0.175896
0.656469  0.579479  0.143865
0.744277  0.647121  0.136894
0.818159  0.701021  0.142402
0.913192  0.761754  0.131395
1.006638  0.808937  0.127170
0.490393  0.461197  0.198252
0.580094  0.536541  0.170922
0.661222  0.587097  0.148726
0.725629  0.645148  0.138573
0.800613  0.702220  0.146658
0.891998  0.757605  0.135049
0.966634  0.805209  0.145912
1.068150  0.860765  0.136188
0.115392  0.141220  0.121325
0.143134  0.163859  0.139777
0.195277  0.198702  0.147173
0.326313  0.267307  0.119584
0.451471  0.307663  0.094168
0.560094  0.356194  0.093087
0.681422  0.388510  0.074653
0.800251  0.425034  0.069556
0.149341  0.184740  0.170935
0.168751  0.218550  0.211650
0.233003  0.260743  0.223339
0.345455  0.302030  0.177091
0.484919  0.360620  0.141554
0.574369  0.398820  0.142336
0.696013  0.444824  0.121254
0.827693  0.487614  0.108189
0.186956  0.239957  0.243282
0.209490  0.264662  0.271100
0.247554  0.284284  0.254036
0.385551  0.362933  0.252536
0.504059  0.410003  0.217902
0.620808  0.447734  0.176727
0.746574  0.513897  0.169330
0.866914  0.540264  0.159622
0.205328  0.274396  0.292142
0.255353  0.320586  0.322202
0.320273  0.349668  0.307676
0.416783  0.407279  0.307537
0.538644  0.455466  0.264444
0.648059  0.502751  0.233285
0.771663  0.561692  0.219643
0.879332  0.594692  0.204884
0.248634  0.316886  0.328011
0.330419  0.367615  0.333756
0.413545  0.412026  0.330691
0.494950  0.467806  0.325086
0.590325  0.517846  0.300937
0.696513  0.575874  0.287473
0.819243  0.631036  0.251789
0.949580  0.664831  0.251401
0.318067  0.375980  0.360164
0.405493  0.413796  0.349409
0.482551  0.470091  0.337382
0.564161  0.520911  0.316003
0.663834  0.607344  0.317289
0.759101  0.652941  0.282477
0.861061  0.706430  0.264895
0.978809  0.753614  0.278343
0.376538  0.402848  0.364474
0.466306  0.466415  0.345314
0.558295  0.529640  0.333535
0.626258  0.582102  0.327308
0.722246  0.650914  0.318505
0.814054  0.705491  0.304216
0.916673  0.760555  0.262498
1.013131  0.817082  0.261018
0.456190  0.461001  0.363388
0.553690  0.529754  0.337471
0.631825  0.593185  0.320805
0.709728  0.638570  0.316985
0.777030  0.693069  0.308097
0.889128  0.756629  0.294921
0.966331  0.805498  0.293072
1.065268  0.863950  0.271391
0.147163  0.186316  0.183156
0.165675  0.214853  0.213857
0.215684  0.256329  0.238933
0.306997  0.304617  0.234941
0.451792  0.355217  0.175887
0.560627  0.391331  0.158841
0.683143  0.426793  0.147055
0.793651  0.461531  0.151713
0.172493  0.219271  0.226698
0.198021  0.263988  0.274970
0.250544  0.307000  0.308552
0.340203  0.348159  0.297770
0.474519  0.400468  0.241003
0.583593  0.439116  0.227810
0.695762  0.474000  0.197751
0.826882  0.526709  0.196589
0.212726  0.280471  0.289657
0.244185  0.317758  0.330484
0.279992  0.356777  0.375270
0.387291  0.406217  0.360544
0.471105  0.453168  0.351360
0.613943  0.493988  0.284935
0.737389  0.552484  0.269712
0.865138  0.591975  0.273200
0.246190  0.323509  0.352035
0.278668  0.369662  0.391137
0.302423  0.399481  0.432798
0.400302  0.439903  0.403395
0.514177  0.502285  0.389353
0.650620  0.551068  0.343386
0.764103  0.598621  0.332903
0.891260  0.639058  0.314643
0.285443  0.382271  0.411198
0.321540  0.423176  0.449430
0.373354  0.453852  0.460027
0.474940  0.500505  0.450960
0.559189  0.560136  0.470112
0.675754  0.598679  0.415225
0.793283  0.658457  0.392396
0.924134  0.716968  0.372401
0.314358  0.422157  0.461599
0.360944  0.452089  0.469163
0.462358  0.499121  0.462107
0.532988  0.548279  0.479496
0.618960  0.606103  0.469817
0.724794  0.675001  0.469439
0.859379  0.726955  0.435141
0.954794  0.765360  0.424358
0.350113  0.459378  0.498361
0.432273  0.500747  0.499769
0.521639  0.540767  0.480838
0.608850  0.600510  0.479421
0.700593  0.664342  0.474422
0.795376  0.714545  0.448654
0.897444  0.777651  0.459185
1.010944  0.825626  0.463419
0.397685  0.499597  0.523030
0.499125  0.536760  0.487242
0.587760  0.596481  0.486143
0.669063  0.648913  0.483344
0.799987  0.717941  0.454515
0.862312  0.762829  0.450237
0.962892  0.819235  0.474288
1.060444  0.867931  0.462085
0.167899  0.231288  0.249063
0.207233  0.274279  0.289601
0.233321  0.308044  0.325404
0.327431  0.347266  0.311851
0.429099  0.399026  0.295720
0.568684  0.438381  0.249168
0.699729  0.490095  0.236314
0.814420  0.498446  0.206645
0.209483  0.283911  0.306728
0.232223  0.318720  0.343585
0.267158  0.346378  0.373524
0.348011  0.401776  0.390047
0.440127  0.451585  0.378019
0.569541  0.488659  0.326958
0.694046  0.526929  0.288290
0.825284  0.564576  0.276777
0.246049  0.340762  0.372966
0.274532  0.368536  0.399888
0.303241  0.405803  0.440319
0.373897  0.455234  0.460110
0.477734  0.501789  0.443209
0.589510  0.544409  0.413259
0.727991  0.591503  0.361992
0.854379  0.630009  0.341700
0.281104  0.374722  0.413243
0.317317  0.418431  0.445469
0.349510  0.458472  0.495947
0.386425  0.494252  0.518313
0.514864  0.545784  0.502177
0.619739  0.595518  0.489390
0.762012  0.644700  0.441452
0.879802  0.691820  0.409534
0.323171  0.422430  0.460630
0.354160  0.472047  0.514566
0.394053  0.515323  0.548695
0.442607  0.559406  0.584395
0.558011  0.601770  0.559329
0.659911  0.653562  0.556149
0.792672  0.701311  0.499901
0.921539  0.758000  0.479580
0.356558  0.469815  0.511555
0.386630  0.507131  0.544482
0.436525  0.558311  0.598950
0.488882  0.598996  0.624994
0.599953  0.638736  0.594114
0.714832  0.710151  0.610073
0.826002  0.761160  0.587998
0.946702  0.799526  0.541926
0.387722  0.511696  0.555411
0.423701  0.552977  0.591547
0.475964  0.599924  0.628868
0.569053  0.636210  0.618308
0.687017  0.692297  0.598939
0.774369  0.746197  0.617252
0.884554  0.800003  0.601563
1.000584  0.849838  0.580169
0.432973  0.562570  0.605929
0.469061  0.597265  0.636397
0.544910  0.631883  0.632211
0.651854  0.682590  0.620626
0.751119  0.736003  0.621430
0.845981  0.779876  0.612117
0.953774  0.837187  0.611213
1.049477  0.886132  0.598633
0.212676  0.300985  0.337537
0.235144  0.324988  0.361195
0.270097  0.365756  0.406001
0.330070  0.397993  0.403732
0.441051  0.440202  0.368882
0.537772  0.485943  0.359296
0.676279  0.509892  0.314895
0.818571  0.545288  0.302898
0.244412  0.339052  0.386156
0.277401  0.377843  0.423422
0.312261  0.416845  0.452052
0.350985  0.451484  0.473300
0.461981  0.495879  0.452281
0.566797  0.542422  0.441888
0.695659  0.590127  0.408920
0.838563  0.619656  0.369597
0.286960  0.391429  0.426594
0.321301  0.429510  0.471894
0.357952  0.472241  0.509204
0.393870  0.505825  0.532228
0.472917  0.535793  0.524702
0.603673  0.604146  0.522593
0.717077  0.642581  0.479871
0.846295  0.683858  0.443783
0.319795  0.433381  0.475690
0.359805  0.477723  0.515068
0.398204  0.523975  0.565611
0.431000  0.553970  0.585382
0.489248  0.597622  0.615453
0.622650  0.639713  0.563726
0.740016  0.689363  0.535904
0.870481  0.753718  0.544860
0.359668  0.478295  0.528737
0.396820  0.524012  0.567513
0.439552  0.562809  0.603492
0.469099  0.597579  0.636167
0.537601  0.652428  0.678207
0.645962  0.687187  0.640473
0.771902  0.739928  0.617464
0.918099  0.802887  0.593142
0.392049  0.515494  0.569071
0.428745  0.561457  0.605549
0.476250  0.604009  0.644322
0.520634  0.651144  0.690409
0.573208  0.697054  0.733728
0.697456  0.746829  0.715762
0.821959  0.795248  0.690220
0.948232  0.839355  0.660063
0.438317  0.568023  0.617889
0.482120  0.614143  0.652847
0.527317  0.662749  0.704352
0.556701  0.688895  0.725799
0.634858  0.740127  0.757993
0.741017  0.781846  0.743887
0.873694  0.833290  0.726879
0.967226  0.871840  0.709402
0.470002  0.616678  0.655712
0.505338  0.648347  0.695584
0.549120  0.697526  0.747960
0.605388  0.731644  0.760813
0.704311  0.785592  0.778398
0.835864  0.823591  0.742508
0.920961  0.868509  0.741415
1.031943  0.907968  0.729863
0.235436  0.350482  0.409274
0.275514  0.390558  0.447471
0.310398  0.431141  0.475910
0.346443  0.468287  0.514481
0.421908  0.490000  0.481248
0.533552  0.533197  0.454777
0.668970  0.563728  0.413709
0.803527  0.594194  0.391378
0.284575  0.402523  0.462802
0.315790  0.433535  0.490032
0.350300  0.474258  0.517890
0.390843  0.519456  0.570736
0.432917  0.543906  0.567882
0.568550  0.586299  0.515174
0.681185  0.628306  0.498763
0.814797  0.670592  0.465148
0.324767  0.444294  0.489365
0.360666  0.478446  0.533749
0.399613  0.521657  0.562272
0.439934  0.567278  0.607404
0.483303  0.609356  0.638512
0.597875  0.640173  0.599057
0.708711  0.689130  0.586645
0.837483  0.730863  0.560301
0.352347  0.484263  0.531944
0.391462  0.517330  0.559070
0.444574  0.570292  0.620079
0.488050  0.625278  0.667024
0.538992  0.672264  0.702451
0.613472  0.694837  0.684412
0.748038  0.746454  0.644136
0.876424  0.789571  0.625761
0.387235  0.526253  0.570109
0.439468  0.576469  0.620520
0.477276  0.614649  0.653159
0.522608  0.674721  0.722421
0.565221  0.713626  0.770232
0.636958  0.740146  0.752596
0.782796  0.782578  0.704943
0.906498  0.834828  0.700013
0.434087  0.574175  0.623487
0.475485  0.619365  0.657562
0.527542  0.667031  0.714927
0.568737  0.709272  0.774573
0.607602  0.746491  0.812419
0.673158  0.796198  0.840389
0.799039  0.832554  0.801307
0.934687  0.875769  0.753313
0.475332  0.620460  0.670785
0.512901  0.654997  0.706285
0.552105  0.698709  0.767004
0.606708  0.752370  0.824836
0.651912  0.791915  0.846132
0.729209  0.842228  0.884403
0.827229  0.884810  0.890714
0.975158  0.912398  0.804865
0.508024  0.655807  0.712726
0.544152  0.695790  0.759906
0.583878  0.733478  0.807882
0.643683  0.782364  0.853057
0.702555  0.819602  0.870584
0.782684  0.879491  0.914032
0.886144  0.921016  0.919985
1.010085  0.953089  0.870066
0.248710  0.405982  0.492666
0.295964  0.444614  0.516479
0.349858  0.490652  0.547417
0.378850  0.523207  0.581160
0.429894  0.569626  0.617517
0.516339  0.594562  0.581445
0.668108  0.630331  0.527781
0.813238  0.660284  0.491920
0.293246  0.453989  0.528669
0.354275  0.489639  0.549298
0.400206  0.535537  0.590336
0.431612  0.581974  0.627547
0.475680  0.623802  0.669482
0.542707  0.657867  0.671805
0.666680  0.686690  0.613156
0.813930  0.722365  0.569252
0.348630  0.491686  0.555223
0.397928  0.537551  0.589029
0.442346  0.582070  0.635834
0.486506  0.632734  0.682815
0.519568  0.673574  0.738180
0.586031  0.718913  0.763503
0.698702  0.734847  0.687045
0.846577  0.790321  0.651737
0.388720  0.533838  0.583664
0.431107  0.576467  0.630536
0.481089  0.627242  0.675728
0.525302  0.679054  0.740295
0.556497  0.709465  0.781666
0.613255  0.754814  0.812382
0.703164  0.799371  0.811388
0.856769  0.825977  0.722882
0.421825  0.568496  0.625521
0.478199  0.614682  0.658402
0.510701  0.667058  0.719820
0.554927  0.706656  0.770275
0.598264  0.745208  0.812164
0.660240  0.784940  0.850868
0.746417  0.847855  0.890722
0.881460  0.881980  0.825678
0.456627  0.605525  0.660992
0.504754  0.654542  0.706099
0.550221  0.702577  0.765026
0.590887  0.742106  0.809762
0.641121  0.779701  0.843104
0.719603  0.831049  0.880271
0.795795  0.887934  0.924124
0.883784  0.920874  0.923745
0.499112  0.659992  0.718008
0.538876  0.700038  0.774043
0.579149  0.735395  0.811856
0.633372  0.773601  0.837298
0.693040  0.817479  0.864419
0.770628  0.867058  0.911658
0.845847  0.918001  0.944225
0.931401  0.962261  0.976483
0.517661  0.688212  0.760739
0.562664  0.721928  0.801067
0.611527  0.762972  0.835235
0.691616  0.810432  0.872666
0.742640  0.852583  0.897147
0.826580  0.909093  0.935871
0.901126  0.949953  0.967709
0.973643  0.983825  1.002401
