LUT/LUT_17.CUBE
TITLE "LUT_17" 
#LUT size 
LUT_3D_SIZE 8 
DOMAIN_MIN 0.0 0.0 0.0 
DOMAIN_MAX 1.0 1.0 1.0 
#data point 
0.051331  0.052407  0.027584
0.096828  0.090249  0.045738
0.198691  0.166350  0.064085
0.321977  0.233159  0.047891
0.433764  0.281763  0.048821
0.543421  0.323397  0.038954
0.666748  0.373277  0.043307
0.800171  0.405702  0.039798
0.102668  0.096505  0.045654
0.133767  0.119430  0.059504
0.246019  0.197689  0.063916
0.366809  0.265837  0.062813
0.471300  0.318410  0.058719
0.573231  0.361028  0.050229
0.699553  0.413101  0.049165
0.823176  0.454677  0.053238
0.143841  0.133957  0.068162
0.223684  0.188417  0.083819
0.305119  0.238672  0.072868
0.404624  0.297343  0.071715
0.522235  0.356177  0.061571
0.615024  0.415813  0.060744
0.738821  0.457719  0.059198
0.870573  0.502000  0.054635
0.227530  0.198479  0.083194
0.305730  0.251238  0.090546
0.378323  0.306774  0.069560
0.458771  0.361518  0.071608
0.557060  0.419574  0.062264
0.665432  0.486785  0.058048
0.770987  0.521482  0.051775
0.908060  0.558734  0.064867
0.302679  0.249968  0.106462
0.378690  0.312730  0.068791
0.461624  0.387064  0.080438
0.526540  0.444156  0.069641
0.610284  0.510309  0.073026
0.698461  0.567119  0.069733
0.822057  0.605891  0.068414
0.937785  0.653695  0.062166
0.378767  0.327237  0.091657
0.457391  0.394744  0.077699
0.543965  0.454958  0.078709
0.605440  0.509754  0.084258
0.693549  0.590065  0.066534
0.769891  0.653112  0.065405
0.860787  0.701794  0.078086
0.959576  0.736943  0.076437
0.452222  0.392498  0.079093
0.527089  0.451114  0.069159
0.603027  0.524589  0.072876
0.672325  0.587593  0.067469
0.755779  0.642022  0.071824
0.824918  0.695098  0.067446
0.911099  0.756506  0.078561
1.022396  0.808537  0.078352
0.531202  0.463820  0.076471
0.596558  0.523904  0.070606
0.671844  0.588695  0.072251
0.733640  0.634460  0.077804
0.804671  0.690201  0.067558
0.887648  0.732169  0.085010
0.972753  0.789176  0.083420
1.074955  0.848079  0.082113
0.086425  0.085610  0.040954
0.114583  0.107506  0.060908
0.197365  0.167222  0.078953
0.315600  0.234748  0.057497
0.444095  0.291561  0.052835
0.541020  0.331078  0.044810
0.657684  0.378971  0.042926
0.796592  0.407534  0.039117
0.116028  0.128493  0.084613
0.155495  0.153308  0.101969
0.230821  0.208560  0.113652
0.352901  0.277332  0.083854
0.469989  0.332569  0.073812
0.575987  0.381528  0.057131
0.707106  0.427752  0.058253
0.816577  0.461879  0.047914
0.145216  0.173025  0.154357
0.202009  0.211575  0.156623
0.290429  0.259625  0.137072
0.395290  0.315545  0.131763
0.505722  0.376113  0.113706
0.617674  0.429655  0.105510
0.732305  0.475373  0.080848
0.862630  0.524289  0.062954
0.209935  0.224664  0.185620
0.280544  0.274236  0.185804
0.358976  0.320253  0.172394
0.456324  0.377474  0.154191
0.542450  0.420025  0.132111
0.660298  0.495292  0.131759
0.774410  0.527531  0.123411
0.897700  0.579531  0.087703
0.276486  0.275499  0.203786
0.354393  0.322885  0.184580
0.432553  0.381819  0.190663
0.525385  0.454303  0.164595
0.629571  0.510297  0.125303
0.713389  0.565951  0.124814
0.817391  0.612336  0.132698
0.940857  0.658819  0.116059
0.362278  0.333706  0.199122
0.432719  0.394519  0.201290
0.514518  0.450806  0.162570
0.582968  0.519309  0.157491
0.682056  0.586238  0.116151
0.761814  0.637090  0.132646
0.853536  0.709115  0.127219
0.984737  0.752776  0.129093
0.437664  0.395711  0.193254
0.512811  0.448213  0.170132
0.581268  0.508371  0.173713
0.664835  0.571674  0.138649
0.750670  0.645753  0.135839
0.812899  0.698415  0.139111
0.916956  0.760222  0.128217
1.007079  0.802871  0.125508
0.495308  0.453765  0.201335
0.580855  0.530582  0.171441
0.671579  0.577767  0.145046
0.736290  0.640405  0.138601
0.801221  0.693240  0.145605
0.896419  0.757237  0.131325
0.964391  0.802880  0.147958
1.070280  0.857142  0.136868
0.123470  0.142421  0.115281
0.142779  0.160431  0.134716
0.191786  0.198695  0.146937
0.324647  0.267777  0.119726
0.447104  0.307412  0.092178
0.550101  0.362467  0.085094
0.671200  0.401103  0.073934
0.788384  0.436992  0.069275
0.150960  0.180045  0.169971
0.175225  0.218475  0.207310
0.231370  0.255235  0.220693
0.347584  0.306876  0.178761
0.482149  0.364808  0.139494
0.568747  0.405550  0.135525
0.690857  0.452880  0.120081
0.818816  0.495922  0.108481
0.188563  0.243416  0.239400
0.212321  0.271861  0.273230
0.248797  0.283123  0.256854
0.382167  0.360056  0.253973
0.507646  0.410119  0.220356
0.617296  0.453505  0.172408
0.739679  0.518692  0.165147
0.853652  0.551604  0.154148
0.206138  0.274854  0.287358
0.255689  0.319733  0.323328
0.321509  0.348170  0.307807
0.418113  0.404214  0.312685
0.533632  0.454534  0.266772
0.645276  0.504914  0.228144
0.764200  0.566690  0.219582
0.874434  0.603658  0.199119
0.252549  0.320216  0.329002
0.333800  0.367981  0.332564
0.410316  0.409056  0.327572
0.494492  0.465063  0.327578
0.583716  0.513132  0.304388
0.697111  0.577128  0.290187
0.818708  0.638794  0.249786
0.945159  0.669533  0.254473
0.317184  0.371530  0.360403
0.400322  0.410491  0.354415
0.479739  0.464799  0.335732
0.564345  0.518391  0.318021
0.665297  0.602558  0.317993
0.760082  0.652068  0.284302
0.862519  0.708825  0.263273
0.976390  0.753552  0.270705
0.377603  0.401688  0.362997
0.466681  0.466108  0.346542
0.561263  0.526350  0.334926
0.627063  0.575776  0.329310
0.731404  0.647366  0.322354
0.812775  0.697510  0.305529
0.914707  0.757607  0.263452
1.018622  0.811754  0.255115
0.453577  0.455130  0.366512
0.561061  0.524062  0.348596
0.634309  0.587995  0.329205
0.713742  0.636054  0.316748
0.779276  0.685624  0.309814
0.891183  0.749776  0.286998
0.965135  0.799147  0.288465
1.065852  0.857717  0.266964
0.152196  0.192671  0.176398
0.171758  0.215225  0.211513
0.214335  0.253799  0.240456
0.304490  0.303325  0.235662
0.448307  0.358872  0.173700
0.556561  0.397558  0.155667
0.673305  0.440719  0.150951
0.785914  0.479680  0.146842
0.174430  0.220462  0.223152
0.201979  0.269480  0.269632
0.255443  0.309569  0.308078
0.336042  0.352891  0.299469
0.469305  0.406210  0.235263
0.577634  0.446320  0.226687
0.693454  0.484200  0.189423
0.816413  0.538925  0.197183
0.217598  0.282608  0.282752
0.244820  0.315082  0.332754
0.284846  0.361751  0.370846
0.390536  0.409961  0.357213
0.469419  0.451972  0.353272
0.612158  0.500629  0.282073
0.731064  0.562199  0.270056
0.852231  0.599870  0.271864
0.244211  0.326656  0.351863
0.283930  0.372568  0.388463
0.299734  0.400542  0.426261
0.402659  0.441772  0.407313
0.513155  0.497914  0.393076
0.649631  0.553198  0.345005
0.755894  0.603987  0.331042
0.888411  0.646847  0.316169
0.289278  0.378629  0.408965
0.328159  0.424102  0.448237
0.370848  0.453550  0.457364
0.475332  0.508464  0.447574
0.555734  0.555684  0.475596
0.669398  0.598294  0.416891
0.794910  0.659261  0.394971
0.916306  0.725159  0.371290
0.320455  0.422736  0.457624
0.359725  0.453581  0.468080
0.460488  0.493625  0.460645
0.533504  0.546002  0.479261
0.614829  0.602446  0.472810
0.726727  0.673530  0.476970
0.854538  0.728443  0.437533
0.952011  0.768178  0.419726
0.348780  0.461375  0.498137
0.429383  0.506483  0.494924
0.525062  0.539112  0.480506
0.610481  0.596918  0.484831
0.698034  0.659259  0.476123
0.797988  0.710281  0.451149
0.894923  0.775225  0.456310
1.013596  0.824427  0.465930
0.397856  0.503129  0.522864
0.497894  0.530427  0.493914
0.588263  0.591663  0.495376
0.669241  0.644496  0.487314
0.797158  0.717607  0.456652
0.860839  0.756016  0.456164
0.965481  0.816063  0.476159
1.063609  0.862729  0.463638
0.173101  0.229448  0.244287
0.207687  0.274205  0.291673
0.236974  0.302751  0.324190
0.321959  0.351739  0.307912
0.424773  0.399598  0.300272
0.560619  0.444726  0.244664
0.692905  0.497889  0.237210
0.806868  0.509742  0.200702
0.212983  0.282905  0.301036
0.237168  0.316645  0.341628
0.264808  0.350058  0.370323
0.342908  0.408243  0.393928
0.439304  0.446460  0.377587
0.563746  0.490138  0.331896
0.688438  0.534710  0.282953
0.815937  0.575705  0.273467
0.247697  0.338642  0.363725
0.277425  0.367444  0.397356
0.302868  0.408159  0.439888
0.378711  0.458049  0.461572
0.476023  0.499596  0.445531
0.584991  0.540714  0.411808
0.721798  0.595703  0.363602
0.842547  0.634470  0.338496
0.282940  0.376892  0.405539
0.318435  0.419635  0.443670
0.344957  0.459120  0.494188
0.386084  0.490189  0.522044
0.512095  0.547678  0.500226
0.621131  0.598062  0.491598
0.756709  0.644485  0.437989
0.875678  0.696203  0.406889
0.325346  0.425576  0.455926
0.352630  0.474586  0.512356
0.393613  0.511831  0.544966
0.448096  0.559267  0.583677
0.553351  0.602664  0.564748
0.660788  0.655460  0.560858
0.790177  0.703537  0.501668
0.914773  0.764479  0.476582
0.356937  0.475456  0.512928
0.390094  0.504636  0.542755
0.436914  0.558185  0.595196
0.484583  0.601907  0.624077
0.596952  0.641486  0.587163
0.710592  0.707542  0.613122
0.825661  0.762572  0.594208
0.950427  0.804251  0.545125
0.391873  0.514585  0.552451
0.427972  0.554137  0.593794
0.475141  0.600275  0.627502
0.568328  0.638937  0.618496
0.688464  0.691524  0.596601
0.774758  0.746433  0.619835
0.885961  0.800598  0.603022
1.001681  0.847021  0.581261
0.439586  0.564284  0.607358
0.471528  0.601728  0.637016
0.542681  0.629923  0.636930
0.648604  0.676905  0.623848
0.751818  0.734202  0.622879
0.843370  0.773979  0.616244
0.953012  0.837681  0.612346
1.053807  0.880839  0.599665
0.218431  0.298700  0.326997
0.237044  0.326686  0.350260
0.274304  0.367049  0.403082
0.320414  0.393620  0.399848
0.439253  0.442223  0.374862
0.532386  0.484243  0.361694
0.667534  0.516948  0.314357
0.809017  0.563603  0.296554
0.248803  0.342491  0.376134
0.280075  0.379503  0.417454
0.313850  0.416925  0.450878
0.354853  0.446477  0.473148
0.462868  0.493780  0.458777
0.564633  0.544859  0.449228
0.689079  0.600548  0.407454
0.831477  0.629520  0.363364
0.292031  0.392260  0.429755
0.322790  0.428800  0.468620
0.363691  0.477333  0.513775
0.399481  0.510064  0.534388
0.471642  0.541698  0.527896
0.603449  0.607182  0.523450
0.713618  0.643744  0.478994
0.846225  0.689963  0.447548
0.324518  0.433679  0.475413
0.358457  0.476453  0.512506
0.403469  0.524114  0.562420
0.431124  0.550876  0.589541
0.489500  0.598347  0.617299
0.619568  0.640413  0.567752
0.739276  0.690382  0.537417
0.869635  0.759944  0.548949
0.363559  0.483565  0.523300
0.398529  0.523311  0.566170
0.440978  0.560462  0.599648
0.467023  0.598143  0.639071
0.531158  0.657233  0.678595
0.644642  0.690449  0.642125
0.768096  0.739664  0.618986
0.918706  0.804687  0.600672
0.392976  0.515593  0.564733
0.429664  0.559275  0.603897
0.477675  0.607367  0.645307
0.519923  0.647216  0.683217
0.574033  0.703774  0.736899
0.695950  0.750466  0.716705
0.819073  0.797744  0.694046
0.946292  0.840844  0.659752
0.442899  0.574204  0.610591
0.484281  0.611145  0.652537
0.535076  0.665410  0.701934
0.560456  0.692701  0.724016
0.638628  0.741116  0.755097
0.742744  0.787849  0.748872
0.871552  0.833457  0.726960
0.975761  0.874618  0.706439
0.484538  0.608846  0.652720
0.506111  0.647517  0.692003
0.555124  0.692134  0.744533
0.611363  0.729232  0.759168
0.702198  0.782421  0.777490
0.834333  0.823136  0.741749
0.921655  0.863907  0.745640
1.030089  0.910362  0.732146
0.251636  0.355786  0.398487
0.281527  0.396538  0.436434
0.316138  0.427058  0.474802
0.346130  0.468617  0.512739
0.421498  0.490267  0.484731
0.532021  0.529952  0.462218
0.660392  0.572406  0.414967
0.795966  0.611558  0.389055
0.292674  0.407855  0.457081
0.318526  0.434964  0.486341
0.356439  0.475751  0.511457
0.392575  0.522696  0.565195
0.438612  0.546127  0.568670
0.563243  0.589445  0.516585
0.676749  0.638486  0.498636
0.812416  0.678379  0.459945
0.331703  0.443953  0.488259
0.365528  0.483215  0.529266
0.402919  0.523773  0.562294
0.437356  0.566475  0.606151
0.484190  0.607139  0.639922
0.596698  0.640944  0.601282
0.705863  0.695315  0.586940
0.832331  0.736989  0.560870
0.361133  0.482083  0.532357
0.389129  0.518801  0.558350
0.446068  0.571939  0.615406
0.492345  0.625509  0.665202
0.540548  0.666780  0.698854
0.608901  0.691218  0.683538
0.751715  0.746190  0.645500
0.869063  0.791366  0.628302
0.395266  0.521645  0.567344
0.445265  0.576580  0.620073
0.481762  0.608789  0.649717
0.524713  0.672581  0.722184
0.569806  0.715102  0.771164
0.638322  0.740206  0.754791
0.782004  0.780166  0.698258
0.903057  0.835038  0.701318
0.436645  0.571292  0.622665
0.485540  0.616768  0.653231
0.534264  0.665053  0.712937
0.578990  0.714831  0.774719
0.603472  0.748127  0.809760
0.675122  0.799551  0.845844
0.796584  0.833246  0.804224
0.935799  0.871825  0.753021
0.481196  0.620622  0.662487
0.518630  0.655618  0.698343
0.553151  0.701033  0.759571
0.613641  0.752116  0.821155
0.660369  0.793204  0.839309
0.727527  0.844212  0.885882
0.831752  0.884014  0.893668
0.972372  0.914177  0.812042
0.517394  0.656424  0.705972
0.549522  0.698024  0.755940
0.589141  0.735345  0.802805
0.649279  0.780423  0.853399
0.706756  0.826295  0.873220
0.784385  0.878655  0.911434
0.884779  0.919026  0.925548
1.006667  0.950236  0.867194
0.281352  0.409598  0.474266
0.310480  0.445318  0.502709
0.358438  0.488108  0.542485
0.390798  0.523447  0.575484
0.439933  0.573907  0.615732
0.517642  0.592103  0.582793
0.656671  0.634952  0.529777
0.807941  0.675026  0.492128
0.319088  0.452722  0.510890
0.358047  0.492480  0.543499
0.400777  0.539713  0.585606
0.442460  0.579559  0.623963
0.486939  0.624172  0.660781
0.546241  0.656762  0.676400
0.660314  0.691262  0.620513
0.805335  0.730977  0.567262
0.357956  0.490623  0.545501
0.404631  0.538397  0.582890
0.449015  0.582895  0.629035
0.492843  0.635884  0.673901
0.525232  0.675143  0.739976
0.590287  0.719300  0.763890
0.700522  0.735539  0.691932
0.841803  0.791945  0.656929
0.400960  0.533840  0.581412
0.436325  0.574828  0.631366
0.489295  0.630092  0.669030
0.534081  0.681254  0.735757
0.559377  0.718641  0.781002
0.615346  0.753135  0.807547
0.702567  0.798741  0.813537
0.853591  0.826831  0.724802
0.432482  0.571766  0.616750
0.482737  0.617774  0.657918
0.517332  0.668370  0.712563
0.557029  0.710038  0.772285
0.600332  0.748554  0.814257
0.662170  0.787208  0.844895
0.746640  0.852891  0.898615
0.879670  0.878878  0.828536
0.462863  0.605271  0.652541
0.513795  0.651535  0.698375
0.554842  0.705740  0.764316
0.593297  0.746509  0.805152
0.646287  0.779440  0.841164
0.719279  0.835031  0.879708
0.796395  0.884256  0.923941
0.882114  0.924782  0.924501
0.513251  0.657751  0.712511
0.545835  0.701293  0.772094
0.585538  0.736378  0.807663
0.635786  0.771133  0.832789
0.693222  0.817605  0.869955
0.769746  0.870519  0.911785
0.842180  0.915877  0.945710
0.931610  0.958591  0.977563
0.532097  0.693423  0.752978
0.566255  0.726951  0.800299
0.616515  0.762682  0.834827
0.688579  0.810285  0.865265
0.745829  0.855475  0.896518
0.833057  0.906391  0.940614
0.903179  0.946470  0.961752
0.970638  0.985255  1.001151
