LUT/LUT_22.CUBE
TITLE "LUT_22" 
#LUT size 
LUT_3D_SIZE 5 
#data point 
DOMAIN_MIN 0.000000 0.000000 0.000000
DOMAIN_MAX 0.857143 0.857143 0.857143
0.063137  0.059424  0.029230
0.128214  0.122770  0.065405
0.315757  0.235166  0.057541
0.470124  0.320610  0.055058
0.643696  0.390348  0.047229
0.116293  0.106303  0.059686
0.210591  0.179967  0.085131
0.376259  0.283048  0.065269
0.522739  0.369974  0.061709
0.693745  0.448179  0.047912
0.222755  0.193517  0.085764
0.349069  0.280693  0.098570
0.454831  0.350585  0.076433
0.620126  0.478944  0.069375
0.758204  0.529636  0.062885
0.366254  0.302365  0.100972
0.459699  0.376424  0.086121
0.572776  0.471988  0.076453
0.693078  0.572965  0.068402
0.825540  0.662774  0.082521
0.462719  0.384544  0.081495
0.568575  0.477438  0.064001
0.689465  0.578429  0.074480
0.781979  0.661219  0.081198
0.903252  0.746510  0.083249
0.119808  0.116761  0.073840
0.156062  0.164077  0.117001
0.331809  0.257970  0.092740
0.482758  0.337920  0.072976
0.629402  0.410889  0.055860
0.145505  0.175710  0.155947
0.203910  0.222546  0.190793
0.372697  0.318610  0.159805
0.545569  0.418548  0.119028
0.710511  0.491288  0.101987
0.212304  0.260961  0.246404
0.296882  0.305604  0.258694
0.440035  0.391056  0.213218
0.586976  0.459741  0.173096
0.747490  0.554700  0.171718
0.288850  0.322476  0.295690
0.414090  0.386113  0.262306
0.542460  0.470334  0.247002
0.677858  0.564733  0.200094
0.812773  0.657470  0.186560
0.408146  0.397757  0.281856
0.538998  0.473944  0.250163
0.652736  0.568494  0.247731
0.793707  0.664819  0.198407
0.925337  0.755319  0.191093
0.159317  0.192117  0.179922
0.186329  0.229499  0.224109
0.291319  0.303162  0.237810
0.498238  0.384054  0.163912
0.659837  0.459986  0.142198
0.206242  0.259761  0.256163
0.251267  0.305723  0.302573
0.356619  0.368626  0.336344
0.516430  0.445755  0.277583
0.708265  0.546130  0.228159
0.249910  0.324499  0.346056
0.301912  0.393275  0.417482
0.391918  0.441401  0.406266
0.573252  0.527677  0.384158
0.744931  0.613898  0.327578
0.311801  0.399633  0.420814
0.376158  0.457552  0.467927
0.497424  0.522806  0.466157
0.636521  0.603511  0.468825
0.822525  0.691704  0.405192
0.363469  0.466983  0.501693
0.492581  0.527036  0.493633
0.604531  0.593480  0.488690
0.746453  0.688476  0.472807
0.900219  0.771229  0.458529
0.201418  0.265362  0.276749
0.247634  0.319679  0.339663
0.329485  0.371611  0.349003
0.476168  0.439389  0.314010
0.670813  0.517057  0.262559
0.257335  0.348453  0.371176
0.300642  0.397415  0.426186
0.361486  0.448242  0.457758
0.508171  0.514542  0.445443
0.699555  0.595673  0.377682
0.313516  0.409546  0.443609
0.356387  0.471504  0.507828
0.401038  0.521632  0.552556
0.552271  0.588927  0.533063
0.729988  0.673454  0.497019
0.365081  0.483096  0.527648
0.411293  0.538372  0.579868
0.480104  0.604546  0.636996
0.638818  0.682289  0.633356
0.778036  0.740443  0.603875
0.421173  0.542363  0.577002
0.472556  0.607419  0.642334
0.552769  0.674760  0.704694
0.714536  0.746387  0.693676
0.861306  0.811557  0.675267
0.267954  0.360633  0.391994
0.310639  0.411750  0.440574
0.357722  0.468996  0.500620
0.469889  0.509715  0.471544
0.644606  0.579815  0.408737
0.314377  0.417786  0.456563
0.368775  0.482205  0.518913
0.427434  0.546960  0.587210
0.517894  0.587599  0.569966
0.681884  0.666896  0.549561
0.372679  0.489455  0.529153
0.429746  0.559335  0.598769
0.497068  0.621070  0.657480
0.562336  0.681510  0.700764
0.753245  0.742794  0.653317
0.423703  0.545954  0.584784
0.496758  0.629757  0.660779
0.542697  0.678788  0.719499
0.631597  0.758909  0.800604
0.767200  0.805077  0.761253
0.486188  0.619867  0.662506
0.548158  0.679561  0.725279
0.622814  0.757720  0.809629
0.696070  0.813806  0.867268
0.834363  0.891373  0.894817
