LUT/LUT_20.CUBE
TITLE "LUT_20" 
#LUT size 
LUT_3D_SIZE 5 
#data point 
DOMAIN_MIN 0.000000 0.000000 0.000000
DOMAIN_MAX 0.857143 0.857143 0.857143
0.056395  0.058741  0.026773
0.134055  0.122409  0.063213
0.319674  0.237171  0.052949
0.475410  0.316101  0.048253
0.653664  0.386256  0.046177
0.117339  0.113833  0.056683
0.217982  0.184902  0.081766
0.378729  0.284523  0.068366
0.531086  0.364774  0.054153
0.700585  0.443050  0.047579
0.223631  0.198269  0.085547
0.346591  0.282241  0.095617
0.452242  0.355524  0.075562
0.622932  0.470207  0.066542
0.760860  0.529288  0.059971
0.363450  0.302565  0.098174
0.459728  0.377515  0.081831
0.572191  0.471591  0.075006
0.692083  0.573786  0.074339
0.826147  0.662064  0.079844
0.460133  0.384681  0.082950
0.566209  0.482510  0.063397
0.683501  0.582559  0.071423
0.782767  0.662664  0.073279
0.911048  0.750958  0.083765
0.113761  0.119887  0.072484
0.155433  0.163627  0.116337
0.338093  0.256009  0.086796
0.485506  0.337718  0.070504
0.643338  0.400850  0.060588
0.148149  0.174126  0.157084
0.202470  0.226184  0.194658
0.376475  0.315367  0.165597
0.552118  0.414691  0.115387
0.715588  0.484310  0.111033
0.216077  0.257554  0.244815
0.297812  0.306170  0.255761
0.443485  0.390041  0.213394
0.588339  0.458993  0.175937
0.752318  0.555968  0.170762
0.285194  0.325784  0.295610
0.420441  0.387825  0.258622
0.545217  0.470632  0.251698
0.675777  0.570910  0.195578
0.817080  0.656377  0.189322
0.409283  0.396680  0.280555
0.536145  0.484437  0.249109
0.651666  0.573755  0.242029
0.787694  0.671699  0.198697
0.920724  0.752802  0.189846
0.156846  0.190867  0.179931
0.187169  0.230659  0.220373
0.301026  0.301080  0.234941
0.499101  0.379525  0.167358
0.659153  0.452928  0.147814
0.204050  0.258805  0.259856
0.248224  0.307541  0.304290
0.351758  0.375062  0.335818
0.515716  0.449300  0.278416
0.712774  0.540534  0.229699
0.247691  0.323908  0.348250
0.298999  0.391582  0.420239
0.403877  0.437981  0.408061
0.574246  0.528744  0.381157
0.748458  0.609539  0.329449
0.309051  0.401770  0.418819
0.374817  0.459911  0.471137
0.499240  0.521591  0.463056
0.638448  0.604335  0.470493
0.820292  0.689426  0.407069
0.360074  0.464087  0.502965
0.487598  0.530680  0.489173
0.604149  0.596363  0.490886
0.750447  0.693417  0.468860
0.898439  0.771506  0.453375
0.196990  0.262507  0.284108
0.246209  0.318568  0.339896
0.327233  0.373879  0.347778
0.481074  0.440262  0.310864
0.676663  0.512005  0.261938
0.254538  0.346183  0.372919
0.300898  0.397874  0.423574
0.360315  0.449105  0.460088
0.509314  0.516247  0.439819
0.701410  0.594580  0.378785
0.310443  0.414215  0.444820
0.358925  0.469303  0.504918
0.400255  0.516612  0.551517
0.557382  0.593129  0.534709
0.729920  0.678924  0.494683
0.365186  0.482974  0.526915
0.414891  0.536767  0.579111
0.476512  0.605070  0.636111
0.640997  0.684897  0.631333
0.780513  0.740938  0.602516
0.419913  0.543318  0.577442
0.475722  0.605130  0.640757
0.552965  0.673068  0.705113
0.718565  0.744800  0.689706
0.864600  0.812268  0.677174
0.261292  0.362959  0.388663
0.306767  0.408632  0.443624
0.352863  0.466043  0.506978
0.477499  0.511912  0.471401
0.647427  0.583446  0.412799
0.307650  0.418453  0.461688
0.368422  0.476880  0.522383
0.424106  0.550588  0.588128
0.515747  0.587453  0.569445
0.683244  0.668041  0.546929
0.369786  0.493299  0.530242
0.430531  0.559286  0.595845
0.492885  0.623339  0.659031
0.559633  0.676513  0.702396
0.749601  0.746626  0.650385
0.421033  0.544899  0.588544
0.493461  0.625838  0.664252
0.540089  0.680363  0.723198
0.626088  0.755403  0.802466
0.766069  0.803869  0.759965
0.488605  0.621197  0.664129
0.542443  0.682169  0.730883
0.616117  0.756707  0.811402
0.697156  0.812549  0.867889
0.830765  0.893157  0.892553
