LUT/LUT_24.CUBE
TITLE "LUT_24" 
#LUT size 
LUT_3D_SIZE 5 
#data point 
DOMAIN_MIN 0.000000 0.000000 0.000000
DOMAIN_MAX 0.857143 0.857143 0.857143
0.066087  0.063660  0.029421
0.125350  0.117276  0.068368
0.315600  0.235278  0.058523
0.465743  0.327228  0.060921
0.640548  0.394496  0.048834
0.111094  0.110207  0.055665
0.209101  0.177069  0.083060
0.377870  0.286080  0.068473
0.521582  0.372880  0.062299
0.687277  0.454237  0.052955
0.226888  0.190078  0.085774
0.349149  0.281197  0.096838
0.454309  0.351310  0.077802
0.620632  0.477850  0.072725
0.753110  0.534349  0.069815
0.367399  0.306462  0.103575
0.463279  0.369409  0.090594
0.579103  0.472266  0.077615
0.695110  0.574447  0.073266
0.820858  0.662214  0.085138
0.466989  0.380930  0.084317
0.574115  0.471187  0.066959
0.693464  0.574993  0.072524
0.785951  0.656730  0.077439
0.906015  0.742431  0.083417
0.118221  0.118739  0.074408
0.153907  0.162946  0.118426
0.325167  0.258771  0.093466
0.477613  0.339057  0.075605
0.622491  0.416549  0.066261
0.148329  0.177048  0.154704
0.203645  0.226358  0.194250
0.371620  0.322194  0.159045
0.544067  0.414091  0.115679
0.698854  0.497948  0.102330
0.211989  0.258738  0.247437
0.294156  0.309923  0.254577
0.436526  0.385765  0.211799
0.581607  0.456823  0.169456
0.742875  0.560567  0.170184
0.286907  0.324517  0.296846
0.412979  0.386651  0.262311
0.542889  0.470222  0.246975
0.679079  0.564518  0.202355
0.811826  0.656766  0.191152
0.405138  0.398742  0.286224
0.538759  0.471085  0.254443
0.654045  0.561663  0.249301
0.796893  0.657058  0.196351
0.927300  0.746731  0.190651
0.160131  0.194492  0.173024
0.184223  0.230850  0.224758
0.292255  0.305493  0.240987
0.492450  0.389292  0.164415
0.654585  0.465691  0.140444
0.203636  0.260444  0.256946
0.255044  0.308739  0.304215
0.352302  0.375384  0.331867
0.509312  0.448474  0.275660
0.700854  0.544529  0.226717
0.246486  0.327733  0.343982
0.300709  0.393622  0.417188
0.393517  0.439407  0.403569
0.572371  0.529541  0.385218
0.741660  0.610786  0.326665
0.311606  0.397200  0.419589
0.374709  0.460786  0.471293
0.494417  0.522183  0.466380
0.638564  0.601369  0.468673
0.819407  0.695560  0.405419
0.365379  0.463750  0.496805
0.488097  0.532955  0.492434
0.598516  0.591515  0.489402
0.745020  0.684924  0.479847
0.902874  0.767995  0.457274
0.207517  0.265887  0.273745
0.247629  0.322097  0.338506
0.330444  0.373291  0.347765
0.470750  0.439253  0.314094
0.664902  0.520354  0.260720
0.261059  0.348744  0.370014
0.305003  0.401313  0.425797
0.360758  0.445513  0.460938
0.503138  0.514407  0.445231
0.700411  0.603996  0.375340
0.316608  0.411459  0.442411
0.363276  0.472286  0.505750
0.406561  0.521471  0.560159
0.548620  0.588754  0.535377
0.724955  0.670130  0.500305
0.365393  0.482424  0.519863
0.411303  0.536283  0.576941
0.482845  0.609099  0.641252
0.636811  0.680014  0.630636
0.775097  0.745252  0.609390
0.423872  0.544544  0.581137
0.478774  0.605509  0.643934
0.549846  0.675274  0.700630
0.712607  0.743198  0.693354
0.856599  0.810309  0.672928
0.274721  0.362161  0.391013
0.309991  0.413506  0.442265
0.361558  0.468258  0.503292
0.465290  0.510263  0.472570
0.640239  0.580081  0.404412
0.318251  0.423599  0.451259
0.371095  0.481441  0.515271
0.428174  0.552744  0.590011
0.519273  0.591379  0.573932
0.679195  0.665895  0.548055
0.373639  0.486950  0.525166
0.433506  0.556360  0.597888
0.496437  0.618863  0.658978
0.560916  0.681237  0.703611
0.751605  0.746687  0.648773
0.425560  0.548960  0.584215
0.501398  0.630545  0.665516
0.546521  0.677957  0.714332
0.632962  0.756372  0.799975
0.762970  0.800292  0.764841
0.489642  0.621965  0.657331
0.550167  0.683356  0.724231
0.623498  0.753852  0.805109
0.698530  0.818130  0.865803
0.833282  0.890304  0.895686
