LUT/LUT_28.CUBE
TITLE "LUT_28" 
#LUT size 
LUT_3D_SIZE 15 
DOMAIN_MIN 0.0 0.0 0.0 
DOMAIN_MAX 1.0 1.0 1.0 
#data point 
0.070063  0.070765  0.034055
0.083831  0.077568  0.033887
0.099578  0.097422  0.048593
0.123752  0.120278  0.061377
0.184790  0.159965  0.075346
0.247056  0.201116  0.075237
0.312732  0.233620  0.062663
0.346906  0.264408  0.068240
0.418066  0.307603  0.061801
0.460857  0.335383  0.067029
0.523866  0.359504  0.059622
0.557758  0.392679  0.062926
0.624395  0.408056  0.054046
0.677806  0.448163  0.057711
0.743916  0.476189  0.053492
0.086845  0.082286  0.032575
0.092525  0.087853  0.035741
0.115306  0.110536  0.058337
0.154124  0.136118  0.067774
0.200407  0.175368  0.081692
0.263418  0.217098  0.083141
0.325497  0.252586  0.076101
0.382600  0.284344  0.072048
0.431086  0.319259  0.070304
0.467532  0.336991  0.057659
0.534386  0.374648  0.060114
0.597892  0.411951  0.066947
0.658787  0.447678  0.058398
0.704825  0.472410  0.056581
0.760310  0.480249  0.062641
0.108354  0.102855  0.051091
0.096869  0.097886  0.050645
0.129642  0.119302  0.057929
0.163989  0.152908  0.087053
0.226262  0.196831  0.087543
0.279629  0.225771  0.079082
0.354041  0.273813  0.087121
0.395813  0.297770  0.069073
0.463473  0.330851  0.076882
0.500226  0.365045  0.074377
0.541742  0.390333  0.069541
0.622884  0.435139  0.069906
0.656862  0.453445  0.066463
0.722208  0.474445  0.066047
0.776447  0.507339  0.059785
0.113417  0.111368  0.059076
0.137676  0.122824  0.063395
0.156618  0.144049  0.065303
0.204121  0.177206  0.086070
0.268048  0.223610  0.083455
0.316831  0.251989  0.090671
0.377540  0.288658  0.072487
0.424369  0.320252  0.082643
0.482779  0.352131  0.062674
0.517369  0.374188  0.063884
0.571131  0.409372  0.071885
0.629264  0.435152  0.077200
0.676104  0.465911  0.055972
0.751301  0.497895  0.058330
0.804348  0.540619  0.062251
0.151331  0.145372  0.078961
0.168758  0.154283  0.091097
0.213546  0.192025  0.099554
0.250096  0.209375  0.099562
0.295912  0.239660  0.086011
0.356256  0.279905  0.090063
0.398324  0.310057  0.084939
0.452571  0.335907  0.078140
0.504238  0.369252  0.074730
0.557912  0.407676  0.067356
0.592020  0.438090  0.074572
0.669936  0.478180  0.068206
0.703174  0.490940  0.067990
0.763461  0.526828  0.065170
0.824254  0.552743  0.062627
0.167092  0.167411  0.098043
0.212208  0.184593  0.090839
0.244687  0.207958  0.091700
0.294515  0.243323  0.089063
0.340375  0.268950  0.078427
0.369999  0.283982  0.091853
0.415732  0.324954  0.081766
0.489616  0.363625  0.081479
0.523977  0.382065  0.075956
0.556378  0.411897  0.079853
0.625621  0.461623  0.067645
0.666225  0.486931  0.075228
0.737807  0.518758  0.068400
0.788283  0.550951  0.072978
0.840168  0.566799  0.068389
0.228441  0.196448  0.079723
0.256484  0.222520  0.106347
0.308714  0.251151  0.104714
0.343590  0.283608  0.094801
0.383339  0.299276  0.084567
0.420711  0.337084  0.095578
0.451231  0.348682  0.082127
0.515301  0.402077  0.092851
0.553904  0.417118  0.077176
0.618052  0.477253  0.075388
0.658155  0.480533  0.073488
0.685496  0.508403  0.077806
0.742849  0.541836  0.076789
0.810002  0.574398  0.068131
0.870103  0.599214  0.070862
0.279023  0.239506  0.108415
0.307882  0.255434  0.104795
0.332298  0.268497  0.099954
0.380196  0.297537  0.084975
0.433510  0.338377  0.096208
0.467910  0.367878  0.076828
0.486249  0.382814  0.082752
0.543673  0.416344  0.078521
0.583906  0.458521  0.077213
0.637323  0.492764  0.075147
0.679088  0.523341  0.079750
0.727869  0.558198  0.078206
0.775901  0.587740  0.078335
0.842655  0.616851  0.077868
0.903201  0.642341  0.066723
0.297533  0.256573  0.111231
0.358944  0.285752  0.104044
0.386836  0.296576  0.084812
0.415805  0.320466  0.088205
0.474509  0.371352  0.090560
0.494929  0.390482  0.088494
0.535053  0.412524  0.084696
0.581057  0.453621  0.086548
0.617800  0.498953  0.072437
0.671117  0.540490  0.079621
0.695563  0.560414  0.074287
0.741819  0.594433  0.091389
0.808012  0.614147  0.084345
0.839357  0.657083  0.084253
0.919438  0.686934  0.076541
0.367704  0.301549  0.109765
0.392980  0.312652  0.096558
0.428676  0.333563  0.087739
0.459022  0.366586  0.095804
0.496417  0.393182  0.080367
0.530865  0.425806  0.085529
0.580512  0.460347  0.081604
0.627552  0.498347  0.081509
0.657620  0.538568  0.073427
0.700442  0.584213  0.077327
0.751491  0.606694  0.078773
0.776159  0.629525  0.072689
0.825074  0.662063  0.080094
0.869749  0.676623  0.080168
0.924479  0.718112  0.085415
0.385488  0.316213  0.110466
0.428292  0.343966  0.094550
0.463522  0.380514  0.087147
0.496386  0.395327  0.087564
0.560611  0.439402  0.090554
0.580712  0.468643  0.079322
0.609064  0.488629  0.091198
0.667128  0.540431  0.072000
0.700896  0.579503  0.074066
0.728042  0.592202  0.069276
0.780460  0.650295  0.074237
0.798799  0.652122  0.082539
0.856591  0.702637  0.077441
0.916650  0.725573  0.075210
0.949950  0.754045  0.093407
0.431338  0.339620  0.087111
0.463625  0.374195  0.093930
0.500724  0.402282  0.093196
0.542147  0.427669  0.087946
0.580436  0.470197  0.077459
0.629055  0.502510  0.077380
0.649140  0.536377  0.074474
0.680170  0.560419  0.074672
0.735173  0.617469  0.084904
0.755453  0.634016  0.071468
0.799701  0.669271  0.085278
0.849901  0.693606  0.080217
0.888966  0.710688  0.070766
0.919215  0.754733  0.084264
0.984155  0.774516  0.078553
0.471998  0.376445  0.089541
0.495941  0.402287  0.077935
0.526032  0.425625  0.088371
0.584954  0.470699  0.075998
0.622906  0.504689  0.090814
0.646071  0.534464  0.090144
0.697380  0.569806  0.074921
0.724439  0.581023  0.082521
0.756367  0.624819  0.086339
0.784077  0.650460  0.080097
0.835744  0.681209  0.081618
0.893487  0.718479  0.082972
0.908652  0.743721  0.087115
0.949109  0.769643  0.074790
1.024135  0.791975  0.088776
0.507384  0.407840  0.089186
0.542366  0.457128  0.085777
0.582194  0.478561  0.072545
0.622718  0.505682  0.087971
0.650455  0.538253  0.082210
0.672883  0.556642  0.070332
0.720566  0.595764  0.074686
0.765108  0.625220  0.079224
0.781660  0.646508  0.083974
0.815383  0.665064  0.084797
0.853667  0.693993  0.077508
0.895486  0.731107  0.084600
0.941402  0.759670  0.087031
0.988533  0.791165  0.090850
1.018061  0.801732  0.080748
0.540146  0.435432  0.091246
0.572211  0.459256  0.090537
0.609117  0.507006  0.084675
0.650678  0.540057  0.068523
0.688792  0.562848  0.078577
0.707859  0.589837  0.085132
0.750538  0.616690  0.086996
0.789213  0.654962  0.080948
0.810214  0.664835  0.082793
0.853497  0.701681  0.084659
0.886496  0.719602  0.092107
0.924508  0.753949  0.084004
0.972503  0.775829  0.088666
1.019762  0.800852  0.078751
1.076694  0.839262  0.084872
0.079814  0.077607  0.039169
0.095730  0.082988  0.037194
0.103112  0.091921  0.042031
0.122353  0.110284  0.055045
0.168982  0.151916  0.066332
0.244766  0.192167  0.071192
0.315971  0.253328  0.082372
0.363207  0.274747  0.068628
0.419378  0.304135  0.066945
0.447196  0.309458  0.060030
0.518774  0.356309  0.063310
0.567579  0.391400  0.058459
0.634437  0.423859  0.057438
0.678305  0.450840  0.054381
0.727121  0.472570  0.055384
0.094723  0.087708  0.037678
0.101561  0.089680  0.043358
0.117765  0.109497  0.059092
0.153491  0.138412  0.069165
0.197383  0.175801  0.088029
0.278648  0.229935  0.079457
0.326089  0.249702  0.069718
0.367616  0.282413  0.071883
0.429937  0.316767  0.071273
0.498610  0.353936  0.068591
0.521189  0.370738  0.055285
0.578061  0.399898  0.057906
0.646686  0.450965  0.060096
0.699436  0.461911  0.063175
0.761526  0.495806  0.061609
0.107250  0.090346  0.045520
0.118208  0.111014  0.062610
0.140756  0.135646  0.070056
0.172392  0.157944  0.080072
0.213070  0.195885  0.092500
0.301420  0.242059  0.074941
0.332640  0.256712  0.072867
0.394895  0.295735  0.081970
0.444733  0.330682  0.072997
0.495585  0.355084  0.073257
0.551683  0.392209  0.066003
0.606377  0.429079  0.063433
0.676171  0.451119  0.056879
0.715945  0.494974  0.064576
0.802086  0.517137  0.059692
0.128265  0.126355  0.069062
0.144534  0.134140  0.074454
0.167243  0.160541  0.091202
0.190437  0.176753  0.094018
0.254629  0.221333  0.094960
0.321613  0.265370  0.084034
0.357612  0.285714  0.092470
0.430894  0.329610  0.084382
0.474418  0.357267  0.087298
0.516878  0.373288  0.080210
0.573712  0.415237  0.081227
0.636546  0.447151  0.071602
0.683779  0.472723  0.059793
0.719080  0.494497  0.069708
0.803397  0.539648  0.061382
0.161523  0.157981  0.089172
0.165173  0.165108  0.099531
0.201680  0.191066  0.111195
0.238927  0.210897  0.108476
0.295812  0.250810  0.118019
0.347037  0.273836  0.089258
0.391662  0.308080  0.090846
0.443349  0.334678  0.080197
0.497844  0.377965  0.085350
0.538788  0.408787  0.088972
0.586258  0.425379  0.071941
0.644111  0.467811  0.065856
0.707641  0.501297  0.084745
0.771570  0.521427  0.066074
0.806380  0.554013  0.070069
0.184018  0.172765  0.104019
0.209051  0.192541  0.108126
0.247024  0.223495  0.131966
0.292957  0.246120  0.127712
0.345103  0.274394  0.104410
0.397582  0.309484  0.101594
0.449551  0.339378  0.087117
0.466607  0.357340  0.109804
0.511548  0.389749  0.084497
0.562526  0.427254  0.101057
0.606595  0.459486  0.082652
0.662582  0.493069  0.071710
0.716456  0.514897  0.085326
0.794205  0.554940  0.065597
0.861506  0.593952  0.063985
0.229159  0.223413  0.149027
0.267132  0.231867  0.114394
0.282328  0.253475  0.139829
0.319190  0.272684  0.131637
0.386437  0.306705  0.110148
0.419217  0.337341  0.101265
0.464525  0.355544  0.096273
0.504669  0.396069  0.105923
0.542219  0.426509  0.101929
0.590688  0.453533  0.092070
0.657405  0.496155  0.085702
0.689320  0.526848  0.078922
0.757407  0.550804  0.070402
0.809176  0.582049  0.067106
0.864814  0.609596  0.064018
0.260704  0.240202  0.125244
0.288477  0.261144  0.132597
0.338369  0.295677  0.145040
0.370583  0.314343  0.142775
0.425561  0.343579  0.102569
0.454763  0.359155  0.106108
0.514917  0.404670  0.095481
0.550894  0.423063  0.092456
0.583954  0.453541  0.093177
0.616198  0.485355  0.084332
0.677772  0.531256  0.083159
0.721543  0.547939  0.076823
0.780625  0.582361  0.066922
0.828362  0.604984  0.072855
0.908264  0.628198  0.077159
0.306280  0.266788  0.140027
0.346291  0.299682  0.149401
0.377843  0.315148  0.118861
0.398851  0.328026  0.120010
0.451692  0.361581  0.113869
0.498129  0.397515  0.108391
0.532803  0.426048  0.111747
0.583236  0.462603  0.083335
0.616436  0.489817  0.091483
0.674124  0.542506  0.094019
0.703038  0.568839  0.089279
0.753216  0.594513  0.091316
0.797615  0.619709  0.086510
0.861861  0.658688  0.097469
0.906328  0.673004  0.082180
0.325981  0.283538  0.130498
0.390535  0.321860  0.130050
0.418450  0.344252  0.135716
0.472551  0.372173  0.105677
0.498710  0.405210  0.106029
0.552217  0.439124  0.096687
0.588580  0.478220  0.108464
0.618134  0.503615  0.098486
0.666220  0.542216  0.098370
0.692602  0.572504  0.096637
0.747226  0.614452  0.076501
0.775769  0.631086  0.079167
0.831165  0.654735  0.076370
0.882533  0.688088  0.078693
0.944547  0.721314  0.083220
0.370540  0.324427  0.150492
0.393851  0.329103  0.143748
0.439832  0.356706  0.125633
0.505088  0.400979  0.109720
0.541259  0.430250  0.114481
0.585775  0.472513  0.096209
0.634564  0.518728  0.087043
0.663694  0.548400  0.096109
0.699951  0.577468  0.090582
0.731086  0.609259  0.084265
0.778898  0.629138  0.086016
0.823428  0.665529  0.090187
0.858137  0.684319  0.071242
0.914996  0.720486  0.092853
0.949409  0.728412  0.094927
0.407583  0.340765  0.131105
0.454009  0.371783  0.132013
0.500872  0.419727  0.114455
0.534307  0.425155  0.103853
0.580198  0.481532  0.112778
0.614361  0.498800  0.096218
0.638865  0.517798  0.108593
0.680304  0.561870  0.102457
0.720819  0.587613  0.088652
0.737003  0.623325  0.094336
0.797639  0.655976  0.072689
0.852907  0.683177  0.100563
0.895279  0.727135  0.091673
0.919973  0.748146  0.091193
0.971166  0.772662  0.082030
0.474746  0.382635  0.123804
0.514815  0.428061  0.087652
0.548709  0.441705  0.112270
0.602348  0.482220  0.095855
0.614897  0.494811  0.093968
0.657460  0.539576  0.110702
0.700750  0.579453  0.096037
0.716404  0.584466  0.095347
0.760944  0.621620  0.092421
0.793280  0.654394  0.096561
0.823285  0.681923  0.096976
0.884214  0.714213  0.101566
0.910330  0.748306  0.093612
0.977364  0.776918  0.087347
1.007549  0.780709  0.091119
0.489571  0.401560  0.129840
0.522449  0.417546  0.110436
0.577564  0.464546  0.087923
0.590835  0.479774  0.097547
0.659040  0.541730  0.097296
0.679474  0.558522  0.082862
0.704415  0.590525  0.110642
0.766897  0.635618  0.080436
0.790649  0.647837  0.090753
0.823716  0.683952  0.102236
0.867140  0.711929  0.093223
0.885265  0.725193  0.096698
0.935779  0.756113  0.097925
0.986169  0.783217  0.084324
1.023413  0.811092  0.092203
0.544397  0.436340  0.122944
0.581497  0.470924  0.096553
0.594684  0.480433  0.104725
0.640842  0.513312  0.101498
0.675181  0.557890  0.093498
0.711467  0.586642  0.093891
0.750331  0.614751  0.091351
0.781442  0.645635  0.107494
0.813867  0.675417  0.106963
0.853507  0.703614  0.100170
0.900124  0.730125  0.107723
0.918897  0.752892  0.099650
0.973624  0.787222  0.097362
1.031093  0.811287  0.092419
1.079321  0.835662  0.100078
0.100107  0.090549  0.047506
0.104628  0.104652  0.062320
0.117561  0.112674  0.057556
0.155194  0.145653  0.075621
0.189595  0.161304  0.086033
0.240227  0.198415  0.080457
0.298105  0.243582  0.082266
0.373658  0.284232  0.068954
0.415829  0.302204  0.068889
0.461966  0.337203  0.075086
0.513335  0.365806  0.063874
0.570644  0.397025  0.066139
0.624647  0.427292  0.061790
0.689940  0.461900  0.055645
0.753436  0.472859  0.059451
0.115824  0.114244  0.061271
0.123961  0.123148  0.077300
0.143260  0.136643  0.081543
0.159212  0.145844  0.083085
0.217547  0.190689  0.096628
0.281980  0.240460  0.085734
0.343329  0.265288  0.088656
0.371478  0.286884  0.080487
0.444573  0.331578  0.065448
0.483628  0.349721  0.072534
0.537874  0.387058  0.071901
0.588411  0.415873  0.063466
0.645472  0.449395  0.070714
0.729736  0.480656  0.061506
0.760280  0.494082  0.065886
0.126769  0.121034  0.073101
0.138231  0.145687  0.102820
0.163548  0.159140  0.098072
0.181713  0.174412  0.107508
0.227251  0.199674  0.100876
0.293871  0.251674  0.118237
0.329473  0.266793  0.101164
0.389186  0.310106  0.095486
0.451290  0.339596  0.091884
0.514824  0.381647  0.088886
0.558098  0.403844  0.070844
0.605853  0.434658  0.073958
0.676629  0.462357  0.061070
0.726542  0.483864  0.064614
0.777780  0.506918  0.062985
0.156647  0.156337  0.111520
0.152584  0.162072  0.115629
0.166119  0.174384  0.142502
0.204428  0.198510  0.132261
0.235501  0.215923  0.127412
0.320132  0.278601  0.123277
0.371978  0.302661  0.125327
0.406209  0.316918  0.119968
0.478686  0.372537  0.093085
0.528412  0.389160  0.092908
0.563840  0.424176  0.088313
0.641428  0.453801  0.073743
0.678319  0.485114  0.075309
0.721438  0.499670  0.071751
0.799715  0.537382  0.067261
0.155929  0.170810  0.131541
0.187848  0.207605  0.172753
0.203661  0.207233  0.146571
0.226244  0.220003  0.155478
0.284564  0.263888  0.154371
0.329345  0.287627  0.143753
0.384589  0.324549  0.124589
0.447477  0.358183  0.121221
0.491829  0.385740  0.115374
0.545094  0.414142  0.105103
0.607879  0.442721  0.104693
0.656363  0.472952  0.089942
0.699540  0.502681  0.085784
0.761343  0.545766  0.083578
0.816711  0.571153  0.081431
0.171001  0.193618  0.164964
0.194226  0.207697  0.160707
0.234069  0.234248  0.170978
0.267357  0.249641  0.156561
0.308556  0.276096  0.165964
0.356381  0.314240  0.168133
0.415083  0.342862  0.147032
0.467405  0.370482  0.130022
0.533256  0.411022  0.104786
0.571901  0.438665  0.115760
0.629535  0.466365  0.097619
0.665831  0.502176  0.119865
0.715388  0.518419  0.090490
0.782862  0.569859  0.090721
0.835457  0.584763  0.080808
0.207343  0.225463  0.183251
0.235127  0.237237  0.176532
0.276309  0.267384  0.188819
0.315840  0.294366  0.175968
0.342355  0.305565  0.168138
0.394201  0.341084  0.161048
0.455205  0.370320  0.157410
0.495876  0.399494  0.138139
0.537433  0.414921  0.135213
0.586063  0.455133  0.122787
0.634982  0.491985  0.132382
0.702221  0.531576  0.131754
0.753613  0.558836  0.122800
0.816504  0.593246  0.109121
0.854995  0.615364  0.089865
0.269081  0.266023  0.207114
0.282345  0.286694  0.210934
0.326110  0.304441  0.185869
0.352807  0.317821  0.177722
0.390774  0.341570  0.177751
0.441211  0.368840  0.158114
0.494067  0.408880  0.169722
0.540821  0.432778  0.144468
0.596581  0.468587  0.128151
0.642691  0.500418  0.128457
0.678843  0.520800  0.124750
0.714116  0.545280  0.135253
0.768022  0.587154  0.118920
0.829505  0.623068  0.113270
0.878308  0.645176  0.108176
0.284747  0.278998  0.207690
0.325972  0.304255  0.191967
0.344173  0.310411  0.181186
0.399902  0.348226  0.186406
0.434507  0.372398  0.192000
0.463295  0.387682  0.181936
0.536858  0.437984  0.172549
0.557948  0.467690  0.136404
0.623619  0.502605  0.120771
0.665860  0.530083  0.124696
0.714081  0.566070  0.113625
0.745252  0.601821  0.130159
0.804142  0.625064  0.125884
0.854212  0.654086  0.129149
0.924730  0.681996  0.119501
0.316553  0.303107  0.218277
0.358363  0.333573  0.201021
0.397266  0.349308  0.177040
0.427000  0.376233  0.205952
0.467632  0.397349  0.189969
0.525697  0.430685  0.172624
0.572246  0.468000  0.165477
0.599582  0.489558  0.125742
0.659231  0.529306  0.141707
0.698176  0.576245  0.114847
0.748023  0.613423  0.125909
0.785858  0.630154  0.123984
0.835979  0.658903  0.141625
0.868980  0.696880  0.131402
0.920577  0.704735  0.119869
0.367251  0.336336  0.195122
0.394188  0.351609  0.201108
0.435854  0.384508  0.200108
0.498389  0.409672  0.165749
0.516330  0.434442  0.161499
0.552171  0.457751  0.173168
0.580554  0.488761  0.151644
0.647413  0.538146  0.147268
0.688160  0.567489  0.115862
0.726340  0.601162  0.125714
0.765140  0.631422  0.119339
0.799234  0.661696  0.120617
0.862735  0.703907  0.130573
0.905002  0.712000  0.128270
0.981073  0.755309  0.142546
0.403133  0.354693  0.203261
0.432342  0.378077  0.204159
0.493365  0.406422  0.185667
0.517452  0.429445  0.183220
0.565919  0.468138  0.175264
0.604732  0.493708  0.153364
0.629698  0.514508  0.149185
0.677871  0.555746  0.132260
0.722295  0.595251  0.150689
0.782823  0.635185  0.115599
0.792980  0.658568  0.126426
0.829009  0.694018  0.132107
0.882394  0.724289  0.123468
0.942568  0.758413  0.133497
0.982162  0.777453  0.142624
0.429038  0.381877  0.204629
0.460131  0.402304  0.199770
0.522888  0.430525  0.173593
0.544511  0.449165  0.193113
0.589931  0.495025  0.174979
0.643444  0.538419  0.165102
0.684315  0.562136  0.131488
0.709948  0.589291  0.142491
0.754613  0.624527  0.135244
0.785323  0.657063  0.135075
0.828828  0.690050  0.137232
0.864523  0.711052  0.145024
0.915332  0.744638  0.116401
0.961823  0.775703  0.149625
0.999390  0.778605  0.130581
0.467984  0.404522  0.204770
0.515059  0.436635  0.181138
0.530574  0.441792  0.188203
0.586887  0.493994  0.160876
0.622787  0.522728  0.153172
0.681301  0.572380  0.134439
0.715918  0.586625  0.140157
0.753201  0.634515  0.123913
0.781359  0.639201  0.138952
0.811986  0.669060  0.130660
0.839880  0.696572  0.129541
0.904516  0.742772  0.134482
0.935779  0.756120  0.133464
0.994423  0.786243  0.133484
1.033545  0.814160  0.146150
0.508874  0.438399  0.210296
0.553237  0.467519  0.201271
0.594498  0.501825  0.163858
0.631399  0.529532  0.156247
0.680348  0.552535  0.159778
0.699554  0.587763  0.147085
0.755851  0.631476  0.140363
0.784893  0.641161  0.135358
0.814619  0.679888  0.134336
0.866738  0.711485  0.141736
0.895249  0.739269  0.115749
0.918518  0.748993  0.137806
0.967640  0.781427  0.139925
1.025505  0.803450  0.123601
1.068382  0.833260  0.136582
0.115480  0.116931  0.077065
0.121039  0.116731  0.065808
0.146871  0.146212  0.099557
0.156043  0.165102  0.121126
0.197454  0.183097  0.089548
0.244811  0.209012  0.095352
0.317314  0.261540  0.098465
0.378880  0.294914  0.093501
0.405536  0.305478  0.086894
0.469433  0.343922  0.082253
0.511663  0.376856  0.080720
0.575526  0.404039  0.072701
0.612814  0.427634  0.072522
0.693649  0.451410  0.053338
0.742721  0.479312  0.057550
0.131565  0.137706  0.097072
0.136953  0.148966  0.109234
0.155240  0.159948  0.116450
0.184504  0.189123  0.132885
0.209472  0.206544  0.130022
0.262397  0.232731  0.116436
0.332758  0.281810  0.116982
0.384583  0.315037  0.110467
0.428535  0.328940  0.088940
0.480941  0.360425  0.088089
0.541448  0.395725  0.085971
0.591524  0.415951  0.080320
0.666028  0.459506  0.076882
0.711088  0.474466  0.064308
0.775514  0.509942  0.063414
0.142545  0.148583  0.112047
0.159594  0.173340  0.140338
0.175782  0.191705  0.155666
0.194996  0.214499  0.176973
0.224318  0.224228  0.156813
0.291466  0.258366  0.141000
0.346739  0.291966  0.136146
0.395680  0.327446  0.131611
0.459089  0.354580  0.106011
0.508676  0.383617  0.103494
0.548736  0.417379  0.099923
0.618372  0.444603  0.085141
0.653807  0.463638  0.085161
0.724622  0.501184  0.080397
0.807723  0.542165  0.067808
0.156362  0.177742  0.144561
0.175980  0.200250  0.174641
0.184148  0.215342  0.190371
0.204953  0.222782  0.185883
0.263181  0.261360  0.192606
0.299384  0.283780  0.176702
0.366448  0.318461  0.159438
0.413106  0.332598  0.133772
0.485071  0.381352  0.116072
0.540541  0.419718  0.112122
0.562351  0.421889  0.118104
0.624506  0.460653  0.104439
0.690471  0.499752  0.101051
0.736322  0.510003  0.082855
0.802200  0.542652  0.104413
0.177910  0.211240  0.197357
0.194982  0.230687  0.210886
0.194842  0.227756  0.207952
0.233484  0.252593  0.203554
0.265689  0.279458  0.202780
0.317026  0.300109  0.194018
0.359494  0.327568  0.185235
0.446851  0.367295  0.161138
0.478001  0.379359  0.154319
0.553343  0.420269  0.121961
0.598220  0.461170  0.122267
0.635966  0.484264  0.128761
0.694696  0.523454  0.129689
0.749127  0.552158  0.107696
0.820321  0.573149  0.101583
0.192484  0.225891  0.204597
0.205376  0.239898  0.209920
0.229019  0.266966  0.240141
0.248532  0.272611  0.242115
0.296849  0.311103  0.242706
0.350348  0.331921  0.217661
0.420441  0.363804  0.184872
0.458055  0.384215  0.200417
0.505701  0.409090  0.168493
0.540561  0.426336  0.169576
0.613750  0.478289  0.154116
0.662233  0.515707  0.144698
0.732286  0.543050  0.130806
0.773546  0.586393  0.140116
0.819242  0.593679  0.137809
0.221233  0.261861  0.244930
0.226492  0.260290  0.236933
0.259288  0.290155  0.255557
0.293696  0.312464  0.262283
0.330901  0.323014  0.239441
0.390009  0.365104  0.251727
0.429372  0.384836  0.210426
0.491434  0.406811  0.214891
0.534069  0.444126  0.198223
0.578042  0.457473  0.161518
0.628554  0.480001  0.172833
0.710828  0.538063  0.151287
0.735612  0.566823  0.162326
0.797389  0.607449  0.136406
0.862866  0.641022  0.150733
0.222317  0.270404  0.252004
0.273840  0.301381  0.267783
0.300511  0.323243  0.276991
0.336523  0.338673  0.265799
0.372343  0.349571  0.244852
0.429768  0.384099  0.218116
0.465356  0.401268  0.233479
0.527383  0.437670  0.219656
0.561009  0.459571  0.217147
0.612729  0.495402  0.189577
0.688179  0.545632  0.163284
0.716320  0.569777  0.186815
0.792715  0.598375  0.164018
0.814088  0.619802  0.176603
0.869718  0.639035  0.173841
0.267770  0.301982  0.265552
0.291275  0.314608  0.277090
0.325228  0.341541  0.275688
0.364910  0.354873  0.265324
0.417693  0.389021  0.253831
0.454003  0.415793  0.264236
0.506544  0.439996  0.232448
0.549308  0.471669  0.218792
0.591443  0.496788  0.230294
0.662146  0.543904  0.190408
0.712512  0.585816  0.171359
0.755762  0.598092  0.184716
0.787477  0.623179  0.186812
0.861068  0.664371  0.191416
0.910168  0.689538  0.191281
0.284862  0.326858  0.299680
0.330092  0.340045  0.277990
0.383539  0.373649  0.267711
0.410390  0.378292  0.266230
0.477259  0.416194  0.253504
0.507354  0.453439  0.247206
0.531645  0.463784  0.250206
0.592600  0.503106  0.238450
0.645866  0.531601  0.206457
0.673928  0.562856  0.198232
0.744468  0.607762  0.181099
0.791148  0.641516  0.174768
0.812657  0.653777  0.189194
0.891846  0.703061  0.196980
