LUT/LUT_15.CUBE
TITLE "LUT_15" 
#LUT size 
LUT_3D_SIZE 5 
#data point 
DOMAIN_MIN 0.000000 0.000000 0.000000
DOMAIN_MAX 0.857143 0.857143 0.857143
0.046996  0.047316  0.021495
0.133161  0.123196  0.049330
0.328851  0.225233  0.045107
0.503429  0.296756  0.036510
0.677612  0.359420  0.037335
0.118139  0.112735  0.059368
0.218919  0.181403  0.076543
0.383945  0.274394  0.063507
0.547762  0.348298  0.046320
0.729269  0.419635  0.043534
0.228634  0.197053  0.082815
0.346592  0.291319  0.082388
0.460574  0.367060  0.069213
0.620116  0.461808  0.056210
0.778654  0.514579  0.048378
0.362181  0.304612  0.092947
0.461560  0.383811  0.073472
0.567006  0.485979  0.067450
0.683213  0.580992  0.063542
0.826507  0.659004  0.070627
0.447829  0.400361  0.073436
0.550888  0.498360  0.062345
0.663052  0.588447  0.063059
0.779994  0.660354  0.070657
0.911363  0.760625  0.074150
0.108950  0.114298  0.082575
0.151972  0.168223  0.120943
0.343969  0.253471  0.081374
0.500872  0.320023  0.063421
0.675393  0.377605  0.054670
0.142643  0.177564  0.166085
0.205653  0.229349  0.199969
0.383652  0.321415  0.163653
0.555720  0.399527  0.120075
0.728092  0.457565  0.109138
0.211586  0.250219  0.246283
0.298157  0.311152  0.249362
0.448487  0.385881  0.213721
0.593515  0.459136  0.180456
0.766626  0.543797  0.172129
0.291926  0.328135  0.286279
0.423925  0.393037  0.259570
0.540420  0.484269  0.247571
0.671964  0.577146  0.199960
0.823839  0.658416  0.190825
0.415222  0.406963  0.286418
0.530126  0.497901  0.247966
0.648248  0.589516  0.241476
0.777728  0.679999  0.208975
0.918280  0.760003  0.194639
0.147163  0.186316  0.183156
0.184921  0.230466  0.227515
0.306997  0.304617  0.234941
0.507318  0.376045  0.175678
0.683143  0.426793  0.147055
0.197516  0.259317  0.266069
0.238006  0.306795  0.316779
0.357007  0.378981  0.331837
0.520887  0.444631  0.280574
0.721105  0.524725  0.233008
0.246190  0.323509  0.352035
0.292242  0.388073  0.420950
0.400302  0.439903  0.403395
0.579678  0.529196  0.379685
0.764103  0.598621  0.332903
0.296112  0.396096  0.430866
0.370112  0.459696  0.475603
0.506066  0.524564  0.464279
0.640969  0.609151  0.465458
0.822161  0.687707  0.408861
0.350113  0.459378  0.498361
0.482233  0.530330  0.492148
0.608850  0.600510  0.479421
0.751742  0.694446  0.462973
0.897444  0.777651  0.459185
0.184413  0.264338  0.292842
0.236931  0.322657  0.343985
0.330641  0.378296  0.354288
0.492552  0.434806  0.314438
0.697806  0.492846  0.266810
0.253109  0.347076  0.382129
0.293957  0.398430  0.432911
0.351566  0.444540  0.462030
0.517689  0.520030  0.438260
0.713185  0.582184  0.383945
0.300593  0.413863  0.453025
0.352134  0.463053  0.509385
0.404421  0.518453  0.552941
0.557858  0.588878  0.531686
0.738275  0.672025  0.502099
0.359555  0.480204  0.521594
0.415336  0.539015  0.583433
0.472642  0.602437  0.641330
0.639365  0.682075  0.626732
0.784986  0.739415  0.595571
0.410739  0.535892  0.578934
0.479698  0.604306  0.644080
0.552802  0.671983  0.702348
0.714233  0.742997  0.677390
0.864871  0.818729  0.675013
0.235436  0.350482  0.409274
0.288602  0.401177  0.452343
0.346443  0.468287  0.514481
0.477437  0.510900  0.468693
0.668970  0.563728  0.413709
0.287448  0.414299  0.472443
0.354050  0.479509  0.527514
0.416737  0.545237  0.593801
0.520784  0.588620  0.568213
0.688978  0.666596  0.543540
0.352347  0.484263  0.531944
0.422263  0.552579  0.599390
0.488050  0.625278  0.667024
0.571594  0.682249  0.706105
0.748038  0.746454  0.644136
0.413725  0.545496  0.592214
0.486615  0.620195  0.661659
0.533481  0.679865  0.729729
0.620022  0.755730  0.807650
0.771089  0.805965  0.755817
0.475332  0.620460  0.670785
0.532691  0.682355  0.738124
0.606708  0.752370  0.824836
0.695479  0.812650  0.858044
0.827229  0.884810  0.890714
