LUT/LUT_35.CUBE
TITLE "LUT_35" 
#LUT size 
LUT_3D_SIZE 8 
DOMAIN_MIN 0.0 0.0 0.0 
DOMAIN_MAX 1.0 1.0 1.0 
#data point 
0.075605  0.075637  0.033931
0.102211  0.098407  0.049835
0.168715  0.152464  0.079302
0.312189  0.237544  0.068527
0.410631  0.304903  0.068461
0.505994  0.372817  0.072092
0.614144  0.423712  0.060049
0.723876  0.490962  0.062747
0.118085  0.107587  0.050071
0.126388  0.117624  0.061457
0.224930  0.197178  0.093165
0.347986  0.272004  0.090575
0.462733  0.336520  0.090504
0.536579  0.397252  0.077508
0.642863  0.461927  0.074825
0.748743  0.525683  0.061128
0.144365  0.136879  0.084502
0.201688  0.189569  0.103720
0.293326  0.247719  0.092004
0.395695  0.316366  0.088892
0.488732  0.365490  0.071581
0.595584  0.444884  0.085217
0.689125  0.507169  0.071507
0.805945  0.573281  0.071918
0.221181  0.190250  0.087752
0.305927  0.260908  0.104981
0.376943  0.301347  0.092322
0.453356  0.341485  0.085309
0.546056  0.420406  0.084425
0.645638  0.487831  0.079716
0.739408  0.551481  0.081828
0.856757  0.617681  0.075120
0.302761  0.262616  0.118917
0.380599  0.296003  0.090327
0.469576  0.365259  0.088786
0.527232  0.406090  0.088363
0.617321  0.484525  0.080401
0.695664  0.558499  0.084208
0.800865  0.614529  0.088984
0.906513  0.690180  0.079395
0.382663  0.308405  0.119090
0.466389  0.369654  0.090214
0.554975  0.432716  0.092915
0.612864  0.484294  0.100713
0.704838  0.576479  0.079481
0.778280  0.643288  0.082855
0.862189  0.705031  0.081585
0.955932  0.751878  0.096466
0.472624  0.364423  0.096510
0.526595  0.421430  0.100597
0.628483  0.494740  0.083150
0.697506  0.568403  0.084537
0.761482  0.619697  0.094443
0.834343  0.669457  0.082883
0.909496  0.735053  0.087218
1.022151  0.784291  0.092876
0.542695  0.434826  0.098180
0.625589  0.506616  0.100646
0.693262  0.560378  0.086632
0.749452  0.605513  0.086954
0.813298  0.655011  0.085582
0.883923  0.707387  0.102687
0.969549  0.770142  0.094614
1.076059  0.829930  0.089944
0.106956  0.101443  0.053474
0.117972  0.110362  0.056861
0.184361  0.166425  0.085864
0.282456  0.230998  0.089125
0.406634  0.310901  0.076577
0.507579  0.376703  0.073909
0.604966  0.444863  0.072191
0.731637  0.491358  0.065330
0.135346  0.127846  0.066051
0.162579  0.159773  0.088809
0.221914  0.198666  0.109880
0.317589  0.269957  0.109729
0.439974  0.343023  0.098813
0.550054  0.405457  0.081179
0.667704  0.480674  0.071770
0.747953  0.524886  0.069118
0.153984  0.166269  0.120629
0.197468  0.203071  0.144444
0.273277  0.262057  0.156901
0.390300  0.322496  0.121166
0.486906  0.382575  0.122976
0.596824  0.442563  0.109242
0.687337  0.508337  0.094279
0.800670  0.594422  0.091791
0.207327  0.224507  0.187256
0.261313  0.266443  0.198664
0.340070  0.304456  0.165750
0.447392  0.366073  0.154758
0.530400  0.404540  0.133411
0.632359  0.498209  0.133460
0.747903  0.559182  0.129596
0.843143  0.635961  0.093365
0.285210  0.281194  0.199651
0.338787  0.304598  0.184845
0.430175  0.373347  0.195188
0.531779  0.443361  0.173694
0.623082  0.494931  0.115263
0.717041  0.574935  0.103529
0.795733  0.622832  0.125729
0.905370  0.691477  0.125362
0.366596  0.327963  0.194994
0.438309  0.378860  0.199153
0.503706  0.421161  0.162899
0.579640  0.475178  0.154459
0.686868  0.563649  0.110005
0.764961  0.630234  0.113314
0.868965  0.701451  0.129556
0.983359  0.756465  0.131540
0.430055  0.374446  0.208958
0.522004  0.429150  0.177924
0.594683  0.485195  0.185755
0.682465  0.554228  0.126710
0.757494  0.616039  0.126049
0.837512  0.685489  0.125346
0.916867  0.749657  0.114568
0.990365  0.777746  0.121951
0.508050  0.425577  0.216344
0.595817  0.493533  0.165265
0.679282  0.548935  0.166293
0.760604  0.618031  0.135514
0.819596  0.673933  0.126897
0.896217  0.732081  0.119355
0.969963  0.769140  0.130624
1.068975  0.829202  0.138669
0.143285  0.150750  0.100772
0.151396  0.162226  0.128103
0.185597  0.195407  0.140247
0.306961  0.257640  0.125324
0.427378  0.329891  0.093919
0.521672  0.387476  0.096487
0.624401  0.458417  0.091340
0.704969  0.511280  0.084363
0.166712  0.184104  0.145552
0.191982  0.218829  0.189352
0.225822  0.252817  0.220453
0.340269  0.304515  0.177478
0.467317  0.373623  0.147741
0.537016  0.419062  0.142193
0.655516  0.487963  0.100427
0.772429  0.561420  0.105707
0.212738  0.245718  0.228375
0.228764  0.268304  0.254556
0.242653  0.276581  0.248437
0.365958  0.358380  0.254369
0.481986  0.422692  0.225578
0.585072  0.466928  0.154051
0.694763  0.539063  0.139234
0.802209  0.605661  0.144468
0.225417  0.278045  0.263735
0.261660  0.321855  0.320398
0.314740  0.356560  0.321405
0.410341  0.398500  0.311114
0.523533  0.452436  0.258781
0.628277  0.504031  0.218158
0.756623  0.591615  0.199954
0.831960  0.640809  0.194028
0.258270  0.317404  0.314048
0.321174  0.372735  0.347645
0.392921  0.400833  0.332364
0.480323  0.453418  0.336535
0.569699  0.496315  0.299954
0.699421  0.573485  0.282369
0.822831  0.652017  0.229691
0.917804  0.705630  0.233692
0.305507  0.362614  0.350069
0.389622  0.419720  0.378070
0.474932  0.449278  0.332999
0.550854  0.507070  0.329027
0.659974  0.570182  0.329320
0.763707  0.638035  0.276386
0.854041  0.696274  0.257378
0.961509  0.757457  0.252518
0.351302  0.398387  0.368360
0.455129  0.450211  0.360688
0.559132  0.506345  0.337394
0.635387  0.560025  0.341271
0.743102  0.619213  0.316820
0.813073  0.668555  0.294668
0.910087  0.734619  0.263878
1.014011  0.802314  0.243417
0.437073  0.454566  0.382304
0.547076  0.510580  0.347981
0.629642  0.558086  0.327910
0.721805  0.610132  0.317015
0.797031  0.662638  0.303292
0.912641  0.741835  0.272960
0.966460  0.772706  0.271573
1.089712  0.837596  0.251006
0.163166  0.189138  0.164271
0.179046  0.217168  0.200787
0.232664  0.256339  0.221722
0.276304  0.295605  0.252233
0.442254  0.370581  0.167653
0.538155  0.427465  0.145599
0.643316  0.482814  0.132195
0.733532  0.545465  0.139390
0.194138  0.226497  0.212005
0.219482  0.266300  0.250095
0.258057  0.301016  0.281280
0.323519  0.350794  0.297762
0.462275  0.406800  0.225381
0.553121  0.453271  0.199527
0.680725  0.523334  0.183941
0.776807  0.594709  0.177295
0.233980  0.279626  0.267834
0.261875  0.321323  0.315983
0.287594  0.354792  0.354992
0.384893  0.414865  0.371884
0.457768  0.461769  0.366877
0.584076  0.506785  0.272049
0.709315  0.578082  0.256113
0.824765  0.648856  0.244426
0.265649  0.329960  0.331152
0.292074  0.367403  0.375656
0.318790  0.397908  0.415699
0.390468  0.438577  0.413114
0.497597  0.498229  0.410285
0.633367  0.562290  0.345590
0.731372  0.620540  0.326159
0.852675  0.675941  0.296251
0.315349  0.394489  0.405795
0.344190  0.432967  0.446644
0.368225  0.448811  0.460495
0.472551  0.502057  0.456879
0.558188  0.561193  0.477823
0.638945  0.594457  0.429261
0.779912  0.666968  0.394036
0.906085  0.747785  0.357753
0.340981  0.427698  0.449986
0.360163  0.461077  0.476286
0.437848  0.485515  0.460239
0.509146  0.544653  0.492704
0.595551  0.591753  0.491104
0.712668  0.662651  0.484289
0.862808  0.739262  0.439236
0.933396  0.780691  0.434173
0.363528  0.470152  0.490318
0.432115  0.510649  0.506323
0.512497  0.540007  0.470762
0.577136  0.588173  0.501705
0.690677  0.643606  0.493690
0.798543  0.708444  0.470064
0.903884  0.765122  0.464452
0.988832  0.817790  0.491367
0.401290  0.507303  0.528934
0.483353  0.527852  0.491198
0.554234  0.581505  0.520954
0.663107  0.639338  0.490322
0.786639  0.708391  0.487853
0.862921  0.748321  0.469371
0.967518  0.802337  0.489435
1.051847  0.852313  0.488541
0.187641  0.229352  0.215063
0.230952  0.279795  0.277833
0.253282  0.303206  0.295872
0.299788  0.336400  0.315132
0.408355  0.400647  0.300109
0.541040  0.462697  0.244214
0.653642  0.529061  0.203471
0.757036  0.569975  0.177378
0.242123  0.292551  0.284479
0.250476  0.314704  0.318485
0.291294  0.355900  0.362748
0.347110  0.405984  0.402658
0.420067  0.440442  0.383288
0.550237  0.500933  0.326186
0.672378  0.553001  0.277187
0.785313  0.618626  0.248532
0.264046  0.340807  0.349182
0.301987  0.375050  0.387204
0.319276  0.407309  0.423858
0.381477  0.456679  0.454671
0.463339  0.499311  0.456755
0.562024  0.547170  0.433260
0.710217  0.610810  0.372213
0.821885  0.660764  0.331645
0.295706  0.379760  0.395591
0.335408  0.427214  0.439440
0.357818  0.458507  0.483027
0.380932  0.489358  0.525521
0.505700  0.543807  0.493602
0.601084  0.595287  0.503153
0.732778  0.666919  0.456425
0.853853  0.712412  0.396385
0.341859  0.430699  0.447124
0.361766  0.470155  0.500287
0.403564  0.514128  0.539368
0.454840  0.561484  0.581842
0.528107  0.595543  0.577253
0.637408  0.654631  0.577256
0.776460  0.710299  0.523805
0.913142  0.778980  0.483119
0.369048  0.472930  0.499488
0.406072  0.505138  0.531865
0.439740  0.558211  0.586502
0.484244  0.599411  0.624014
0.573458  0.628186  0.589741
0.701423  0.713160  0.638875
0.812721  0.756064  0.604751
0.940761  0.811328  0.550918
0.410810  0.526945  0.555865
0.445597  0.557663  0.579734
0.482408  0.606382  0.635442
0.558556  0.627908  0.617821
0.677783  0.687022  0.607122
0.778854  0.753388  0.634953
0.888942  0.805246  0.623214
0.995805  0.844498  0.602428
0.451416  0.570779  0.603126
0.482258  0.606301  0.635306
0.537412  0.633154  0.629886
0.644278  0.683770  0.630242
0.729182  0.728692  0.635300
0.849348  0.779209  0.624132
0.944245  0.837714  0.640284
1.042113  0.875384  0.611434
0.251454  0.312579  0.309124
0.267657  0.328376  0.336204
0.288907  0.363152  0.377225
0.324488  0.394625  0.394435
0.419500  0.439846  0.382034
0.509322  0.491802  0.370187
0.639077  0.536284  0.299605
0.761087  0.602399  0.268055
0.272929  0.350175  0.365746
0.305771  0.390586  0.406842
0.317230  0.405355  0.434561
0.367146  0.451847  0.463168
0.446475  0.508462  0.484194
0.547765  0.552904  0.469683
0.670862  0.602038  0.404149
0.796010  0.657941  0.362049
0.308239  0.398515  0.417153
0.343600  0.432044  0.443400
0.382721  0.485576  0.505968
0.402856  0.506692  0.527304
0.461505  0.542636  0.531267
0.578352  0.606028  0.550316
0.678529  0.631227  0.476287
0.828094  0.712100  0.452204
0.330714  0.433090  0.469888
0.376020  0.473936  0.487891
0.419016  0.529038  0.558658
0.426291  0.545454  0.584109
0.491634  0.600060  0.620670
0.608060  0.647163  0.598471
0.728680  0.693691  0.544402
0.836900  0.756758  0.564539
0.383824  0.491738  0.528001
0.419427  0.531724  0.566991
0.449888  0.572177  0.611104
0.481010  0.600676  0.637281
0.531659  0.650941  0.686510
0.652075  0.699203  0.658491
0.744628  0.733295  0.631931
0.905339  0.807707  0.598156
0.410588  0.526231  0.562539
0.448765  0.572967  0.604870
0.482305  0.613427  0.644239
0.518311  0.644695  0.676444
0.576823  0.701747  0.734684
0.690557  0.749447  0.723544
0.818371  0.802967  0.702293
0.936431  0.844913  0.677763
0.454832  0.576101  0.610826
0.495256  0.616295  0.655308
0.544522  0.666850  0.694185
0.571549  0.689414  0.722926
0.629816  0.742833  0.767532
0.730949  0.787839  0.773959
0.864259  0.840059  0.744738
0.975051  0.871886  0.708870
0.494279  0.611146  0.649974
0.520902  0.642190  0.672043
0.564919  0.696967  0.730669
0.605166  0.718594  0.749369
0.698722  0.789397  0.794993
0.808143  0.816287  0.753532
0.911389  0.858933  0.745399
1.031464  0.910306  0.736799
0.292119  0.372198  0.389982
0.312581  0.392718  0.407555
0.344278  0.440396  0.460357
0.363383  0.475650  0.505249
0.417389  0.489349  0.476186
0.512591  0.527740  0.476224
0.619963  0.572838  0.417320
0.767921  0.647706  0.380778
0.322861  0.412043  0.434125
0.338987  0.445561  0.477912
0.362724  0.462531  0.500022
0.403098  0.520765  0.556201
0.444218  0.549381  0.576410
0.549256  0.578764  0.524836
0.652085  0.639280  0.526684
0.799592  0.703038  0.476241
0.353433  0.449912  0.479169
0.377932  0.486298  0.513343
0.414347  0.524837  0.554685
0.452072  0.566672  0.597713
0.492106  0.606421  0.631555
0.594022  0.648519  0.616084
0.689869  0.699380  0.613617
0.806511  0.747613  0.574420
0.376658  0.491314  0.517836
0.404477  0.511487  0.548506
0.461732  0.584422  0.621120
0.492429  0.619868  0.649855
0.535576  0.665632  0.700510
0.591756  0.693305  0.700124
0.750013  0.747441  0.649466
0.860075  0.792908  0.644481
0.420284  0.529221  0.563571
0.469823  0.584738  0.609507
0.492772  0.615664  0.647510
0.541288  0.667900  0.702495
0.593884  0.726573  0.767662
0.630285  0.739233  0.759298
0.760478  0.778921  0.717989
0.898074  0.840067  0.710140
0.454524  0.579369  0.612964
0.495935  0.625403  0.659237
0.530634  0.666464  0.699829
0.600223  0.728775  0.771523
0.636080  0.762093  0.803288
0.688079  0.804521  0.844352
0.791055  0.834921  0.816544
0.927035  0.870000  0.760906
0.498353  0.622954  0.652547
0.535170  0.656715  0.686768
0.572398  0.700374  0.736849
0.629327  0.760713  0.804929
0.678855  0.801237  0.836326
0.732647  0.847088  0.885942
0.832278  0.893275  0.894553
0.965261  0.904772  0.797482
0.525921  0.657948  0.693240
0.578051  0.702398  0.733718
0.604355  0.739404  0.782919
0.683280  0.800592  0.843617
0.727213  0.840818  0.877291
0.798231  0.879992  0.908349
0.873462  0.922660  0.930219
0.998141  0.948655  0.859630
0.322629  0.421443  0.450272
0.337259  0.443348  0.477219
0.388287  0.500746  0.527986
0.411276  0.532271  0.574436
0.457323  0.582665  0.614815
0.509038  0.592651  0.579509
0.635556  0.645595  0.556580
0.782254  0.701792  0.493205
0.351156  0.457582  0.483315
0.376080  0.491546  0.528750
0.428917  0.549087  0.584909
0.465373  0.587537  0.621591
0.502621  0.622589  0.653539
0.548476  0.660651  0.681549
0.638281  0.679488  0.635500
0.791964  0.735593  0.583345
0.376558  0.497025  0.532550
0.417360  0.535667  0.574700
0.460877  0.586968  0.623911
0.515350  0.639585  0.673002
0.553077  0.678795  0.718793
0.599699  0.716678  0.753277
0.700463  0.744512  0.703238
0.829036  0.785792  0.668666
0.425529  0.537747  0.571169
0.453779  0.579142  0.615818
0.504650  0.631780  0.666991
0.567700  0.687674  0.722446
0.582287  0.715916  0.764236
0.632185  0.756808  0.807439
0.691336  0.794354  0.820030
0.854129  0.830379  0.741304
0.450265  0.570789  0.610392
0.501907  0.625536  0.652474
0.536695  0.667521  0.705310
0.585398  0.716820  0.760061
0.631940  0.757748  0.797096
0.682750  0.802228  0.851069
0.760026  0.860995  0.896958
0.863546  0.883382  0.840148
0.484990  0.610005  0.640129
0.522820  0.654154  0.684349
0.582047  0.711409  0.739878
0.626687  0.755074  0.804596
0.653001  0.785902  0.830179
0.741213  0.844718  0.888713
0.800834  0.891057  0.925778
0.882578  0.928232  0.934329
0.530003  0.662535  0.693319
0.576075  0.707464  0.746546
0.606855  0.738721  0.786311
0.652570  0.773835  0.819706
0.709568  0.824260  0.869841
0.786933  0.876925  0.915746
0.849800  0.923386  0.947305
0.909235  0.952567  0.966374
0.567328  0.697828  0.727849
0.589310  0.727680  0.776406
0.642295  0.772804  0.819815
0.707707  0.821356  0.868429
0.759565  0.861779  0.902908
0.830517  0.909308  0.937313
0.892886  0.938546  0.960064
0.945998  0.970860  0.981321
