LUT/LUT_3.CUBE
TITLE "LUT_3" 
#LUT size 
LUT_3D_SIZE 5 
#data point 
DOMAIN_MIN 0.000000 0.000000 0.000000
DOMAIN_MAX 0.857143 0.857143 0.857143
0.017568  0.017534  0.005198
0.179374  0.086332  0.012523
0.390348  0.113763  -0.001356
0.597991  0.116193  -0.012812
0.811338  0.122186  -0.013804
0.113448  0.110921  0.047405
0.231776  0.189906  0.036984
0.416068  0.231044  0.024166
0.613747  0.268911  0.019216
0.819290  0.281466  0.012014
0.191170  0.254474  0.054134
0.310902  0.338576  0.040134
0.442617  0.405604  0.034869
0.628799  0.439564  0.034340
0.843285  0.448089  0.035701
0.253226  0.413479  0.057232
0.393841  0.475672  0.038640
0.507688  0.546156  0.036943
0.661415  0.617716  0.030214
0.846244  0.647500  0.034856
0.274216  0.595991  0.044308
0.452518  0.616102  0.029741
0.592105  0.673662  0.034303
0.731529  0.744762  0.040100
0.881098  0.808335  0.037673
0.030732  0.091246  0.125414
0.168011  0.134102  0.141849
0.389465  0.129620  0.127571
0.591104  0.129487  0.132387
0.810313  0.125326  0.144429
0.094400  0.164949  0.205917
0.202224  0.229293  0.210057
0.406869  0.287670  0.175296
0.605385  0.312791  0.154412
0.808694  0.319434  0.151635
0.177299  0.258884  0.254494
0.288741  0.345964  0.235033
0.437090  0.415401  0.211302
0.628117  0.442550  0.212114
0.828730  0.471365  0.188350
0.238851  0.408528  0.254175
0.372509  0.471273  0.237804
0.498881  0.553680  0.226228
0.661543  0.627577  0.212419
0.846034  0.648298  0.206058
0.267977  0.577836  0.242446
0.447178  0.610008  0.232388
0.577143  0.679111  0.232520
0.722031  0.756874  0.222066
0.889660  0.811320  0.204802
0.042452  0.134722  0.277955
0.174398  0.163516  0.297225
0.390440  0.167046  0.306693
0.603353  0.156429  0.308077
0.825086  0.148701  0.310725
0.107988  0.243029  0.332535
0.206319  0.301067  0.348303
0.378814  0.341822  0.346912
0.592100  0.346282  0.340232
0.809941  0.343261  0.342590
0.167334  0.320984  0.405290
0.263445  0.382143  0.438490
0.421488  0.446572  0.413315
0.609160  0.496881  0.383997
0.821222  0.522346  0.364383
0.220089  0.415150  0.469447
0.356540  0.476116  0.467892
0.488973  0.570400  0.442253
0.646710  0.632034  0.438053
0.847437  0.660522  0.425789
0.246392  0.560023  0.478722
0.436903  0.605722  0.460064
0.577865  0.672897  0.442283
0.708845  0.748858  0.434959
0.869340  0.821398  0.435561
0.004593  0.133819  0.533126
0.167382  0.171153  0.525446
0.395196  0.173719  0.501742
0.603850  0.165347  0.506575
0.822352  0.162250  0.512487
0.054187  0.307849  0.539931
0.209894  0.358840  0.521700
0.388236  0.376820  0.512986
0.598327  0.381585  0.517487
0.815575  0.364763  0.519796
0.129299  0.395790  0.583593
0.290647  0.470861  0.551025
0.406019  0.527392  0.562693
0.584979  0.557846  0.555233
0.800999  0.566516  0.547160
0.212898  0.464560  0.640737
0.353432  0.543153  0.633086
0.463653  0.603304  0.648217
0.633553  0.669906  0.624604
0.815173  0.723776  0.596837
0.241846  0.573184  0.692143
0.410311  0.602295  0.695531
0.554894  0.666389  0.686529
0.710699  0.760272  0.660209
0.872017  0.826947  0.654047
0.009468  0.130398  0.741756
0.175715  0.159326  0.747290
0.364304  0.174992  0.755541
0.603333  0.164728  0.720230
0.818204  0.159912  0.717855
0.039559  0.309637  0.742906
0.208722  0.355198  0.743619
0.370468  0.385731  0.757891
0.600487  0.385598  0.716685
0.812193  0.382475  0.728635
0.123817  0.441335  0.739771
0.267037  0.518409  0.736491
0.397352  0.583709  0.749720
0.588261  0.605604  0.741125
0.809457  0.590728  0.731330
0.188783  0.511866  0.798728
0.354133  0.597250  0.772088
0.486508  0.668608  0.780240
0.601169  0.747817  0.818651
0.801794  0.783800  0.760954
0.239047  0.611871  0.855267
0.420603  0.649482  0.837894
0.558419  0.742718  0.836847
0.675956  0.814268  0.869099
0.842333  0.873545  0.856102
