LUT/LUT_29.CUBE
TITLE "LUT_29" 
#LUT size 
LUT_3D_SIZE 15 
DOMAIN_MIN 0.0 0.0 0.0 
DOMAIN_MAX 1.0 1.0 1.0 
#data point 
0.072575  0.068895  0.032860
0.081717  0.079014  0.037551
0.102536  0.092456  0.049279
0.123930  0.117827  0.068230
0.176859  0.161244  0.075017
0.245012  0.198698  0.076947
0.312746  0.233874  0.060258
0.347683  0.265179  0.068694
0.419736  0.304621  0.062873
0.459976  0.336937  0.068150
0.522746  0.362503  0.062051
0.557046  0.391369  0.063738
0.623066  0.410467  0.052946
0.676741  0.453625  0.059856
0.738741  0.476044  0.056216
0.087862  0.080716  0.033903
0.097718  0.090608  0.043761
0.115750  0.116727  0.061369
0.152872  0.139170  0.066636
0.195650  0.174823  0.085486
0.260319  0.218204  0.082650
0.324465  0.254141  0.075203
0.384626  0.284288  0.077466
0.426544  0.321416  0.072457
0.466886  0.340380  0.059856
0.531259  0.378608  0.063187
0.595803  0.411246  0.067949
0.659101  0.453870  0.059039
0.703093  0.472860  0.058452
0.758107  0.482438  0.062695
0.111000  0.105608  0.051155
0.103707  0.097806  0.051497
0.126881  0.119717  0.058943
0.162170  0.154821  0.085027
0.225981  0.196218  0.086201
0.280570  0.223580  0.079106
0.354177  0.272803  0.086845
0.395490  0.299223  0.072823
0.467738  0.328010  0.076233
0.500787  0.365350  0.077233
0.541458  0.392888  0.070399
0.617611  0.436707  0.069191
0.655214  0.457577  0.067986
0.721617  0.474547  0.065794
0.770997  0.512388  0.059695
0.114970  0.110694  0.057566
0.134553  0.121762  0.062194
0.155788  0.142987  0.069270
0.203701  0.178832  0.092126
0.264747  0.218647  0.084101
0.313354  0.249927  0.090111
0.379895  0.289705  0.076810
0.422037  0.321923  0.083839
0.483152  0.354537  0.065213
0.515184  0.375506  0.069142
0.568556  0.408382  0.076062
0.629075  0.433417  0.078113
0.673948  0.467327  0.060153
0.747487  0.500710  0.058546
0.799926  0.543822  0.068672
0.148437  0.143633  0.077142
0.166930  0.158312  0.090374
0.213077  0.190954  0.104197
0.248491  0.211807  0.099253
0.292923  0.242343  0.085016
0.353439  0.280674  0.090530
0.397919  0.308486  0.087201
0.452137  0.337945  0.076437
0.503085  0.370879  0.074893
0.552522  0.409766  0.071372
0.593188  0.436109  0.075790
0.664552  0.481351  0.069057
0.700575  0.493336  0.066064
0.759441  0.531919  0.066915
0.820011  0.557908  0.060806
0.169461  0.163383  0.097985
0.209865  0.184968  0.090043
0.241480  0.209212  0.093194
0.292779  0.241963  0.092196
0.341356  0.265077  0.077244
0.374745  0.285676  0.093163
0.419981  0.324165  0.088671
0.491276  0.360873  0.081770
0.520454  0.383127  0.076107
0.555643  0.411736  0.080618
0.624496  0.458807  0.068108
0.666518  0.489426  0.076264
0.736280  0.520771  0.068391
0.786037  0.554909  0.072029
0.841294  0.570957  0.071274
0.230151  0.195974  0.080061
0.259794  0.225518  0.107263
0.308098  0.249190  0.104228
0.345501  0.280239  0.101278
0.384918  0.299780  0.080918
0.420206  0.338791  0.098306
0.450389  0.346893  0.082710
0.517801  0.399415  0.094777
0.555297  0.419717  0.074774
0.619381  0.478261  0.079110
0.657355  0.481233  0.075236
0.684051  0.512701  0.076061
0.740920  0.543790  0.076202
0.806202  0.578342  0.069740
0.866995  0.602526  0.071391
0.275635  0.241018  0.109125
0.304783  0.254377  0.105736
0.327495  0.269081  0.101806
0.381749  0.297014  0.086665
0.432183  0.337353  0.096160
0.467275  0.366613  0.081246
0.488296  0.384520  0.083032
0.545981  0.417320  0.081491
0.580844  0.460138  0.078447
0.636410  0.489104  0.072511
0.676674  0.527180  0.077252
0.729084  0.561253  0.077680
0.777153  0.590577  0.082667
0.839154  0.618809  0.079035
0.904258  0.644802  0.066206
0.300415  0.257050  0.115848
0.356649  0.288446  0.102520
0.387234  0.299014  0.086150
0.415854  0.321085  0.091156
0.472838  0.368927  0.095354
0.495276  0.388653  0.089409
0.536485  0.410083  0.082931
0.579672  0.452865  0.085709
0.613385  0.497955  0.070811
0.670691  0.541123  0.080875
0.696287  0.561383  0.076193
0.743687  0.590370  0.087784
0.806828  0.611064  0.086737
0.834317  0.656140  0.082806
0.920044  0.688911  0.077667
0.368057  0.300706  0.109996
0.394290  0.314972  0.094167
0.428812  0.330152  0.089483
0.459612  0.365017  0.094970
0.493899  0.392624  0.083438
0.528806  0.423253  0.086793
0.580377  0.460157  0.081030
0.626609  0.496330  0.085356
0.655439  0.536263  0.075508
0.703100  0.582549  0.081119
0.749294  0.609209  0.081649
0.778081  0.629085  0.075900
0.822734  0.665700  0.080945
0.868047  0.677676  0.074266
0.923053  0.717203  0.086489
0.384613  0.313651  0.109525
0.429847  0.344116  0.099098
0.462467  0.378738  0.089576
0.496327  0.391620  0.089250
0.559018  0.438987  0.089765
0.582129  0.466421  0.078971
0.612112  0.488626  0.090731
0.667385  0.540434  0.073680
0.702718  0.577147  0.073136
0.725850  0.589821  0.070138
0.777807  0.649915  0.074722
0.798434  0.650526  0.081935
0.855375  0.701675  0.080426
0.918024  0.727109  0.072971
0.949378  0.755888  0.095393
0.432623  0.338821  0.090692
0.464448  0.371349  0.095487
0.503944  0.399452  0.095135
0.544256  0.425324  0.088224
0.580923  0.460956  0.077149
0.629328  0.502953  0.079329
0.652934  0.535710  0.078457
0.676298  0.557334  0.079283
0.737156  0.615683  0.082777
0.758106  0.632290  0.070972
0.801786  0.669178  0.086107
0.846440  0.689307  0.080447
0.887596  0.713228  0.071552
0.918706  0.755301  0.082520
0.980134  0.774004  0.082019
0.469447  0.375851  0.090663
0.493903  0.403442  0.080694
0.526938  0.421173  0.088631
0.585446  0.470108  0.073953
0.621808  0.500922  0.086978
0.646582  0.531364  0.089121
0.697646  0.568367  0.077758
0.726266  0.581494  0.081632
0.758177  0.620920  0.088829
0.783376  0.651078  0.082273
0.836764  0.679574  0.083688
0.893025  0.717001  0.087028
0.909491  0.742062  0.084829
0.950423  0.766636  0.081642
1.026749  0.790305  0.089970
0.509017  0.408052  0.086514
0.546806  0.454920  0.086262
0.579558  0.474148  0.074553
0.625750  0.505537  0.087693
0.650681  0.535219  0.083653
0.674656  0.552764  0.073302
0.722552  0.592162  0.075056
0.767684  0.622137  0.083481
0.780656  0.648901  0.082863
0.815309  0.662985  0.082472
0.849954  0.696522  0.080889
0.896712  0.732890  0.082654
0.940973  0.760191  0.086229
0.990972  0.789052  0.092422
1.017569  0.800873  0.082210
0.541122  0.433893  0.091381
0.572313  0.454070  0.089392
0.609444  0.506408  0.089634
0.655163  0.536232  0.066104
0.690601  0.562312  0.080080
0.705721  0.587769  0.085649
0.745388  0.612694  0.082732
0.790181  0.656059  0.080005
0.808949  0.664886  0.081291
0.854053  0.697621  0.086421
0.884927  0.717886  0.093039
0.929961  0.754632  0.084859
0.969135  0.771845  0.088949
1.020516  0.800728  0.079893
1.078521  0.840323  0.086254
0.081059  0.077803  0.044356
0.095887  0.082498  0.036491
0.103832  0.095635  0.042263
0.121344  0.112548  0.056928
0.169570  0.149608  0.069713
0.243602  0.192450  0.073596
0.312729  0.251814  0.084452
0.362405  0.277166  0.068051
0.419837  0.302454  0.065560
0.444347  0.311250  0.061371
0.515348  0.358402  0.064986
0.565795  0.395852  0.059832
0.633599  0.429253  0.056736
0.671761  0.454174  0.058240
0.726053  0.480015  0.059884
0.098612  0.091086  0.037237
0.101624  0.093255  0.043530
0.111789  0.111286  0.055649
0.151021  0.141015  0.068015
0.195252  0.173503  0.088229
0.280359  0.230083  0.080960
0.328533  0.254465  0.071316
0.369246  0.282494  0.071795
0.431962  0.316002  0.073297
0.497079  0.355307  0.075436
0.521612  0.374378  0.059334
0.574797  0.401320  0.056689
0.644634  0.451549  0.059081
0.694189  0.465543  0.066174
0.758278  0.500287  0.061862
0.105113  0.096159  0.044252
0.117944  0.109186  0.060655
0.138147  0.133087  0.069034
0.172233  0.154239  0.082801
0.215615  0.195736  0.092560
0.299215  0.240106  0.075753
0.333433  0.256160  0.073932
0.392858  0.297945  0.082853
0.441963  0.333395  0.073767
0.493725  0.357000  0.073711
0.549404  0.390654  0.068929
0.605440  0.430473  0.062574
0.673564  0.452622  0.061308
0.713182  0.496694  0.064337
0.798427  0.525433  0.059712
0.131789  0.128633  0.069513
0.141750  0.132565  0.074114
0.168921  0.161969  0.091055
0.190158  0.176240  0.094172
0.250988  0.222218  0.096856
0.319586  0.263314  0.083781
0.354823  0.284798  0.094272
0.429593  0.330522  0.081240
0.476025  0.359995  0.086004
0.516412  0.374479  0.077972
0.573159  0.419233  0.083370
0.634912  0.448147  0.074549
0.687719  0.474609  0.063957
0.712753  0.498774  0.074054
0.799604  0.539807  0.062200
0.160457  0.157445  0.090307
0.166005  0.164565  0.098694
0.202759  0.193021  0.112139
0.235702  0.209518  0.107874
0.295286  0.251506  0.120271
0.349696  0.275447  0.090604
0.393192  0.306355  0.092316
0.445737  0.334672  0.081390
0.498629  0.378017  0.088152
0.537983  0.408408  0.086194
0.585929  0.427843  0.072392
0.642700  0.466675  0.065976
0.706414  0.505978  0.084874
0.769281  0.524466  0.067782
0.801607  0.557782  0.072124
0.182854  0.174631  0.101732
0.209657  0.193120  0.108271
0.247582  0.224973  0.128803
0.292451  0.242894  0.128541
0.343907  0.277408  0.105862
0.397898  0.311655  0.101862
0.446907  0.340753  0.089449
0.471325  0.355913  0.114048
0.512230  0.388600  0.084488
0.562916  0.427415  0.103412
0.609154  0.457893  0.086186
0.660502  0.490536  0.073888
0.717202  0.517701  0.085278
0.790672  0.554871  0.066790
0.859158  0.599454  0.068609
0.228500  0.223489  0.147734
0.263439  0.232826  0.112595
0.278573  0.253074  0.142541
0.318995  0.272585  0.133138
0.385886  0.302609  0.108646
0.420749  0.338273  0.099855
0.466299  0.355368  0.099074
0.505903  0.396111  0.113350
0.540255  0.425300  0.100153
0.590633  0.452143  0.096074
0.655598  0.498423  0.084653
0.686538  0.528472  0.080441
0.756030  0.552424  0.075973
0.808112  0.586678  0.065705
0.857891  0.612558  0.065074
0.260001  0.236724  0.128420
0.285391  0.260101  0.133922
0.337456  0.295339  0.141458
0.369512  0.311715  0.146746
0.425318  0.342839  0.101834
0.451025  0.358610  0.108821
0.516410  0.404231  0.092106
0.550414  0.422834  0.091250
0.582822  0.456205  0.097744
0.614700  0.485109  0.087945
0.678768  0.531142  0.086380
0.722501  0.551855  0.076334
0.777236  0.581447  0.067629
0.827893  0.606719  0.073803
0.902053  0.629257  0.074812
0.304297  0.265382  0.138340
0.347263  0.300557  0.148157
0.381695  0.313408  0.115377
0.401196  0.328027  0.121651
0.450104  0.358037  0.113222
0.494364  0.395956  0.110203
0.534278  0.423705  0.111013
0.582281  0.464738  0.085322
0.618952  0.489833  0.092630
0.672106  0.544721  0.093400
0.701449  0.563523  0.089974
0.754086  0.592306  0.090845
0.797254  0.618703  0.085318
0.862041  0.660050  0.097645
0.904339  0.677047  0.077579
0.326377  0.282372  0.133391
0.390720  0.320157  0.129528
0.418541  0.340483  0.134543
0.473177  0.374836  0.106725
0.498559  0.403851  0.102460
0.549143  0.438268  0.096256
0.591251  0.477513  0.109709
0.618744  0.503530  0.099743
0.670828  0.538049  0.102562
0.697407  0.573255  0.096774
0.748612  0.613258  0.075121
0.773393  0.631672  0.083960
0.829602  0.652308  0.079325
0.880887  0.690185  0.080653
0.941666  0.721087  0.085508
0.374142  0.321718  0.150653
0.391625  0.329314  0.143035
0.438326  0.354070  0.124360
0.512425  0.402047  0.112577
0.538035  0.429315  0.114981
0.582755  0.470295  0.098447
0.637050  0.514878  0.090334
0.664054  0.547216  0.093128
0.698922  0.574225  0.086902
0.731994  0.606187  0.085583
0.780789  0.630182  0.087103
0.822064  0.668359  0.093569
0.857045  0.684842  0.070271
0.916310  0.721228  0.096060
0.947632  0.727094  0.096763
0.409800  0.340776  0.131730
0.455949  0.367854  0.129438
0.498960  0.415751  0.113768
0.537135  0.425624  0.105905
0.581361  0.479245  0.114527
0.609661  0.496361  0.096434
0.640942  0.511399  0.104758
0.681543  0.561845  0.100978
0.723332  0.586407  0.092363
0.736631  0.624001  0.094631
0.795737  0.655275  0.076227
0.854334  0.686209  0.100710
0.892893  0.725377  0.096382
0.915649  0.749347  0.090290
0.971941  0.771250  0.081009
0.471718  0.382440  0.121785
0.512441  0.427219  0.085961
0.549685  0.439299  0.114865
0.600309  0.479327  0.095839
0.612707  0.494635  0.095992
0.657676  0.535999  0.109378
0.698492  0.577993  0.098243
0.711622  0.580958  0.095649
0.763401  0.619398  0.091447
0.793436  0.650205  0.098834
0.823341  0.685529  0.096086
0.885961  0.714039  0.100682
0.910634  0.749653  0.094898
0.976513  0.776327  0.088696
1.005657  0.780474  0.090585
0.492885  0.401688  0.131885
0.525153  0.418192  0.110587
0.578369  0.465937  0.091769
0.589409  0.475002  0.095987
0.655034  0.537731  0.099269
0.680997  0.557417  0.086563
0.706952  0.589971  0.107809
0.765336  0.637488  0.079868
0.792036  0.645965  0.089645
0.826091  0.679867  0.099906
0.868115  0.708151  0.094549
0.889804  0.725134  0.099411
0.935540  0.756589  0.098233
0.983507  0.782525  0.087170
1.025838  0.807847  0.093652
0.544876  0.435063  0.121579
0.579215  0.471379  0.096054
0.589710  0.478853  0.107020
0.641191  0.511662  0.098431
0.675589  0.554943  0.096759
0.712293  0.584889  0.094606
0.750120  0.612604  0.091529
0.783296  0.645429  0.109940
0.815955  0.672737  0.110292
0.848929  0.702419  0.101991
0.900509  0.733725  0.106108
0.915870  0.754488  0.096508
0.973714  0.786053  0.102522
1.028772  0.808753  0.092961
1.079423  0.835359  0.101069
0.100422  0.089185  0.046920
0.106987  0.104420  0.060768
0.120996  0.108749  0.056171
0.156525  0.149205  0.075659
0.185832  0.166382  0.085427
0.237051  0.196259  0.081921
0.292041  0.242318  0.080364
0.373772  0.287579  0.069267
0.411954  0.305116  0.068100
0.458339  0.340809  0.077931
0.509719  0.369360  0.065886
0.567492  0.397158  0.067067
0.624322  0.429765  0.063249
0.688604  0.462774  0.055565
0.744755  0.476475  0.058788
0.117749  0.112602  0.060879
0.125163  0.123632  0.076373
0.146533  0.136165  0.078714
0.160058  0.143986  0.082971
0.216110  0.193675  0.096527
0.277021  0.238112  0.088309
0.339838  0.265153  0.088740
0.374557  0.289667  0.089031
0.442943  0.334141  0.068081
0.480964  0.347425  0.072230
0.538491  0.390289  0.072650
0.586106  0.417134  0.065346
0.641312  0.449652  0.071418
0.728047  0.480485  0.060205
0.760812  0.499029  0.065271
0.130062  0.121828  0.070825
0.138130  0.146345  0.103344
0.164155  0.160211  0.097529
0.180786  0.173347  0.103861
0.224337  0.201574  0.102238
0.292079  0.252904  0.117596
0.326417  0.267160  0.099937
0.386244  0.308909  0.098466
0.444951  0.337478  0.092253
0.514258  0.382351  0.090450
0.559019  0.403847  0.071679
0.606806  0.438779  0.076321
0.677418  0.467104  0.063508
0.724718  0.486615  0.064857
0.772074  0.506880  0.061180
0.154499  0.160009  0.103795
0.156463  0.162225  0.114587
0.164498  0.176959  0.138294
0.204871  0.196940  0.132930
0.234539  0.217601  0.130337
0.321704  0.275713  0.125655
0.369606  0.304137  0.123305
0.406346  0.316997  0.122953
0.475711  0.373465  0.095072
0.526789  0.391494  0.087814
0.562750  0.422786  0.087879
0.637685  0.454308  0.072307
0.673974  0.483841  0.073867
0.719047  0.503205  0.070360
0.799608  0.540172  0.068042
0.152600  0.168688  0.128044
0.188483  0.206071  0.173751
0.200094  0.211561  0.150590
0.227151  0.220658  0.155185
0.282721  0.261601  0.153533
0.324998  0.288221  0.143037
0.385763  0.326271  0.122516
0.454050  0.360387  0.119677
0.493291  0.383540  0.116654
0.544854  0.413948  0.105530
0.605537  0.442861  0.105719
0.652439  0.475170  0.091354
0.698105  0.502057  0.088790
0.755098  0.547026  0.080929
0.813751  0.572515  0.080184
0.171843  0.195339  0.162731
0.195376  0.210367  0.160852
0.233683  0.234230  0.174194
0.268476  0.245492  0.159121
0.304891  0.277255  0.164925
0.352767  0.314001  0.169557
0.415021  0.341686  0.147247
0.467557  0.372092  0.128643
0.529046  0.409722  0.107422
0.571572  0.441489  0.113062
0.627032  0.465564  0.100825
0.665638  0.501382  0.121243
0.713714  0.519181  0.087426
0.782742  0.574148  0.092299
0.834611  0.588332  0.081939
0.207041  0.225787  0.183929
0.233800  0.235598  0.176431
0.275006  0.268017  0.190735
0.314120  0.291889  0.174335
0.340758  0.305027  0.168519
0.392448  0.340934  0.163680
0.452024  0.371113  0.154633
0.493609  0.400203  0.139359
0.536830  0.413739  0.131518
0.586190  0.455579  0.117503
0.635447  0.492310  0.131391
0.700618  0.533782  0.129811
0.755556  0.560099  0.122448
0.811680  0.597694  0.113469
0.855917  0.618324  0.090115
0.268121  0.267662  0.203491
0.282053  0.287122  0.210370
0.328908  0.305401  0.187120
0.353160  0.314858  0.176853
0.389824  0.343288  0.177143
0.441592  0.367383  0.157104
0.491785  0.409988  0.169654
0.538968  0.432007  0.144513
0.592623  0.469396  0.127509
0.642358  0.498471  0.127258
0.675953  0.520124  0.124743
0.711906  0.547343  0.134802
0.767751  0.587336  0.120694
0.824522  0.624038  0.113749
0.874965  0.644869  0.108617
0.285437  0.283517  0.206161
0.326074  0.302078  0.194856
0.342835  0.309297  0.181614
0.396081  0.344562  0.189450
0.437090  0.371149  0.192118
0.459992  0.384957  0.183869
0.538571  0.437426  0.172263
0.560180  0.469241  0.137663
0.625745  0.498745  0.120840
0.663075  0.531916  0.124922
0.715225  0.568171  0.110531
0.744813  0.600542  0.131969
0.804250  0.624037  0.122518
0.852814  0.652485  0.134504
0.922294  0.680725  0.119610
0.315676  0.300656  0.222730
0.357371  0.333727  0.200849
0.399818  0.349933  0.179078
0.430139  0.372929  0.208902
0.471230  0.396537  0.194185
0.528347  0.428033  0.172972
0.577416  0.468299  0.167727
0.600791  0.490652  0.124215
0.661489  0.529550  0.143263
0.698479  0.574969  0.115856
0.747998  0.611569  0.126121
0.785280  0.630127  0.125561
0.833909  0.654752  0.137281
0.870764  0.694919  0.133563
0.917800  0.707838  0.122839
0.369009  0.334301  0.195737
0.391829  0.351481  0.201332
0.435609  0.386227  0.196468
0.495678  0.410004  0.165710
0.515542  0.432492  0.160594
0.550965  0.456070  0.174494
0.581512  0.489127  0.154621
0.647530  0.537544  0.144845
0.689808  0.566468  0.114972
0.727456  0.600753  0.126928
0.764748  0.629791  0.118336
0.800834  0.660280  0.118603
0.865976  0.703444  0.129634
0.905537  0.710169  0.132707
0.983366  0.754717  0.140616
0.402806  0.356777  0.204625
0.436274  0.377321  0.202164
0.491749  0.407850  0.188414
0.516111  0.432835  0.181451
0.563493  0.467949  0.171459
0.604120  0.493771  0.153389
0.632941  0.511218  0.148045
0.680162  0.551155  0.133230
0.723425  0.592913  0.151062
0.785584  0.635740  0.115360
0.794192  0.655215  0.125586
0.829663  0.693405  0.131387
0.882250  0.723311  0.121275
0.941502  0.753923  0.128841
0.980352  0.780670  0.144125
0.429781  0.381611  0.205173
0.461674  0.396864  0.198692
0.520292  0.429950  0.176343
0.545164  0.447351  0.194463
0.591522  0.492326  0.179906
0.642394  0.537115  0.164668
0.684023  0.559414  0.131706
0.713229  0.586036  0.140811
0.756980  0.622149  0.134076
0.786960  0.654193  0.133949
0.829795  0.689256  0.135189
0.865260  0.711023  0.145171
0.912620  0.743472  0.114222
0.961170  0.770963  0.150232
0.999599  0.778739  0.127690
0.470849  0.404801  0.204449
0.514339  0.436572  0.183368
0.530438  0.441136  0.188196
0.588305  0.493673  0.163264
0.622383  0.519384  0.151111
0.683485  0.570742  0.137813
0.716328  0.583256  0.139171
0.754193  0.634416  0.124909
0.782484  0.642130  0.139637
0.810531  0.667738  0.128933
0.838799  0.697170  0.128254
0.903771  0.739959  0.132741
0.934849  0.755259  0.134522
0.996937  0.783078  0.132787
1.032459  0.813384  0.146506
0.507190  0.436641  0.213456
0.546914  0.469135  0.198327
0.597817  0.501903  0.163539
0.632150  0.530023  0.155520
0.683040  0.551494  0.162872
0.702319  0.588069  0.146288
0.754346  0.631612  0.138216
0.786927  0.638339  0.133939
0.818723  0.679628  0.132367
0.867540  0.712144  0.144690
0.897056  0.739490  0.116236
0.919970  0.748009  0.136314
0.966049  0.778458  0.139937
1.027176  0.802273  0.121599
1.066393  0.831321  0.138809
0.117942  0.119177  0.075336
0.120152  0.117698  0.069102
0.144948  0.149881  0.097174
0.158429  0.167541  0.121438
0.198651  0.182540  0.091292
0.243625  0.209344  0.098950
0.315279  0.263825  0.100252
0.376802  0.294731  0.091745
0.406945  0.307705  0.087712
0.470666  0.344362  0.082226
0.511074  0.379544  0.078961
0.570815  0.404262  0.075794
0.610365  0.429928  0.074289
0.688616  0.454188  0.057130
0.742839  0.484097  0.059594
0.135213  0.142420  0.099159
0.141246  0.149413  0.109211
0.155088  0.161487  0.114859
0.185868  0.184511  0.132708
0.208471  0.205172  0.130121
0.261118  0.229702  0.116459
0.327783  0.279722  0.115674
0.386829  0.312401  0.108625
0.432224  0.333165  0.093019
0.476606  0.358443  0.090501
0.543016  0.391175  0.087425
0.588381  0.417711  0.077854
0.664205  0.464657  0.077099
0.710589  0.476185  0.064154
0.773669  0.512303  0.065370
0.142036  0.149774  0.110300
0.161468  0.176913  0.134847
0.173783  0.195135  0.155700
0.197870  0.217431  0.176694
0.226351  0.224529  0.154894
0.293282  0.262284  0.145464
0.342835  0.290565  0.136578
0.396973  0.327066  0.133378
0.458605  0.354361  0.105691
0.511289  0.387626  0.103217
0.548442  0.420265  0.102684
0.617367  0.444865  0.080792
0.651041  0.464244  0.087229
0.720127  0.506154  0.080312
0.805771  0.544909  0.069985
0.157912  0.176751  0.144249
0.173527  0.204186  0.168582
0.184104  0.215486  0.188901
0.206489  0.225919  0.186488
0.262830  0.259532  0.195110
0.295720  0.285500  0.177260
0.364214  0.314087  0.157302
0.410312  0.329988  0.133333
0.481175  0.381629  0.118077
0.538574  0.420450  0.116622
0.561800  0.419634  0.117333
0.624700  0.464254  0.102449
0.686149  0.501073  0.103614
0.733772  0.512829  0.083484
0.802004  0.542566  0.104715
0.178344  0.212218  0.191094
0.197542  0.228819  0.210196
0.195848  0.231792  0.205448
0.233661  0.253886  0.205367
0.266840  0.276589  0.202127
0.316072  0.299662  0.193930
0.357094  0.323800  0.186516
0.445186  0.367803  0.159735
0.474804  0.380353  0.155411
0.548647  0.417565  0.119587
0.596263  0.460075  0.121688
0.638073  0.481037  0.128814
0.693145  0.525277  0.133727
0.744597  0.553917  0.107944
0.819755  0.571020  0.099395
0.192507  0.223756  0.205464
0.207248  0.239140  0.212259
0.225999  0.265872  0.238882
0.245112  0.272959  0.244631
0.296027  0.310099  0.241068
0.351790  0.332674  0.218346
0.422732  0.365126  0.188976
0.458800  0.383754  0.201344
0.503748  0.408993  0.173014
0.541646  0.425866  0.167330
0.608278  0.478155  0.154327
0.659857  0.517295  0.140548
0.733194  0.542744  0.130439
0.773791  0.587126  0.138062
0.813838  0.597196  0.140670
0.220876  0.261859  0.241552
0.225867  0.258725  0.237984
0.265618  0.289225  0.253944
0.291965  0.314275  0.261166
0.329156  0.324954  0.237166
0.390777  0.366461  0.251582
0.429383  0.380540  0.211463
0.491374  0.406607  0.211645
0.534756  0.442666  0.198874
0.575815  0.455488  0.161868
0.624854  0.481203  0.171236
0.708805  0.540344  0.151848
0.736927  0.566963  0.166092
0.794479  0.606171  0.138536
0.858721  0.641507  0.149174
0.221624  0.265587  0.250615
0.275165  0.301785  0.266216
0.299818  0.321602  0.276184
0.335788  0.337926  0.267359
0.371522  0.344667  0.245811
0.429760  0.383722  0.216551
0.466896  0.402813  0.233733
0.527174  0.438414  0.217554
0.561439  0.461910  0.222631
0.611214  0.494185  0.189607
0.690511  0.547492  0.162382
0.716003  0.568608  0.186082
0.788432  0.600348  0.166327
0.812185  0.621435  0.177978
0.867916  0.640681  0.172948
0.270736  0.299375  0.266358
0.290951  0.312085  0.277350
0.321919  0.342150  0.276968
0.362808  0.357462  0.260086
0.415976  0.388470  0.253756
0.456203  0.413811  0.263126
0.510426  0.438693  0.236036
0.546244  0.472462  0.217277
0.587798  0.498684  0.232752
0.661426  0.540627  0.190139
0.715065  0.585473  0.170895
0.752933  0.601527  0.184921
0.786196  0.621655  0.188925
0.856912  0.664942  0.189063
0.910937  0.689182  0.188214
0.284340  0.324894  0.298295
0.334751  0.342533  0.280227
0.382414  0.372383  0.269058
0.411252  0.377100  0.264661
0.477040  0.418268  0.256003
0.510713  0.453454  0.247056
0.530345  0.460588  0.249779
0.595077  0.501912  0.238120
0.646433  0.531294  0.203234
0.669891  0.562731  0.199947
0.742588  0.608020  0.176785
0.789787  0.641554  0.173123
0.812413  0.654777  0.182038
0.891567  0.702783  0.194477
