LUT/LUT_37.CUBE
TITLE "LUT_37" 
#LUT size 
LUT_3D_SIZE 15 
DOMAIN_MIN 0.0 0.0 0.0 
DOMAIN_MAX 1.0 1.0 1.0 
#data point 
0.072199  0.073688  0.031728
0.087180  0.083700  0.043580
0.108497  0.095071  0.054327
0.127681  0.117738  0.063981
0.167697  0.153834  0.077323
0.238920  0.198356  0.084346
0.308890  0.238426  0.071209
0.337493  0.263491  0.087645
0.408755  0.304531  0.071988
0.453169  0.344322  0.072541
0.507691  0.373779  0.073170
0.547473  0.396436  0.082069
0.613557  0.425481  0.064961
0.654531  0.474587  0.068956
0.715994  0.497962  0.065462
0.094442  0.089307  0.045937
0.102129  0.099450  0.051089
0.116616  0.107103  0.059753
0.146647  0.137372  0.073557
0.197823  0.182110  0.098400
0.257211  0.212237  0.082975
0.319674  0.253060  0.085952
0.386864  0.294883  0.080994
0.422112  0.323992  0.076147
0.463415  0.347688  0.073053
0.516219  0.376052  0.079981
0.591028  0.420244  0.072255
0.651617  0.469964  0.066999
0.691039  0.485970  0.072864
0.731022  0.511288  0.068027
0.118057  0.107199  0.051346
0.110949  0.104635  0.048448
0.124365  0.117815  0.057429
0.159288  0.150330  0.088818
0.226867  0.198163  0.095599
0.269235  0.225998  0.084316
0.350205  0.275174  0.089731
0.379981  0.293350  0.079524
0.462558  0.332773  0.088628
0.492678  0.365286  0.082201
0.538197  0.398139  0.080332
0.607202  0.448326  0.075753
0.640457  0.466122  0.075817
0.703297  0.494548  0.074777
0.739336  0.527694  0.059234
0.120026  0.113456  0.061162
0.133913  0.121399  0.059111
0.156152  0.141795  0.076619
0.196515  0.181742  0.097632
0.263359  0.221137  0.092071
0.303970  0.256720  0.096390
0.378941  0.292791  0.094305
0.416449  0.317224  0.089629
0.475819  0.356711  0.062830
0.517462  0.389284  0.084289
0.562641  0.418393  0.084366
0.615730  0.455174  0.088518
0.652299  0.480834  0.072990
0.727172  0.521103  0.070073
0.780819  0.570027  0.070471
0.141848  0.136110  0.083830
0.163747  0.150731  0.088466
0.201957  0.189798  0.101702
0.231667  0.211378  0.113877
0.290664  0.247697  0.092110
0.356402  0.279110  0.096888
0.393252  0.317010  0.090234
0.445475  0.334975  0.087341
0.484973  0.362961  0.076315
0.554424  0.407499  0.079688
0.592319  0.451978  0.090228
0.652882  0.490193  0.078441
0.681914  0.513336  0.074626
0.742908  0.545011  0.071742
0.801088  0.572968  0.070209
0.162057  0.161891  0.099701
0.209360  0.187991  0.089682
0.230660  0.204429  0.098598
0.283909  0.239480  0.095345
0.331726  0.263356  0.088696
0.360671  0.289644  0.102059
0.418089  0.323541  0.101239
0.480111  0.368287  0.087572
0.511017  0.387463  0.081488
0.542688  0.402659  0.079146
0.610609  0.464452  0.073413
0.660450  0.493388  0.082667
0.726449  0.541219  0.075718
0.768326  0.573413  0.082532
0.818041  0.593131  0.074256
0.218723  0.195234  0.089894
0.253201  0.226386  0.118224
0.302770  0.259621  0.105142
0.339794  0.276545  0.104736
0.373837  0.298294  0.099027
0.421618  0.333139  0.103633
0.448128  0.344155  0.086772
0.511388  0.399412  0.095409
0.543091  0.422413  0.089849
0.612484  0.473809  0.079604
0.643497  0.487804  0.083687
0.676220  0.515006  0.087890
0.737711  0.554973  0.084955
0.802011  0.594964  0.067091
0.851644  0.620698  0.078541
0.267000  0.237936  0.119145
0.302343  0.250218  0.102483
0.324685  0.262694  0.111154
0.369653  0.296122  0.092410
0.428258  0.338373  0.115164
0.458499  0.359989  0.086413
0.491909  0.373151  0.088518
0.545774  0.413355  0.083118
0.588638  0.450966  0.088514
0.627530  0.490717  0.082210
0.672651  0.527615  0.082757
0.723516  0.559982  0.091686
0.765330  0.598026  0.078375
0.833230  0.639697  0.082349
0.900667  0.664327  0.069152
0.305338  0.262477  0.124977
0.354319  0.287894  0.099009
0.381559  0.295324  0.092857
0.412083  0.323150  0.093717
0.475158  0.363680  0.089824
0.488736  0.383405  0.088274
0.527065  0.406294  0.091113
0.582424  0.443470  0.090756
0.614900  0.481544  0.082412
0.663269  0.536139  0.084992
0.689224  0.557109  0.082302
0.744897  0.594874  0.098573
0.802648  0.614275  0.087110
0.836939  0.657934  0.076528
0.908368  0.693524  0.085613
0.360895  0.288646  0.119489
0.385000  0.306106  0.102715
0.423163  0.329200  0.094956
0.461591  0.371331  0.104516
0.497782  0.395349  0.093715
0.530432  0.426138  0.090458
0.582374  0.458139  0.092247
0.627651  0.490113  0.090685
0.656243  0.524597  0.086859
0.707943  0.573601  0.083394
0.755518  0.609493  0.090602
0.785838  0.633908  0.077526
0.827208  0.670645  0.086971
0.861844  0.676351  0.083168
0.917410  0.726092  0.088345
0.381924  0.308513  0.120615
0.428369  0.346667  0.112254
0.472470  0.371800  0.090317
0.497404  0.382677  0.089150
0.554596  0.434695  0.097824
0.585855  0.453748  0.088983
0.614771  0.479334  0.098276
0.669474  0.525916  0.074241
0.706179  0.577589  0.081987
0.723968  0.585418  0.088387
0.778497  0.642498  0.084994
0.805584  0.651254  0.089435
0.861680  0.703098  0.082511
0.913695  0.730760  0.073158
0.950106  0.753922  0.100777
0.421064  0.335133  0.109111
0.461723  0.364458  0.102288
0.499026  0.400589  0.099341
0.539468  0.425013  0.096565
0.593223  0.451951  0.091288
0.631939  0.499634  0.089182
0.656872  0.526081  0.083447
0.675857  0.551192  0.086072
0.738713  0.601345  0.086427
0.753336  0.620696  0.077786
0.803301  0.658482  0.095311
0.845886  0.681924  0.087160
0.885614  0.711779  0.079787
0.922849  0.747260  0.088794
0.972501  0.768189  0.086091
0.467444  0.364590  0.099657
0.481802  0.387301  0.095617
0.528359  0.419233  0.102059
0.591398  0.460208  0.088963
0.628241  0.493596  0.087695
0.655488  0.526328  0.100061
0.698842  0.567220  0.083433
0.719830  0.579653  0.082928
0.762925  0.619746  0.095466
0.783847  0.651048  0.089473
0.831165  0.665458  0.083128
0.890952  0.715546  0.081440
0.909474  0.734088  0.082643
0.942412  0.756082  0.091578
1.017263  0.785137  0.088688
0.512525  0.401330  0.098862
0.563698  0.447171  0.090577
0.575630  0.458952  0.082378
0.626725  0.497358  0.085925
0.653247  0.528605  0.082565
0.670491  0.545949  0.084045
0.720534  0.580958  0.077573
0.769780  0.622595  0.082790
0.793209  0.649705  0.093927
0.816450  0.662545  0.093244
0.845904  0.690012  0.084814
0.901000  0.723795  0.083944
0.939546  0.765238  0.095075
0.990313  0.791286  0.099994
1.017101  0.791085  0.091975
0.543337  0.431790  0.101451
0.579066  0.451648  0.082080
0.625045  0.504987  0.105720
0.669340  0.537235  0.071721
0.692080  0.555089  0.086661
0.708582  0.574534  0.091659
0.743831  0.605728  0.093621
0.786087  0.648880  0.090201
0.805188  0.649962  0.082483
0.854168  0.695335  0.095284
0.881786  0.707765  0.099196
0.937148  0.752625  0.087406
0.969613  0.770651  0.096425
1.026651  0.789382  0.089969
1.079972  0.829551  0.090956
0.087342  0.084843  0.040950
0.099455  0.100280  0.045594
0.107041  0.099137  0.049280
0.122458  0.111468  0.057936
0.160205  0.145069  0.072137
0.233707  0.193953  0.081806
0.312653  0.256645  0.093088
0.359683  0.282542  0.089317
0.409374  0.314998  0.070017
0.437840  0.323709  0.069211
0.502052  0.364363  0.069853
0.560314  0.405850  0.073898
0.614684  0.437906  0.067195
0.656233  0.479055  0.065966
0.708696  0.506945  0.073716
0.098516  0.094738  0.045759
0.108518  0.093826  0.044818
0.111506  0.107490  0.055477
0.148540  0.142758  0.068591
0.181680  0.171930  0.098198
0.272369  0.221165  0.089391
0.314349  0.249483  0.081899
0.369094  0.281692  0.074754
0.420794  0.319593  0.079223
0.483833  0.362403  0.088224
0.512472  0.382506  0.073776
0.557390  0.409570  0.070248
0.627752  0.461635  0.068461
0.675802  0.489550  0.072812
0.737081  0.521763  0.072263
0.105467  0.098825  0.048301
0.115872  0.113346  0.061245
0.136334  0.127774  0.061051
0.172583  0.154589  0.084078
0.212565  0.192514  0.099776
0.296075  0.242602  0.085788
0.328833  0.256493  0.080448
0.381062  0.297631  0.085670
0.449218  0.333052  0.081107
0.487276  0.367892  0.085617
0.539417  0.400886  0.077770
0.601617  0.434522  0.067322
0.654867  0.471047  0.065336
0.708894  0.513841  0.070439
0.769801  0.548727  0.066472
0.135140  0.129673  0.072728
0.134917  0.136316  0.073524
0.160312  0.153841  0.087573
0.178720  0.169147  0.088683
0.241409  0.220297  0.111020
0.319796  0.259380  0.096337
0.358341  0.280337  0.099505
0.429373  0.334529  0.092107
0.471822  0.356103  0.095569
0.501579  0.382419  0.081834
0.559086  0.426270  0.085987
0.620861  0.450455  0.081420
0.676341  0.492427  0.076681
0.703926  0.514092  0.077455
0.776103  0.568704  0.065253
0.162979  0.152885  0.090644
0.169243  0.151539  0.089442
0.194017  0.184700  0.114917
0.229807  0.209415  0.113114
0.290949  0.247467  0.120727
0.339284  0.274180  0.095797
0.387099  0.302035  0.099436
0.443753  0.341428  0.081221
0.495716  0.377566  0.088248
0.533690  0.405143  0.095684
0.586208  0.431387  0.076268
0.630039  0.480417  0.084490
0.679969  0.521274  0.094478
0.740022  0.536772  0.077168
0.775885  0.574025  0.081634
0.183335  0.166848  0.101198
0.207859  0.193732  0.105056
0.238585  0.215604  0.117010
0.278131  0.248232  0.128058
0.336417  0.275485  0.107440
0.397430  0.314299  0.104503
0.437453  0.342344  0.108950
0.467785  0.361422  0.114859
0.505032  0.390253  0.099283
0.559398  0.433897  0.102330
0.597158  0.457901  0.090754
0.652421  0.491478  0.078268
0.694533  0.511072  0.077155
0.772180  0.560542  0.071781
0.841127  0.621800  0.070502
0.231436  0.221256  0.146970
0.257220  0.230288  0.116321
0.275856  0.256812  0.144816
0.315863  0.277392  0.139137
0.372056  0.298524  0.121253
0.417565  0.330951  0.097327
0.462323  0.355864  0.100464
0.499167  0.390291  0.119028
0.544363  0.430079  0.113837
0.579220  0.445997  0.097850
0.650631  0.513494  0.093797
0.683293  0.518560  0.086489
0.751410  0.564803  0.074772
0.787035  0.594374  0.083411
0.849003  0.630711  0.075736
0.254950  0.227075  0.123981
0.282548  0.256914  0.128462
0.340400  0.292175  0.144357
0.368618  0.312260  0.147432
0.428083  0.331119  0.104254
0.446510  0.355875  0.113077
0.516422  0.403457  0.093749
0.549498  0.425338  0.098688
0.581057  0.451055  0.112620
0.616403  0.493528  0.088355
0.675901  0.527224  0.089070
0.707661  0.547003  0.079051
0.774804  0.597342  0.078171
0.808096  0.613844  0.081009
0.884369  0.652530  0.070576
0.297301  0.266943  0.136806
0.340019  0.296216  0.162003
0.371095  0.309595  0.122665
0.405039  0.334916  0.123974
0.454683  0.357598  0.108962
0.485243  0.387622  0.114642
0.534781  0.418576  0.110031
0.576871  0.461094  0.098583
0.617536  0.483606  0.096775
0.667685  0.546645  0.099615
0.697460  0.556833  0.092825
0.750250  0.599389  0.096887
0.797378  0.624083  0.090290
0.852426  0.665475  0.096074
0.889026  0.683942  0.086527
0.319691  0.276463  0.134626
0.385989  0.322324  0.128521
0.410545  0.336943  0.133095
0.471546  0.368869  0.108122
0.500575  0.394705  0.118515
0.547568  0.440834  0.111491
0.590802  0.464198  0.106412
0.624867  0.494766  0.105159
0.662842  0.527261  0.106946
0.706177  0.564079  0.099689
0.753577  0.609720  0.079683
0.770535  0.619381  0.090874
0.826805  0.652396  0.092052
0.874141  0.691674  0.085470
0.933732  0.728898  0.089611
0.370506  0.306253  0.150596
0.389966  0.334400  0.150721
0.430941  0.348684  0.118099
0.504811  0.401965  0.113039
0.540863  0.432428  0.118696
0.578514  0.458040  0.101901
0.629765  0.507065  0.097244
0.677744  0.545419  0.095024
0.700598  0.563978  0.089181
0.739827  0.601588  0.091412
0.783116  0.636943  0.097650
0.826930  0.659333  0.089569
0.853085  0.686889  0.076542
0.909983  0.723748  0.099697
0.932614  0.731859  0.097475
0.397617  0.340997  0.144170
0.453977  0.370125  0.136413
0.507084  0.408237  0.124672
0.533333  0.423136  0.113053
0.587942  0.474970  0.115779
0.607753  0.487038  0.097350
0.639434  0.502149  0.110293
0.690227  0.556238  0.115634
0.722067  0.586639  0.095827
0.743738  0.614223  0.088920
0.798764  0.653412  0.078730
0.858141  0.685469  0.109371
0.890813  0.717607  0.091216
0.916245  0.738538  0.095972
0.982813  0.762590  0.083837
0.469054  0.375540  0.125903
0.522732  0.420224  0.095502
0.548651  0.437466  0.115958
0.601015  0.471086  0.100034
0.611659  0.490773  0.107214
0.670170  0.531562  0.114575
0.701536  0.570225  0.099222
0.710751  0.581413  0.098880
0.767349  0.619397  0.096281
0.791488  0.646815  0.103222
0.823449  0.678826  0.107159
0.884012  0.707145  0.099807
0.904015  0.747470  0.097682
0.980058  0.767765  0.094868
1.002340  0.772413  0.094594
0.494585  0.392035  0.138266
0.530757  0.418525  0.106022
0.578648  0.458011  0.096441
0.585763  0.465882  0.105513
0.661137  0.531147  0.099677
0.685258  0.537833  0.090720
0.700858  0.583791  0.111923
0.765767  0.632463  0.082315
0.793561  0.635306  0.095212
0.823939  0.676213  0.104769
0.863118  0.703941  0.096603
0.882848  0.716509  0.104983
0.933807  0.753194  0.096052
0.976121  0.770521  0.083141
1.006774  0.789688  0.098048
0.541567  0.433351  0.128792
0.576671  0.457151  0.101699
0.593795  0.469517  0.099618
0.652155  0.511176  0.099929
0.679962  0.551183  0.104854
0.719282  0.574128  0.101521
0.754722  0.603669  0.101609
0.779941  0.644737  0.111109
0.820802  0.668308  0.112413
0.844974  0.691351  0.111543
0.903741  0.736677  0.108036
0.912479  0.738605  0.108879
0.976207  0.772983  0.096044
1.023561  0.802909  0.103713
1.063982  0.818716  0.102503
0.105993  0.104479  0.052577
0.110195  0.108369  0.065004
0.117621  0.111840  0.060928
0.159269  0.142050  0.077446
0.182017  0.167652  0.086469
0.222109  0.192631  0.091585
0.283490  0.231128  0.089636
0.372071  0.283749  0.083428
0.405224  0.315471  0.081948
0.450026  0.343866  0.083514
0.509113  0.378569  0.074272
0.565781  0.406531  0.068992
0.600829  0.448656  0.072318
0.667843  0.481952  0.069277
0.728452  0.491941  0.069663
0.121422  0.112684  0.058791
0.131202  0.130901  0.075965
0.151587  0.142118  0.077145
0.156904  0.143722  0.077296
0.211595  0.182914  0.088668
0.276613  0.244074  0.106374
0.333446  0.271547  0.102421
0.361352  0.289748  0.102856
0.431642  0.330470  0.078357
0.476670  0.349891  0.077545
0.525540  0.397646  0.077728
0.576014  0.427481  0.075699
0.628523  0.463032  0.073424
0.711208  0.500117  0.071136
0.736089  0.524096  0.068553
0.134886  0.128772  0.072076
0.143916  0.144676  0.095842
0.160542  0.156474  0.092095
0.182673  0.180870  0.107858
0.215598  0.202363  0.109528
0.288766  0.246012  0.115199
0.312092  0.265168  0.117546
0.384728  0.304285  0.105002
0.434670  0.342648  0.097146
0.507773  0.385330  0.098036
0.552722  0.409080  0.086246
0.597293  0.438215  0.081831
0.664098  0.486257  0.071639
0.706703  0.502648  0.070609
0.745161  0.527472  0.072656
0.154471  0.155039  0.103118
0.159458  0.160296  0.112000
0.175171  0.181391  0.130792
0.205591  0.196656  0.135620
0.223880  0.218287  0.133480
0.313359  0.273947  0.139383
0.367754  0.305221  0.130344
0.400599  0.322282  0.126240
0.469515  0.362412  0.103563
0.516654  0.389482  0.080540
0.553523  0.422333  0.096650
0.628288  0.469765  0.080207
0.656300  0.491612  0.079240
0.695597  0.513822  0.076487
0.771890  0.546506  0.077675
0.157368  0.162414  0.119001
0.187433  0.207625  0.167881
0.196556  0.202195  0.146851
0.225062  0.227401  0.149950
0.276177  0.259748  0.157716
0.320916  0.283454  0.148398
0.386749  0.318413  0.125559
0.439716  0.352457  0.116570
0.489237  0.385545  0.121580
0.540237  0.412083  0.110116
0.593329  0.447362  0.106447
0.641089  0.489328  0.097625
0.683686  0.507548  0.092526
0.736133  0.561235  0.081967
0.798000  0.592613  0.089434
0.177305  0.197165  0.160125
0.201001  0.205757  0.157969
0.228689  0.231214  0.175641
0.259478  0.250431  0.162383
0.300191  0.274418  0.162950
0.352303  0.315638  0.171992
0.407627  0.340081  0.141455
0.465751  0.377223  0.122797
0.531120  0.407724  0.109340
0.570341  0.439917  0.121536
0.617422  0.479257  0.098509
0.653958  0.500617  0.114615
0.700860  0.532737  0.095067
0.775989  0.589560  0.097386
0.815593  0.611797  0.087567
0.202000  0.229085  0.188171
0.234933  0.238251  0.176195
0.261248  0.263227  0.194352
0.308209  0.284159  0.185781
0.338952  0.303458  0.161371
0.396392  0.332355  0.171778
0.441896  0.365944  0.153347
0.492361  0.399451  0.142152
0.529513  0.402458  0.136135
0.589913  0.451885  0.120197
0.627301  0.491014  0.135224
0.686043  0.539269  0.126826
0.748205  0.560264  0.132052
0.800791  0.605627  0.115419
0.841786  0.637365  0.091206
0.268365  0.273687  0.206163
0.277572  0.283611  0.214105
0.323943  0.301661  0.189365
0.354785  0.319598  0.180402
0.386642  0.336664  0.176566
0.435166  0.357375  0.162725
0.484621  0.407192  0.179914
0.538599  0.432570  0.135346
0.589514  0.461091  0.133933
0.634421  0.492539  0.133206
0.669919  0.522815  0.133123
0.708150  0.551095  0.123658
0.754290  0.584858  0.116002
0.811506  0.631412  0.108916
0.866676  0.662768  0.097705
0.289983  0.282727  0.198849
0.320387  0.302000  0.195714
0.336933  0.302370  0.182553
0.387349  0.343223  0.184574
0.424967  0.375412  0.192955
0.454867  0.381481  0.176290
0.528439  0.444154  0.176776
0.556697  0.445921  0.134034
0.616092  0.490051  0.117421
0.664646  0.531371  0.128633
0.715551  0.572393  0.101012
0.738156  0.599290  0.126023
0.791492  0.623907  0.124736
0.837869  0.656835  0.132506
0.906221  0.693695  0.121791
0.299821  0.298025  0.215697
0.351699  0.338030  0.212904
0.387695  0.344819  0.175005
0.417910  0.374299  0.214563
0.463628  0.395351  0.192678
0.525143  0.434763  0.163811
0.570220  0.470191  0.168802
0.608650  0.486423  0.120828
0.664750  0.523340  0.139671
0.695727  0.564130  0.123096
0.742166  0.601950  0.110328
0.784828  0.625629  0.121382
0.820053  0.654486  0.126059
0.871939  0.695526  0.132128
0.910147  0.710180  0.125306
0.361490  0.330686  0.196049
0.382833  0.342267  0.201970
0.434468  0.376900  0.199612
0.494033  0.405811  0.162288
0.505207  0.418469  0.161211
0.556548  0.450083  0.167693
0.580976  0.474178  0.152636
0.650029  0.538306  0.138340
0.684716  0.563666  0.115784
0.732465  0.598833  0.128818
0.765249  0.626845  0.112940
0.814732  0.654409  0.119972
0.867973  0.700686  0.128073
0.905925  0.706468  0.123843
0.978230  0.760601  0.135800
0.388479  0.348965  0.208541
0.435348  0.375126  0.206628
0.476458  0.409113  0.203549
0.507404  0.420673  0.177692
0.564030  0.464450  0.175094
0.605068  0.494028  0.159715
0.625665  0.508689  0.150480
0.687825  0.547886  0.129952
0.721949  0.578254  0.148372
0.776997  0.631952  0.114718
0.798969  0.642653  0.123855
0.829952  0.697607  0.121748
0.894338  0.725925  0.125511
0.935759  0.746817  0.131520
0.974821  0.781312  0.139925
0.431741  0.376805  0.205565
0.458364  0.390244  0.207112
0.525635  0.426664  0.177466
0.545329  0.441603  0.186932
0.596144  0.484178  0.182432
0.645650  0.528318  0.160099
0.680962  0.555365  0.123695
0.709807  0.577357  0.134939
0.753403  0.614776  0.126040
0.796197  0.655345  0.126248
0.833167  0.685221  0.118502
0.864847  0.696965  0.140061
0.921630  0.748859  0.112336
0.952803  0.769187  0.154404
0.988709  0.777702  0.116855
0.471801  0.402780  0.201362
0.520010  0.426476  0.184176
0.521303  0.430917  0.186521
0.591016  0.481652  0.165882
0.625443  0.514975  0.146521
0.678651  0.562812  0.140420
0.717646  0.576444  0.135652
0.764581  0.634217  0.119177
0.787488  0.638283  0.137615
0.811002  0.661825  0.133432
0.842831  0.692378  0.133715
0.906317  0.733061  0.140598
0.933525  0.749419  0.126237
0.994638  0.780219  0.134834
1.020354  0.802920  0.138400
0.504596  0.422980  0.215002
0.543469  0.457214  0.203605
0.596458  0.492435  0.161401
0.637933  0.517752  0.155740
0.679097  0.551696  0.168370
0.718469  0.592158  0.139521
0.765371  0.619315  0.136337
0.781825  0.633350  0.135147
0.825079  0.674314  0.125281
0.867472  0.702701  0.142093
0.895065  0.730395  0.121010
0.921235  0.742469  0.135593
0.973455  0.767832  0.126571
1.031085  0.799353  0.121203
1.066954  0.822590  0.141679
0.126626  0.125946  0.075628
0.117328  0.110781  0.062863
0.143504  0.149500  0.094288
0.161632  0.167708  0.117374
0.194601  0.176828  0.092521
0.233984  0.206424  0.098879
0.315603  0.265652  0.107006
0.376165  0.292991  0.101403
0.407796  0.314098  0.098581
0.458572  0.338892  0.091436
0.510800  0.387232  0.081670
0.566530  0.416609  0.082361
0.599248  0.445454  0.082165
0.667219  0.477940  0.069039
0.725326  0.506997  0.079038
0.133154  0.140988  0.097600
0.147992  0.149464  0.107390
0.159833  0.163168  0.118229
0.186227  0.190090  0.135124
0.207943  0.197444  0.126039
0.245720  0.223258  0.121822
0.326244  0.275779  0.114948
0.385880  0.306789  0.117003
0.431011  0.331597  0.100809
0.475826  0.363211  0.098059
0.537273  0.401212  0.085884
0.577407  0.422232  0.083468
0.649925  0.476005  0.080685
0.704158  0.493622  0.068604
0.744254  0.537207  0.073429
0.145306  0.154891  0.111730
0.170393  0.177178  0.132835
0.183137  0.190653  0.137487
0.202839  0.215327  0.173045
0.229627  0.223411  0.150994
0.295222  0.258469  0.139517
0.334988  0.292298  0.139559
0.385140  0.323178  0.140585
0.453223  0.355362  0.108312
0.504717  0.389874  0.107713
0.544095  0.421378  0.103889
0.609045  0.454714  0.083866
0.643239  0.474235  0.091130
0.702677  0.518966  0.085043
0.781417  0.562349  0.074885
0.161938  0.176957  0.141040
0.176822  0.199593  0.169031
0.190444  0.211929  0.182871
0.208519  0.225767  0.173165
0.260259  0.264477  0.190933
0.293542  0.282310  0.182779
0.364111  0.320991  0.161322
0.407622  0.336285  0.138227
0.478260  0.380786  0.120521
0.534247  0.417252  0.111606
0.543747  0.415615  0.117847
0.620333  0.477038  0.109321
0.673695  0.512105  0.103853
0.715484  0.531181  0.089603
0.787594  0.558857  0.096044
0.187048  0.215667  0.187383
0.207154  0.231225  0.209729
0.204173  0.235506  0.202913
0.231631  0.249803  0.207432
0.264979  0.272559  0.203917
0.312443  0.302851  0.197897
0.348615  0.315769  0.190229
0.440460  0.364497  0.160115
0.461098  0.368883  0.159662
0.540054  0.412471  0.112663
0.594507  0.467540  0.119905
0.625208  0.479981  0.120100
0.689175  0.522809  0.128859
0.723844  0.554046  0.110842
0.803523  0.585838  0.106963
0.198919  0.226900  0.200606
0.205724  0.238768  0.217161
0.225749  0.255474  0.226948
0.253911  0.276948  0.241308
0.306575  0.309819  0.249629
0.351214  0.328776  0.225662
0.425555  0.363431  0.185029
0.453784  0.383798  0.193468
0.503335  0.401179  0.163035
0.536708  0.431325  0.163284
0.599844  0.480025  0.148305
0.657881  0.518364  0.144204
0.727072  0.552957  0.123129
0.759307  0.590938  0.145772
0.793228  0.610931  0.137292
0.215261  0.254838  0.228960
0.225523  0.255154  0.237363
0.263712  0.290490  0.249376
0.288198  0.313918  0.264902
0.333408  0.323470  0.244286
0.396256  0.368120  0.242572
0.431131  0.375517  0.212593
0.483785  0.406485  0.207018
0.530641  0.443339  0.188489
0.566976  0.450760  0.166797
0.617364  0.485037  0.166256
0.701252  0.552433  0.154049
0.732708  0.576470  0.158756
0.789797  0.617414  0.119695
0.853824  0.659533  0.156889
0.231103  0.266429  0.251623
0.269328  0.301522  0.269076
0.294065  0.324594  0.277422
0.326013  0.337556  0.275627
0.364350  0.340831  0.241810
0.436435  0.374399  0.208550
0.457147  0.399242  0.235641
0.517451  0.432257  0.213803
0.556645  0.463793  0.219557
0.601550  0.490590  0.189382
0.685892  0.549814  0.158155
0.715989  0.570472  0.183645
0.769023  0.605492  0.172658
0.808112  0.620007  0.162622
0.850400  0.652169  0.159079
0.267207  0.298939  0.263781
0.291127  0.321244  0.280440
0.322697  0.343869  0.277532
0.356973  0.357460  0.267039
0.408603  0.375239  0.245025
0.450003  0.407745  0.268690
0.503942  0.434090  0.234444
0.543503  0.461143  0.209157
0.582344  0.491993  0.231098
0.662481  0.533883  0.186936
0.732709  0.582182  0.164538
0.751936  0.600539  0.172300
0.778888  0.618294  0.181554
0.849402  0.666506  0.191543
0.905671  0.703875  0.183092
0.286887  0.326004  0.303296
0.336475  0.345737  0.282705
0.374003  0.365510  0.273186
0.390714  0.378187  0.267812
0.474802  0.414873  0.254673
0.517061  0.440873  0.247890
0.524075  0.448070  0.247230
0.600928  0.500914  0.232463
0.637763  0.526937  0.202847
0.665923  0.547600  0.198331
0.745168  0.596335  0.163913
0.796852  0.638117  0.165920
0.814204  0.658606  0.171049
0.886314  0.703753  0.184451
