LUT/LUT_6.CUBE
TITLE "LUT_6" 
#LUT size 
LUT_3D_SIZE 15 
DOMAIN_MIN 0.0 0.0 0.0 
DOMAIN_MAX 1.0 1.0 1.0 
#data point 
0.026079  0.029559  0.009987
0.050501  0.051833  0.025708
0.091947  0.080478  0.032274
0.156532  0.116755  0.037377
0.230473  0.140382  0.025803
0.289214  0.147838  0.020299
0.370480  0.166534  0.013059
0.419659  0.169224  0.011759
0.494330  0.184051  0.007965
0.561588  0.195472  0.010188
0.630009  0.200996  0.000836
0.688757  0.202387  -0.001667
0.771491  0.212669  -0.007585
0.825516  0.215292  -0.010741
0.907289  0.223738  -0.021296
0.049950  0.048190  0.023453
0.074957  0.068118  0.031310
0.110404  0.101510  0.038172
0.177048  0.138576  0.040076
0.237351  0.154586  0.031087
0.303797  0.178290  0.024595
0.377493  0.195858  0.023799
0.431965  0.209407  0.024917
0.500555  0.221679  0.018036
0.561284  0.228061  0.014828
0.631604  0.238502  0.015997
0.704969  0.252026  0.009571
0.774094  0.257208  0.007903
0.840264  0.257569  -0.001719
0.905979  0.272230  -0.003627
0.081805  0.086602  0.042057
0.102189  0.097319  0.041661
0.139989  0.124412  0.050811
0.197620  0.151841  0.044443
0.266637  0.181998  0.038242
0.322186  0.199284  0.035696
0.387817  0.218304  0.033030
0.442178  0.231337  0.026404
0.511645  0.256159  0.028606
0.575875  0.265479  0.023794
0.644033  0.278624  0.018577
0.711641  0.293103  0.018426
0.779800  0.304151  0.016186
0.852755  0.304055  0.015407
0.918690  0.313008  0.011986
0.115574  0.107886  0.051394
0.143887  0.127835  0.057443
0.179841  0.156561  0.054389
0.229408  0.187100  0.050588
0.287811  0.212642  0.044006
0.341517  0.234376  0.040571
0.402762  0.247044  0.039319
0.468910  0.269841  0.036307
0.528206  0.286564  0.032834
0.594776  0.304842  0.028277
0.649920  0.316149  0.028904
0.719120  0.321969  0.029146
0.791667  0.339386  0.025993
0.859054  0.338386  0.020373
0.929905  0.359752  0.026765
0.152556  0.134873  0.062191
0.185127  0.164387  0.066515
0.224886  0.193664  0.066945
0.259770  0.222733  0.052206
0.303707  0.255967  0.044046
0.362730  0.281866  0.051775
0.415726  0.295269  0.044143
0.479591  0.312266  0.045852
0.541945  0.328815  0.039926
0.612315  0.336198  0.037375
0.661907  0.357529  0.039152
0.745494  0.379217  0.035526
0.799123  0.375187  0.033751
0.866627  0.390219  0.027503
0.927434  0.405048  0.029103
0.190406  0.174296  0.076842
0.222284  0.201158  0.061915
0.259162  0.230666  0.054767
0.296780  0.272616  0.046865
0.330689  0.293686  0.043569
0.373213  0.321762  0.048357
0.438797  0.344997  0.045651
0.499095  0.362404  0.043733
0.552965  0.369816  0.043947
0.610012  0.380763  0.034230
0.682447  0.391434  0.037196
0.746439  0.408175  0.043743
0.812428  0.424847  0.036261
0.885072  0.437622  0.041213
0.945271  0.451499  0.041341
0.226951  0.217434  0.068689
0.255951  0.244623  0.067092
0.298322  0.283892  0.059200
0.335507  0.313103  0.052742
0.357251  0.347206  0.052661
0.406803  0.369497  0.051574
0.449950  0.388330  0.049101
0.508880  0.414946  0.049514
0.565562  0.424570  0.046785
0.623504  0.451183  0.044561
0.686871  0.458374  0.037481
0.751228  0.459738  0.045205
0.821933  0.466471  0.043634
0.891178  0.475702  0.047594
0.958525  0.485641  0.047363
0.258678  0.264872  0.079287
0.292707  0.293496  0.057903
0.322796  0.318110  0.052606
0.363821  0.347910  0.051806
0.398482  0.390837  0.053464
0.437237  0.426201  0.043227
0.470034  0.444702  0.043451
0.514453  0.463871  0.046034
0.582374  0.484139  0.043363
0.638915  0.498150  0.044823
0.712122  0.509031  0.043648
0.767258  0.529217  0.050387
0.830399  0.533232  0.047754
0.905118  0.537048  0.049076
0.972524  0.542656  0.055790
0.292143  0.299277  0.074721
0.324964  0.339704  0.073380
0.358107  0.368017  0.051620
0.391791  0.388482  0.048761
0.429443  0.432649  0.048280
0.456178  0.457903  0.050696
0.504796  0.489423  0.050132
0.542901  0.517962  0.052339
0.596235  0.532642  0.046648
0.656890  0.557803  0.047293
0.706435  0.572268  0.046401
0.771313  0.571248  0.048119
0.846001  0.581655  0.045736
0.901203  0.599150  0.046921
0.969384  0.604741  0.051661
0.323622  0.349989  0.066415
0.354031  0.373889  0.056409
0.389050  0.406359  0.056833
0.429837  0.438466  0.053072
0.454927  0.468348  0.050712
0.494134  0.492811  0.046796
0.537828  0.525452  0.050190
0.573836  0.553654  0.049850
0.621250  0.582915  0.049857
0.670627  0.600561  0.042988
0.728537  0.623495  0.043064
0.784251  0.642212  0.047673
0.841406  0.651618  0.048534
0.913327  0.658343  0.053639
0.975356  0.672839  0.054240
0.345656  0.383398  0.060845
0.379345  0.409722  0.062821
0.421797  0.450488  0.051777
0.454039  0.476169  0.056653
0.502092  0.509430  0.046495
0.525769  0.541198  0.051541
0.567515  0.568390  0.052256
0.613216  0.594205  0.045565
0.657460  0.626764  0.044067
0.691169  0.640406  0.044273
0.748512  0.668138  0.050930
0.796374  0.681124  0.047688
0.854994  0.708314  0.050631
0.917585  0.728954  0.048727
0.983077  0.731011  0.053613
0.378713  0.421613  0.063244
0.416117  0.453836  0.054664
0.448562  0.479699  0.053685
0.481504  0.511226  0.040129
0.521599  0.540288  0.048480
0.561942  0.569658  0.051339
0.597075  0.595809  0.046515
0.635803  0.619470  0.045274
0.681736  0.653097  0.050151
0.730701  0.669463  0.048171
0.773590  0.697046  0.046174
0.826734  0.720791  0.050773
0.889691  0.745851  0.050261
0.943494  0.774903  0.052537
0.989230  0.789448  0.051026
0.406528  0.464165  0.061518
0.441201  0.490777  0.053821
0.480200  0.520623  0.051213
0.516199  0.547162  0.049790
0.551231  0.580810  0.046644
0.585505  0.605715  0.053134
0.625986  0.629654  0.049156
0.668273  0.654277  0.047804
0.714886  0.688620  0.052829
0.757703  0.705055  0.050005
0.804062  0.734059  0.055383
0.851747  0.757235  0.052364
0.896362  0.778570  0.054753
0.950104  0.804063  0.049897
1.011642  0.830645  0.050905
0.434316  0.505209  0.054825
0.468537  0.533208  0.056527
0.512466  0.559689  0.050251
0.548356  0.586446  0.046062
0.587119  0.613831  0.053356
0.624704  0.639563  0.041213
0.661616  0.664396  0.049468
0.702202  0.693528  0.052054
0.744970  0.711873  0.047103
0.783703  0.733516  0.049117
0.828132  0.763538  0.046727
0.884491  0.789726  0.048706
0.929943  0.809769  0.054694
0.975992  0.836150  0.052062
1.026694  0.854403  0.056320
0.460433  0.541472  0.052727
0.499285  0.561367  0.054102
0.531961  0.586845  0.050725
0.582355  0.624956  0.047779
0.615614  0.647667  0.051674
0.645847  0.673781  0.045100
0.691736  0.694519  0.049149
0.730187  0.722002  0.047277
0.770840  0.752443  0.050567
0.812904  0.773586  0.055972
0.855135  0.794437  0.049988
0.905308  0.820353  0.059989
0.952358  0.840918  0.059103
1.007090  0.870090  0.051607
1.060485  0.895679  0.049378
0.043793  0.043614  0.021730
0.059920  0.060439  0.022841
0.100030  0.086575  0.039095
0.147698  0.115691  0.037073
0.215026  0.141657  0.035091
0.291330  0.155948  0.023707
0.365526  0.172095  0.020830
0.415784  0.182011  0.015722
0.495254  0.195326  0.010687
0.553491  0.190261  0.007910
0.621536  0.200977  0.005217
0.701410  0.218025  0.006492
0.771334  0.219986  0.002672
0.829498  0.223513  -0.001657
0.900265  0.217954  -0.006627
0.062904  0.068193  0.041788
0.080647  0.082289  0.046856
0.115780  0.109271  0.048647
0.172306  0.142843  0.056223
0.234311  0.172382  0.046449
0.307573  0.183283  0.035460
0.373620  0.195126  0.031082
0.426244  0.214747  0.033441
0.495850  0.227248  0.024031
0.570009  0.246100  0.023581
0.629611  0.259190  0.017061
0.700871  0.258774  0.022746
0.769846  0.265671  0.014653
0.841776  0.267608  0.007933
0.904047  0.283225  0.015517
0.080425  0.095877  0.065512
0.105956  0.102097  0.059222
0.147967  0.139127  0.072699
0.193327  0.169598  0.073647
0.250102  0.192786  0.061342
0.321727  0.207118  0.053775
0.377692  0.234026  0.049546
0.448194  0.246736  0.040934
0.507598  0.263868  0.028485
0.574342  0.278289  0.031486
0.643321  0.288418  0.025468
0.708601  0.303982  0.025168
0.783449  0.308519  0.024922
0.851554  0.315308  0.022367
0.922130  0.321098  0.021925
0.109905  0.123526  0.088022
0.147991  0.143773  0.087829
0.179261  0.169592  0.084295
0.209448  0.188914  0.083837
0.275876  0.218164  0.075943
0.340758  0.246461  0.070045
0.393360  0.263113  0.066320
0.458322  0.279862  0.062578
0.523170  0.293474  0.044911
0.583739  0.306570  0.041425
0.649369  0.325613  0.042752
0.719993  0.349590  0.039618
0.784427  0.338549  0.026580
0.857415  0.363112  0.030242
0.921025  0.369473  0.030897
0.152500  0.150998  0.095450
0.182578  0.171232  0.094751
0.220240  0.201670  0.096417
0.254691  0.229492  0.088430
0.307540  0.260799  0.083990
0.351461  0.279112  0.083323
0.413239  0.298822  0.066941
0.466773  0.310940  0.061078
0.536450  0.330049  0.069781
0.597324  0.348848  0.061424
0.652216  0.363458  0.046659
0.731455  0.382166  0.044371
0.792989  0.384454  0.042784
0.857590  0.399663  0.036855
0.928473  0.409607  0.040512
0.184249  0.181597  0.107548
0.220621  0.206298  0.102086
0.256318  0.243520  0.109450
0.281678  0.266425  0.101900
0.335453  0.299784  0.073483
0.378372  0.328612  0.088057
0.439443  0.351013  0.074274
0.484765  0.361480  0.082740
0.544936  0.381482  0.075424
0.608800  0.392013  0.075963
0.676456  0.401041  0.067765
0.748792  0.416928  0.051058
0.809120  0.425916  0.054253
0.881107  0.439861  0.048798
0.947799  0.458223  0.051418
0.225821  0.228654  0.124381
0.255114  0.254309  0.113594
0.290527  0.281273  0.109911
0.321909  0.312376  0.106352
0.363159  0.345078  0.090161
0.404098  0.377229  0.078476
0.449752  0.397966  0.072886
0.507505  0.414989  0.079873
0.560838  0.428782  0.074030
0.626223  0.429420  0.071351
0.692385  0.457093  0.067047
0.765816  0.463375  0.060681
0.821717  0.476489  0.065540
0.902562  0.481594  0.058933
0.959687  0.497590  0.057529
0.255554  0.271316  0.113533
0.288436  0.293822  0.113538
0.319246  0.328270  0.113026
0.353554  0.349200  0.107267
0.402094  0.385164  0.082242
0.431720  0.423720  0.086277
0.481262  0.453519  0.070453
0.530244  0.468636  0.074478
0.582856  0.482729  0.083883
0.634050  0.493816  0.070711
0.701780  0.513678  0.072867
0.761585  0.519941  0.059471
0.829729  0.531563  0.065114
0.902563  0.541949  0.063811
0.973995  0.545790  0.064090
0.282794  0.301997  0.117805
0.321377  0.336333  0.116519
0.353223  0.363299  0.113813
0.383864  0.387342  0.106058
0.423022  0.425443  0.089494
0.465475  0.457742  0.074896
0.500100  0.483912  0.075843
0.535890  0.513267  0.072480
0.600340  0.534473  0.073965
0.655208  0.563551  0.074580
0.710478  0.570390  0.073860
0.773709  0.576300  0.074795
0.843139  0.594078  0.074529
0.911645  0.595743  0.066593
0.972062  0.605731  0.068170
0.304941  0.341547  0.121736
0.350702  0.376005  0.117333
0.388631  0.408992  0.110486
0.418725  0.432506  0.098170
0.453969  0.461805  0.092986
0.497710  0.503821  0.079028
0.540172  0.537116  0.085881
0.574595  0.557603  0.081423
0.618179  0.585764  0.085561
0.670852  0.607671  0.077261
0.725828  0.631933  0.070265
0.784405  0.645179  0.066963
0.849868  0.657252  0.067014
0.917406  0.659970  0.067232
0.980576  0.671818  0.070129
0.343765  0.384810  0.112732
0.365507  0.409507  0.116761
0.409240  0.445402  0.110962
0.456738  0.482448  0.104945
0.485861  0.502574  0.090836
0.529523  0.538339  0.088999
0.565486  0.572444  0.079646
0.608583  0.598485  0.082758
0.650914  0.619240  0.079771
0.692088  0.643649  0.085820
0.749840  0.675209  0.074369
0.796285  0.689360  0.072974
0.859547  0.709941  0.062313
0.918996  0.734218  0.072135
0.992951  0.715590  0.070655
0.367926  0.418090  0.114226
0.405065  0.445286  0.105795
0.447693  0.481341  0.094550
0.480415  0.514338  0.091042
0.524967  0.549118  0.094967
0.560520  0.576671  0.088063
0.592455  0.596241  0.079101
0.638062  0.623537  0.085546
0.676114  0.647566  0.088239
0.724155  0.670227  0.078148
0.776793  0.702441  0.077503
0.818250  0.728155  0.092382
0.877844  0.745004  0.076189
0.928739  0.770203  0.066016
0.985538  0.788478  0.070476
0.392528  0.465225  0.116972
0.445426  0.494971  0.084903
0.471222  0.518202  0.100399
0.510211  0.551118  0.091065
0.551411  0.575696  0.087299
0.584957  0.605546  0.079705
0.632107  0.635500  0.081445
0.672810  0.658632  0.082786
0.711533  0.689382  0.084168
0.752805  0.712520  0.089545
0.804143  0.737549  0.083876
0.855492  0.768644  0.078414
0.899467  0.781991  0.079699
0.957756  0.812125  0.082899
1.011266  0.832727  0.075286
0.426889  0.504910  0.108405
0.458366  0.524945  0.091827
0.506643  0.558534  0.088971
0.538244  0.581428  0.087850
0.577394  0.607473  0.075854
0.623716  0.636294  0.079263
0.658369  0.669508  0.089135
0.702216  0.693438  0.081217
0.749961  0.719687  0.084186
0.774440  0.739487  0.086043
0.829961  0.769828  0.080763
0.877173  0.794479  0.088547
0.932052  0.819126  0.088930
0.979446  0.844838  0.070647
1.032578  0.862628  0.074639
0.455274  0.541596  0.106072
0.499321  0.567294  0.089379
0.529505  0.593032  0.097359
0.576379  0.621981  0.081970
0.607404  0.647034  0.081307
0.649055  0.677029  0.081993
0.690333  0.694614  0.080533
0.735105  0.723752  0.082236
0.766967  0.745270  0.087058
0.808543  0.773734  0.086236
0.857241  0.802812  0.091128
0.897250  0.814053  0.081665
0.950811  0.848878  0.080945
1.001197  0.872026  0.077544
1.064760  0.899573  0.083892
0.062411  0.075829  0.062412
0.080695  0.090596  0.061164
0.106955  0.108148  0.067801
0.162286  0.136856  0.062362
0.219047  0.159404  0.052144
0.289425  0.174313  0.050991
0.351057  0.191971  0.044007
0.420916  0.199241  0.045510
0.492554  0.205314  0.046708
0.547270  0.211873  0.038348
0.619589  0.208983  0.028146
0.695925  0.226031  0.032634
0.757948  0.229783  0.028523
0.838085  0.236965  0.017507
0.906268  0.235150  0.023956
0.081800  0.103818  0.086347
0.092727  0.113482  0.088803
0.126122  0.131359  0.102330
0.173109  0.159135  0.095004
0.242747  0.188606  0.088137
0.306294  0.207515  0.073528
0.368080  0.222177  0.068646
0.423423  0.231228  0.056984
0.501279  0.253655  0.049184
0.559191  0.259554  0.050982
0.632226  0.267394  0.045030
0.698124  0.274511  0.040697
0.771143  0.286984  0.039493
0.845932  0.284871  0.029329
0.906262  0.288699  0.035953
0.086534  0.119895  0.118277
0.111117  0.138841  0.126767
0.138472  0.155889  0.126742
0.196630  0.188156  0.113589
0.242750  0.209795  0.105971
0.316336  0.231017  0.096060
0.380406  0.245705  0.083278
0.439550  0.270698  0.071212
0.506532  0.287415  0.081201
0.568533  0.301095  0.084424
0.634319  0.313207  0.062699
0.702489  0.316837  0.055074
0.776764  0.317939  0.053832
0.845122  0.336706  0.051793
0.907543  0.329893  0.041594
0.108176  0.149623  0.147682
0.137606  0.167315  0.144797
0.165234  0.183720  0.144836
0.215570  0.210149  0.140909
0.251521  0.232976  0.135560
0.331948  0.258623  0.124714
0.397724  0.287519  0.113490
0.446602  0.292453  0.105882
0.522623  0.316791  0.091336
0.578330  0.341114  0.097410
0.640926  0.338599  0.084000
0.703169  0.355663  0.076897
0.782879  0.369602  0.058293
0.846452  0.377402  0.057806
0.915311  0.386629  0.055738
0.137693  0.176034  0.169273
0.171042  0.202097  0.173391
0.205649  0.219035  0.161569
0.243379  0.235472  0.154032
0.298225  0.266344  0.144070
0.333893  0.284824  0.143384
0.406739  0.309073  0.129098
0.470296  0.335250  0.119162
0.525429  0.349765  0.112044
0.592254  0.365138  0.111586
0.656256  0.382748  0.104991
0.721056  0.398745  0.099798
0.796613  0.412744  0.093889
0.851351  0.425835  0.074399
0.929409  0.430158  0.069413
0.164923  0.197950  0.184350
0.200806  0.223436  0.174659
0.236572  0.245592  0.178384
0.280065  0.274572  0.173326
0.320634  0.301369  0.159025
0.362851  0.337554  0.159751
0.430474  0.349681  0.148161
0.488371  0.364394  0.138001
0.548583  0.380872  0.129946
0.608297  0.406238  0.129738
0.669652  0.420135  0.122466
0.731217  0.441636  0.124819
0.795841  0.440156  0.107288
0.875750  0.461548  0.095130
0.933561  0.472676  0.092566
0.203397  0.232978  0.186626
0.245170  0.256469  0.184022
0.284916  0.290490  0.180580
0.314054  0.314573  0.161383
0.355267  0.348819  0.155131
0.394072  0.377898  0.159940
0.451139  0.397751  0.146714
0.508996  0.413743  0.136711
0.557660  0.428997  0.129401
0.624046  0.451122  0.138500
0.684178  0.460799  0.138521
0.753534  0.465396  0.140681
0.824760  0.478304  0.133090
0.886486  0.497643  0.114344
0.944240  0.515523  0.099558
0.246226  0.273152  0.194323
0.275288  0.300959  0.187184
0.313863  0.325006  0.176376
0.355603  0.352585  0.165759
0.387013  0.387767  0.170541
0.416707  0.410005  0.164885
0.472587  0.446399  0.153726
0.528234  0.466277  0.134209
0.589370  0.477085  0.129327
0.640288  0.502335  0.133019
0.694308  0.511390  0.140689
0.754322  0.528384  0.139129
0.822603  0.534017  0.137028
0.904307  0.542499  0.125171
0.960431  0.555568  0.115389
0.268260  0.303774  0.191304
0.314825  0.338882  0.184525
0.342373  0.366645  0.176173
0.387804  0.397423  0.174664
0.416861  0.426598  0.176345
0.450216  0.456814  0.162450
0.497200  0.496816  0.153592
0.541634  0.522745  0.142573
0.592934  0.539160  0.131420
0.651760  0.552809  0.137045
0.715895  0.565735  0.138031
0.765447  0.582924  0.139666
0.838367  0.595525  0.140884
0.902557  0.598895  0.128971
0.969231  0.612816  0.124838
0.299280  0.345407  0.196705
0.344709  0.379434  0.180167
0.376380  0.406440  0.173828
0.409546  0.439044  0.182326
0.449762  0.460269  0.175121
0.482102  0.499132  0.163574
0.528100  0.532146  0.151219
0.568461  0.562519  0.146034
0.614346  0.592777  0.143321
0.673435  0.611164  0.134136
0.727187  0.628062  0.140056
0.785804  0.642668  0.144335
0.849687  0.650325  0.142995
0.902551  0.659585  0.141448
0.975553  0.662555  0.129522
0.330084  0.386493  0.192674
0.364848  0.414604  0.174217
0.408651  0.448920  0.177080
0.444919  0.471730  0.169223
0.479344  0.503741  0.165477
0.522682  0.531763  0.157762
0.553258  0.564601  0.161102
0.607388  0.587286  0.146575
0.644577  0.620417  0.137185
0.693787  0.649437  0.144414
0.746052  0.669637  0.147138
0.796853  0.694490  0.142376
0.845838  0.713026  0.141119
0.917865  0.719719  0.134605
0.996948  0.733694  0.132684
0.361118  0.428805  0.183669
0.397638  0.454082  0.183314
0.437805  0.489047  0.179255
0.481425  0.509262  0.170336
0.511490  0.538357  0.173441
0.555995  0.571786  0.166510
0.584770  0.591016  0.159981
0.624838  0.623384  0.143822
0.671548  0.659908  0.144210
0.729149  0.682627  0.137961
0.766396  0.707526  0.142652
0.819445  0.726089  0.145127
0.872072  0.756376  0.142947
0.932620  0.777898  0.146070
0.999967  0.788196  0.146925
0.393851  0.464060  0.181712
0.427115  0.493115  0.170474
0.467079  0.516501  0.166810
0.497639  0.544480  0.177469
0.539950  0.569007  0.169057
0.586792  0.607573  0.161520
0.618235  0.635140  0.155592
0.664819  0.660519  0.145997
0.707963  0.684132  0.143673
0.751564  0.716362  0.150884
0.798295  0.732142  0.147480
0.842291  0.760853  0.141191
0.900746  0.790876  0.137383
0.952233  0.804842  0.151102
1.005996  0.823749  0.132346
0.420068  0.501475  0.184579
0.460086  0.524467  0.166361
0.494143  0.553034  0.181503
0.534230  0.582199  0.158144
0.570224  0.611571  0.161508
0.621513  0.643538  0.159580
0.654804  0.658839  0.151818
0.701647  0.698353  0.153299
0.736753  0.716342  0.141534
0.780436  0.741189  0.134867
0.825250  0.769161  0.145038
0.876128  0.792468  0.139547
0.919169  0.818927  0.142313
0.975761  0.846526  0.143181
1.024302  0.871300  0.153186
0.438043  0.533797  0.180527
0.491557  0.566008  0.177696
0.529890  0.595415  0.167435
0.564218  0.616400  0.159747
0.606554  0.649161  0.158618
0.641242  0.668975  0.159111
0.682486  0.691269  0.144210
0.732465  0.716036  0.142933
0.766002  0.756080  0.143430
0.812419  0.782509  0.153187
0.857074  0.801958  0.149076
0.900043  0.822984  0.143791
0.942114  0.842716  0.146661
0.995783  0.874837  0.148639
1.048857  0.896040  0.142843
0.068633  0.105922  0.102864
0.085677  0.119978  0.117343
0.112354  0.144175  0.131166
0.160848  0.163339  0.124316
0.214258  0.180942  0.103167
0.287920  0.197300  0.093272
0.361544  0.207483  0.089367
0.426010  0.214937  0.078590
0.482290  0.222629  0.078638
0.549776  0.227928  0.084235
0.615186  0.236761  0.083381
0.686765  0.231954  0.088411
0.756522  0.240631  0.084043
0.832446  0.239783  0.065884
0.902707  0.242079  0.080247
0.091370  0.124944  0.128094
0.100538  0.141003  0.145768
0.125257  0.157912  0.147688
0.166880  0.181026  0.137629
0.228905  0.210276  0.137726
0.293110  0.221120  0.120601
0.363546  0.240619  0.108347
0.432432  0.260929  0.106061
0.490997  0.268267  0.100135
0.562988  0.279653  0.099427
0.628100  0.283698  0.099957
0.690392  0.285265  0.092823
0.763010  0.303429  0.093136
0.828811  0.294905  0.082414
0.907713  0.295474  0.075595
0.100947  0.149812  0.153433
0.124345  0.175921  0.170779
0.148315  0.188117  0.181643
0.188028  0.211101  0.177481
0.240800  0.232096  0.166790
0.308139  0.251305  0.148431
0.374593  0.269845  0.135775
0.438003  0.283932  0.129778
0.501652  0.297972  0.124074
0.569238  0.317136  0.112171
0.632815  0.328095  0.118441
0.699199  0.333346  0.102257
0.767114  0.336518  0.105265
0.828395  0.346232  0.104448
0.914219  0.356420  0.094394
0.119546  0.172192  0.185252
0.138895  0.189600  0.196099
0.159186  0.209031  0.206545
0.200195  0.227410  0.209601
0.263983  0.262073  0.198817
0.323674  0.285235  0.179134
0.396898  0.304122  0.173188
0.447709  0.316784  0.156840
0.514455  0.333026  0.146839
0.581939  0.354932  0.140206
0.635759  0.359781  0.129366
0.703461  0.379047  0.132631
0.777654  0.387650  0.128205
0.843355  0.395384  0.121240
0.908566  0.406632  0.123532
0.139663  0.201351  0.221527
0.169948  0.226280  0.235843
0.195298  0.233685  0.223043
0.228618  0.257567  0.234729
0.287829  0.280122  0.207729
0.339152  0.307446  0.205428
0.391093  0.324360  0.187933
0.467943  0.350919  0.178568
0.523260  0.362597  0.171165
0.598164  0.381914  0.148196
0.650221  0.393571  0.153471
0.715575  0.413022  0.154630
0.779800  0.427024  0.147081
0.853042  0.439237  0.145733
0.922033  0.456535  0.137936
0.161120  0.223521  0.237224
0.191516  0.240663  0.234796
0.225196  0.266800  0.240025
0.261405  0.284853  0.235547
0.309910  0.314688  0.233781
0.357072  0.335795  0.218599
0.424877  0.368779  0.199373
0.478236  0.379256  0.212763
0.544000  0.391416  0.193413
0.595028  0.416526  0.184385
0.673937  0.428380  0.178946
0.727370  0.451836  0.172353
0.797197  0.462234  0.161846
0.861277  0.477280  0.159321
0.922508  0.490006  0.155302
0.191224  0.246884  0.254664
0.226153  0.271956  0.244688
0.266454  0.298136  0.250252
0.301807  0.321091  0.244392
0.340479  0.346075  0.231610
0.397062  0.378504  0.222182
0.442613  0.405168  0.211171
0.495249  0.424580  0.216324
0.556764  0.439572  0.210326
0.612846  0.450163  0.194695
0.684965  0.470312  0.190832
0.751467  0.490072  0.189144
0.805058  0.495710  0.181826
0.869210  0.515023  0.180621
0.944774  0.528287  0.171262
0.219276  0.279294  0.272083
0.270501  0.308015  0.257177
0.309988  0.339091  0.253761
0.340436  0.357680  0.253237
0.378856  0.396806  0.240655
0.424936  0.420906  0.216749
0.467162  0.453884  0.222031
0.516280  0.471926  0.221570
0.568473  0.483015  0.221472
0.635442  0.498145  0.213455
0.694064  0.528334  0.195036
0.766239  0.526085  0.198596
0.826054  0.547377  0.198290
0.882240  0.553829  0.194762
0.948987  0.571936  0.186582
0.264090  0.308440  0.265618
0.298778  0.335279  0.266752
0.339170  0.369557  0.256700
0.367157  0.398090  0.246835
0.411927  0.427248  0.238548
0.452850  0.462764  0.228866
0.487427  0.491899  0.222272
0.525089  0.513755  0.225905
0.587630  0.531385  0.222207
0.661331  0.547534  0.210236
0.721672  0.571194  0.199852
0.782236  0.581182  0.208393
0.828487  0.590185  0.207873
0.905216  0.607978  0.209835
0.972590  0.612622  0.208013
0.290157  0.341638  0.271282
0.328056  0.376654  0.255922
0.374872  0.409731  0.263354
0.405556  0.432960  0.245436
0.447160  0.471811  0.229545
0.481581  0.502530  0.231122
0.519043  0.525114  0.236568
0.562753  0.565550  0.224350
0.610233  0.591040  0.216805
0.666499  0.612376  0.211349
0.731451  0.624971  0.211914
0.789465  0.644800  0.207829
0.837497  0.648139  0.200262
