LUT/LUT_14.CUBE
TITLE "LUT_14" 
#LUT size 
LUT_3D_SIZE 8 
DOMAIN_MIN 0.0 0.0 0.0 
DOMAIN_MAX 1.0 1.0 1.0 
#data point 
0.047698  0.047657  0.019628
0.094272  0.092725  0.040213
0.208003  0.165087  0.053009
0.332144  0.221036  0.039987
0.441593  0.270329  0.040157
0.560239  0.304755  0.031569
0.686481  0.350175  0.033019
0.818105  0.372416  0.028042
0.097613  0.085889  0.043286
0.136009  0.119238  0.060754
0.251786  0.196685  0.058842
0.366580  0.257128  0.054813
0.477130  0.307062  0.058954
0.585612  0.343724  0.043257
0.721095  0.394996  0.043345
0.841405  0.428918  0.049606
0.145338  0.133262  0.069991
0.222581  0.191343  0.088841
0.306845  0.242879  0.065046
0.407010  0.298850  0.062164
0.528836  0.347533  0.060881
0.624895  0.403799  0.054880
0.755737  0.444836  0.049460
0.881892  0.484698  0.052926
0.227573  0.198476  0.081825
0.308901  0.254235  0.079571
0.378409  0.311258  0.065410
0.457218  0.368089  0.063043
0.560350  0.412908  0.060783
0.668981  0.476325  0.052240
0.783067  0.510132  0.048951
0.917419  0.540205  0.052898
0.305788  0.261007  0.098839
0.378042  0.327553  0.066862
0.458832  0.396905  0.076633
0.526459  0.451789  0.067323
0.610819  0.510637  0.066930
0.706447  0.567091  0.064442
0.825513  0.600932  0.061947
0.944740  0.646675  0.060276
0.379444  0.331220  0.082376
0.453134  0.398276  0.071059
0.534549  0.466784  0.066818
0.596028  0.522374  0.083781
0.689194  0.598005  0.061159
0.768239  0.653766  0.065947
0.861596  0.700428  0.069865
0.968873  0.738698  0.074574
0.447014  0.405583  0.073212
0.520441  0.460565  0.069340
0.594103  0.539965  0.064988
0.662342  0.589018  0.061819
0.750521  0.645284  0.070949
0.819813  0.704175  0.063877
0.912095  0.759034  0.072804
1.019242  0.812791  0.075535
0.519770  0.477970  0.075813
0.588449  0.534453  0.065966
0.664019  0.597099  0.071333
0.723790  0.648110  0.073031
0.793934  0.693931  0.064231
0.885008  0.739800  0.073119
0.970903  0.799041  0.070587
1.074985  0.852698  0.075465
0.084186  0.083640  0.042624
0.115785  0.112478  0.059800
0.198450  0.168144  0.073414
0.315728  0.229522  0.055337
0.455384  0.279600  0.051090
0.556283  0.309335  0.041817
0.676104  0.354579  0.039597
0.819849  0.385037  0.033464
0.111321  0.124001  0.092909
0.150521  0.156363  0.108026
0.237523  0.209852  0.115974
0.359958  0.276639  0.084979
0.478704  0.322219  0.074651
0.586900  0.369479  0.061063
0.727904  0.403584  0.051710
0.831694  0.441778  0.046144
0.144755  0.173884  0.155613
0.206001  0.210980  0.158033
0.293913  0.260744  0.134943
0.399007  0.313568  0.134390
0.509832  0.369856  0.110654
0.624440  0.419615  0.104715
0.745346  0.464366  0.081113
0.880474  0.510053  0.065298
0.207246  0.226578  0.191006
0.283492  0.266848  0.188923
0.360744  0.326336  0.165187
0.456810  0.383015  0.149365
0.540895  0.421772  0.126150
0.666865  0.488703  0.133934
0.786232  0.516262  0.121399
0.910260  0.566302  0.090013
0.277088  0.279971  0.203329
0.355321  0.326530  0.180937
0.436307  0.390350  0.186378
0.527632  0.462101  0.161604
0.618557  0.515801  0.123180
0.717084  0.565783  0.130275
0.823546  0.605209  0.132436
0.950660  0.644754  0.119466
0.361973  0.342046  0.195853
0.429927  0.401817  0.193031
0.510363  0.456520  0.163232
0.576732  0.523067  0.158187
0.679678  0.591247  0.121664
0.761662  0.641385  0.133743
0.854984  0.705887  0.126815
0.991460  0.747272  0.128241
0.439434  0.402504  0.194598
0.505798  0.463313  0.167646
0.572581  0.519737  0.172393
0.650826  0.583309  0.141466
0.741596  0.649777  0.136056
0.814417  0.699622  0.144448
0.914689  0.765612  0.130903
1.007003  0.809450  0.126551
0.490505  0.465607  0.198223
0.574608  0.544288  0.171627
0.656497  0.590190  0.150468
0.721831  0.650253  0.138752
0.799857  0.705722  0.146635
0.890429  0.760731  0.133911
0.962361  0.808506  0.146734
1.068047  0.861673  0.136326
0.115247  0.137423  0.121261
0.143426  0.162020  0.142808
0.193913  0.202054  0.146388
0.329626  0.264396  0.122249
0.452743  0.304440  0.093444
0.565939  0.350216  0.091128
0.685815  0.380041  0.076174
0.808887  0.417491  0.072051
0.145732  0.180924  0.173951
0.169615  0.213855  0.214170
0.229433  0.258375  0.223244
0.347769  0.305157  0.178725
0.487644  0.361017  0.144004
0.578958  0.395323  0.143224
0.699748  0.444490  0.122510
0.831639  0.480299  0.107243
0.181537  0.240059  0.244967
0.210092  0.263895  0.270864
0.250763  0.282699  0.254856
0.388144  0.364274  0.254308
0.502164  0.408991  0.218412
0.625331  0.443468  0.179562
0.747724  0.511920  0.167475
0.870021  0.536189  0.163369
0.204501  0.274858  0.293965
0.254066  0.317994  0.324355
0.321585  0.351645  0.309277
0.413236  0.409664  0.310329
0.539740  0.455950  0.261673
0.648705  0.502558  0.235405
0.775239  0.556913  0.218465
0.885264  0.591229  0.206842
0.245634  0.318020  0.333276
0.330226  0.367738  0.334251
0.412470  0.412447  0.328495
0.492810  0.468122  0.322235
0.587519  0.519415  0.296028
0.699620  0.578169  0.284637
0.819534  0.629356  0.251473
0.951531  0.658110  0.252366
0.317961  0.376878  0.363337
0.403535  0.410696  0.349020
0.484491  0.472466  0.335428
0.561843  0.527792  0.313656
0.663062  0.609934  0.312138
0.755853  0.656913  0.283270
0.861944  0.707747  0.267902
0.981486  0.752887  0.277127
0.377345  0.407149  0.358754
0.467441  0.468223  0.341631
0.555921  0.534002  0.332445
0.624828  0.584805  0.324360
0.720890  0.652083  0.315752
0.814756  0.705738  0.302606
0.914571  0.762567  0.263657
1.011433  0.817617  0.259213
0.455940  0.461711  0.359038
0.553360  0.533680  0.335256
0.628108  0.596434  0.320881
0.708843  0.645313  0.314583
0.776721  0.695348  0.305689
0.886427  0.759909  0.296982
0.964466  0.806566  0.293993
1.064964  0.869278  0.269176
0.146237  0.183965  0.187822
0.162556  0.213576  0.215183
0.214655  0.257839  0.238232
0.309538  0.306635  0.234155
0.454116  0.350435  0.179115
0.561401  0.388000  0.162058
0.690630  0.419931  0.151519
0.801135  0.450289  0.155322
0.166665  0.222565  0.226973
0.198521  0.266995  0.273747
0.248341  0.312134  0.308624
0.336800  0.347926  0.297703
0.476604  0.401702  0.238702
0.583950  0.436213  0.228012
0.700746  0.468783  0.197187
0.829990  0.516187  0.202715
0.214323  0.280093  0.292945
0.239507  0.314362  0.333428
0.278341  0.353003  0.380385
0.390915  0.409166  0.359365
0.470521  0.452400  0.348172
0.616541  0.493387  0.282942
0.737993  0.547689  0.264425
0.868074  0.590903  0.275410
0.243576  0.327799  0.350209
0.277114  0.366231  0.387581
0.305652  0.401712  0.433744
0.405263  0.439793  0.404818
0.515057  0.501416  0.387922
0.651395  0.547751  0.342562
0.766370  0.596575  0.336094
0.892246  0.638275  0.320756
0.284744  0.379965  0.408072
0.321181  0.418148  0.451728
0.373078  0.454295  0.460851
0.468567  0.502638  0.447835
0.563677  0.558609  0.471659
0.678950  0.600038  0.412031
0.794650  0.660179  0.392872
0.922129  0.716185  0.374741
0.312103  0.422016  0.463147
0.360963  0.450388  0.469516
0.462988  0.495768  0.457639
0.534760  0.550463  0.476921
0.623499  0.605612  0.466965
0.728755  0.673598  0.469044
0.857728  0.729534  0.434218
0.954579  0.763317  0.425840
0.348826  0.461953  0.501240
0.429873  0.503328  0.498924
0.524159  0.541940  0.483989
0.609009  0.601393  0.478972
0.700938  0.668546  0.473029
0.794749  0.717887  0.447654
0.898469  0.780026  0.455912
1.010615  0.830217  0.463377
0.399431  0.498712  0.522239
0.498111  0.538609  0.486557
0.592338  0.595984  0.484778
0.668082  0.652912  0.480851
0.798371  0.718745  0.451141
0.859978  0.764293  0.447172
0.965754  0.825020  0.473555
1.057611  0.870319  0.462636
0.166845  0.231299  0.251186
0.204514  0.274886  0.291470
0.233451  0.305610  0.325821
0.326342  0.350255  0.310878
0.427389  0.399735  0.294123
0.569935  0.434412  0.247959
0.703436  0.484336  0.237553
0.819905  0.490307  0.209038
0.207971  0.285494  0.310640
0.231826  0.314172  0.343828
0.265566  0.348859  0.372874
0.349951  0.403701  0.387149
0.444335  0.451054  0.377231
0.573187  0.486384  0.328176
0.698088  0.524783  0.293932
0.831671  0.556438  0.276999
0.245059  0.337015  0.374464
0.272219  0.369042  0.402188
0.302972  0.401165  0.439524
0.378941  0.454535  0.460398
0.480721  0.499863  0.439636
0.588289  0.546300  0.413031
0.729082  0.587453  0.358696
0.858854  0.622160  0.345634
0.274781  0.374667  0.414456
0.317713  0.418763  0.445064
0.345522  0.456129  0.492842
0.392439  0.489644  0.518085
0.515254  0.545139  0.502341
0.623211  0.593966  0.488649
0.761583  0.640647  0.443777
0.883728  0.687768  0.411034
0.321525  0.426389  0.464047
0.353513  0.468310  0.514904
0.394610  0.508102  0.548161
0.443692  0.557181  0.588091
0.560864  0.600692  0.563046
0.664618  0.651151  0.554186
0.794194  0.700529  0.495188
0.921927  0.753673  0.480193
0.355551  0.472510  0.513190
0.389351  0.504017  0.545729
0.438161  0.557206  0.592473
0.488281  0.604462  0.621740
0.598733  0.639031  0.591209
0.714862  0.708500  0.606981
0.826747  0.759291  0.585881
0.948309  0.797324  0.542463
0.384645  0.511512  0.553933
0.420796  0.549165  0.591532
0.475006  0.603513  0.627734
0.567024  0.635359  0.617149
0.685575  0.693429  0.603842
0.771316  0.745182  0.613110
0.885597  0.800963  0.600428
1.000568  0.853203  0.580354
0.431410  0.564998  0.604594
0.467744  0.592109  0.640215
0.545163  0.636473  0.629743
0.656636  0.679481  0.622274
0.755053  0.734174  0.619764
0.843878  0.783598  0.606310
0.953576  0.837302  0.610491
1.054823  0.886119  0.598535
0.208306  0.299432  0.343042
0.233108  0.324651  0.365170
0.267600  0.366711  0.406519
0.328838  0.397060  0.404220
0.439819  0.437777  0.372710
0.545078  0.482404  0.357699
0.678835  0.505919  0.320608
0.824944  0.531677  0.307054
0.237688  0.344373  0.390493
0.273591  0.383934  0.422353
0.314224  0.416282  0.457070
0.352270  0.450073  0.476185
0.457611  0.494797  0.453064
0.568508  0.539368  0.442251
0.699560  0.586232  0.412369
0.844892  0.618896  0.371844
0.282967  0.386309  0.429284
0.314941  0.431012  0.472414
0.354577  0.468944  0.509200
0.391814  0.505429  0.537111
0.473213  0.538779  0.526061
0.604097  0.602970  0.522373
0.715763  0.642024  0.477938
0.848570  0.676859  0.444595
0.317766  0.431588  0.477280
0.356400  0.476508  0.517695
0.399348  0.516622  0.568368
0.431071  0.550645  0.587796
0.489529  0.591199  0.615526
0.622183  0.637329  0.563836
0.743581  0.690827  0.538147
0.873510  0.748880  0.540025
0.356015  0.480962  0.531737
0.394068  0.521191  0.567028
0.437649  0.563070  0.604502
0.467726  0.602381  0.638234
0.535669  0.649779  0.679200
0.646501  0.687422  0.639832
0.774468  0.737656  0.616290
0.917972  0.803983  0.590966
0.386468  0.520039  0.566918
0.427901  0.557639  0.608948
0.474889  0.608180  0.647166
0.521151  0.650487  0.689062
0.568749  0.704081  0.734116
0.696560  0.747991  0.710993
0.822000  0.794864  0.689183
0.948443  0.840635  0.661193
0.434770  0.570485  0.616084
0.480652  0.610521  0.659484
0.524012  0.660422  0.704007
0.561945  0.688561  0.724568
0.633223  0.741669  0.753887
0.746044  0.781029  0.743394
0.875632  0.835231  0.722828
0.968664  0.870294  0.710829
0.472262  0.606220  0.663157
0.501882  0.645097  0.699470
0.544564  0.694803  0.751470
0.608890  0.731855  0.763765
0.707590  0.783924  0.779844
0.835385  0.827435  0.741407
0.923600  0.870466  0.741713
1.030721  0.909647  0.731070
0.225669  0.348647  0.412883
0.266752  0.393454  0.448836
0.305357  0.425545  0.480862
0.341260  0.464007  0.513366
0.421485  0.491214  0.483983
0.538945  0.529404  0.458423
0.669713  0.558303  0.414301
0.810036  0.583974  0.396077
0.273085  0.405919  0.462521
0.312729  0.437814  0.486739
0.349412  0.472702  0.518310
0.390092  0.518881  0.572639
0.433159  0.543317  0.567965
0.570045  0.587459  0.512986
0.686369  0.627227  0.496263
0.816240  0.662193  0.465339
0.319458  0.441977  0.497674
0.353200  0.481950  0.532462
0.397949  0.522914  0.562597
0.437892  0.565444  0.607744
0.483257  0.605193  0.640583
0.595197  0.642369  0.594005
0.708189  0.688155  0.584157
0.839165  0.729852  0.559863
0.350302  0.484113  0.536562
0.389548  0.519673  0.564768
0.442538  0.573865  0.619114
0.485341  0.628420  0.667699
0.538710  0.672472  0.703878
0.611812  0.691891  0.682311
0.752358  0.742287  0.644741
0.875022  0.790215  0.625601
0.388924  0.518683  0.576030
0.439909  0.575104  0.624171
0.477452  0.614909  0.655530
0.522656  0.669031  0.725524
0.564434  0.714563  0.773219
0.639225  0.744518  0.752897
0.781068  0.784118  0.705015
0.905286  0.836591  0.699426
0.430651  0.574956  0.628420
0.475686  0.613639  0.659713
0.526232  0.668009  0.718966
0.561660  0.716456  0.775621
0.606654  0.749381  0.818591
0.672381  0.796533  0.838178
0.801638  0.833933  0.799048
0.941016  0.874909  0.756189
0.472319  0.617082  0.674064
0.506564  0.653230  0.709337
0.548978  0.701639  0.766724
0.603652  0.755979  0.824932
0.657230  0.782546  0.846357
0.726161  0.837326  0.884131
0.828189  0.881105  0.888379
0.977018  0.909491  0.806611
0.500902  0.660130  0.712400
0.538493  0.698878  0.764466
0.580995  0.734430  0.808095
0.640332  0.785379  0.855062
0.697255  0.823909  0.870130
0.785274  0.877463  0.917025
0.886046  0.923764  0.918035
1.010865  0.953580  0.869765
0.222387  0.412396  0.507067
0.282438  0.444726  0.528979
0.342144  0.489502  0.555984
0.372804  0.518509  0.589424
0.425564  0.569183  0.619736
0.518092  0.597249  0.582260
0.672228  0.622780  0.528406
0.816307  0.645431  0.496413
0.274755  0.454443  0.541761
0.349347  0.489467  0.558402
0.392719  0.538699  0.596518
0.425042  0.578794  0.634394
0.472441  0.621177  0.674237
0.545000  0.655885  0.674869
0.668521  0.683710  0.615785
0.815279  0.715890  0.567120
0.340506  0.492579  0.558915
0.389343  0.537745  0.594433
0.440685  0.587002  0.636040
0.481768  0.635034  0.683547
0.514488  0.674263  0.738753
0.585370  0.716133  0.765834
0.698907  0.736003  0.687410
0.849908  0.789064  0.653516
0.386256  0.531520  0.592885
0.423566  0.577617  0.631484
0.477626  0.626594  0.682793
0.519714  0.677737  0.744437
0.550281  0.714305  0.783411
0.614986  0.749316  0.816553
0.704235  0.794596  0.810722
0.855800  0.824700  0.724292
0.418018  0.570508  0.629132
0.473030  0.616355  0.663750
0.507581  0.661731  0.722408
0.549949  0.703942  0.774679
0.597121  0.742471  0.814716
0.655134  0.790523  0.852157
0.744359  0.849274  0.893342
0.883530  0.883333  0.823119
0.451425  0.604555  0.664471
0.504341  0.653367  0.710970
0.544271  0.704977  0.767154
0.587923  0.738285  0.813902
0.638191  0.781524  0.846047
0.715189  0.833907  0.879175
0.791762  0.890774  0.926643
0.887413  0.923945  0.921590
0.492932  0.657662  0.724583
0.532167  0.698871  0.777476
0.579667  0.732780  0.811229
0.628065  0.770846  0.839683
0.690240  0.810092  0.865928
0.764134  0.870200  0.911475
0.846190  0.917740  0.942874
0.934051  0.962312  0.981776
0.514567  0.683285  0.768600
0.561681  0.718063  0.803897
0.613690  0.757215  0.839475
0.685143  0.818172  0.872967
0.741286  0.850342  0.896641
0.825096  0.906925  0.939086
0.900957  0.946991  0.967658
0.974264  0.989565  0.996100
