LUT/LUT_40.CUBE
TITLE "LUT_40" 
#LUT size 
LUT_3D_SIZE 5 
#data point 
DOMAIN_MIN 0.000000 0.000000 0.000000
DOMAIN_MAX 0.857143 0.857143 0.857143
0.079408  0.078271  0.037612
0.130213  0.120574  0.064763
0.304244  0.235861  0.075695
0.448300  0.344348  0.071941
0.609041  0.433283  0.068592
0.123278  0.112953  0.056803
0.199996  0.179090  0.092344
0.375986  0.297203  0.092412
0.512729  0.386045  0.088477
0.646959  0.478967  0.072532
0.219339  0.192027  0.094696
0.337876  0.275591  0.109632
0.451492  0.351869  0.086187
0.606704  0.469627  0.081863
0.734214  0.558518  0.092624
0.355311  0.291208  0.122984
0.457651  0.366959  0.107660
0.577604  0.456598  0.094141
0.701681  0.570994  0.086958
0.829101  0.670173  0.086332
0.466369  0.361880  0.096141
0.595657  0.460971  0.086198
0.696611  0.563518  0.080370
0.786802  0.644334  0.097191
0.908517  0.733664  0.088311
0.121735  0.124616  0.078285
0.162798  0.164821  0.114844
0.307787  0.266272  0.107401
0.456464  0.345911  0.093756
0.594591  0.449397  0.086354
0.159918  0.175639  0.142687
0.205210  0.221029  0.180239
0.360157  0.317760  0.162935
0.529716  0.415194  0.117852
0.670231  0.515991  0.100394
0.221476  0.256762  0.230846
0.289319  0.315304  0.261263
0.429939  0.379664  0.215102
0.561666  0.450837  0.164842
0.734763  0.576688  0.148579
0.285089  0.320572  0.299836
0.390435  0.377846  0.267533
0.519417  0.446266  0.250558
0.666946  0.541988  0.197452
0.816711  0.657236  0.167701
0.400404  0.397702  0.300012
0.541510  0.462947  0.253648
0.649095  0.553555  0.242078
0.791098  0.652097  0.184876
0.936101  0.733948  0.181988
0.164639  0.191271  0.161475
0.200104  0.229291  0.201607
0.269687  0.293854  0.243534
0.482042  0.391824  0.158375
0.641826  0.483460  0.133944
0.218856  0.258761  0.240600
0.263682  0.314998  0.296159
0.351636  0.382920  0.346877
0.499066  0.452642  0.273539
0.687345  0.559630  0.228301
0.265398  0.326398  0.327704
0.312757  0.396721  0.413553
0.391267  0.442463  0.415417
0.553751  0.521735  0.392125
0.727520  0.620819  0.315657
0.332357  0.409564  0.422160
0.385945  0.464780  0.465753
0.482037  0.516501  0.467888
0.618619  0.600053  0.481954
0.821434  0.693036  0.415142
0.371398  0.468920  0.488225
0.469782  0.525502  0.498493
0.576671  0.584491  0.504829
0.743257  0.681509  0.496541
0.903371  0.763883  0.460987
0.218976  0.271767  0.263996
0.275153  0.338420  0.334126
0.323145  0.369527  0.339701
0.453547  0.437434  0.331753
0.650720  0.540760  0.254486
0.267001  0.342342  0.353419
0.312952  0.403167  0.418503
0.354361  0.436013  0.453173
0.499765  0.522175  0.447044
0.687442  0.597625  0.394954
0.327728  0.417475  0.438199
0.374635  0.473858  0.495581
0.411985  0.518218  0.553533
0.542756  0.588012  0.557423
0.717972  0.675142  0.504888
0.388498  0.489274  0.511631
0.411241  0.533728  0.573077
0.486696  0.615630  0.647965
0.629764  0.680044  0.635200
0.764318  0.740839  0.614181
0.429610  0.544278  0.572604
0.478422  0.603878  0.636997
0.562137  0.680887  0.704749
0.689930  0.748323  0.711604
0.846676  0.803856  0.690100
0.290891  0.373196  0.391316
0.329384  0.418552  0.434733
0.374784  0.479380  0.510997
0.466816  0.508992  0.474122
0.613865  0.570041  0.423110
0.332088  0.425834  0.452017
0.369844  0.473112  0.506226
0.443716  0.555536  0.588607
0.506033  0.591964  0.578320
0.655528  0.654347  0.561633
0.385768  0.492782  0.514008
0.449813  0.562228  0.594892
0.493608  0.617469  0.651903
0.560442  0.677716  0.703951
0.740503  0.742978  0.658713
0.426952  0.544273  0.576257
0.499923  0.625327  0.655309
0.559535  0.687142  0.720742
0.637851  0.755092  0.793443
0.754264  0.802316  0.775167
0.500745  0.621342  0.656023
0.570417  0.686131  0.719268
0.637887  0.761895  0.805758
0.706689  0.823789  0.872662
0.828519  0.894496  0.899657
