LUT/LUT_40.CUBE
TITLE "LUT_40" 
#LUT size 
LUT_3D_SIZE 15 
DOMAIN_MIN 0.0 0.0 0.0 
DOMAIN_MAX 1.0 1.0 1.0 
#data point 
0.079408  0.078271  0.037612
0.090239  0.090048  0.047264
0.103545  0.101882  0.053583
0.130213  0.120574  0.064763
0.169443  0.150930  0.073477
0.230972  0.198730  0.092279
0.304244  0.235861  0.075695
0.331730  0.268737  0.089656
0.401521  0.302818  0.083011
0.448300  0.344348  0.071941
0.504827  0.375394  0.071952
0.543807  0.395921  0.080540
0.609041  0.433283  0.068592
0.646685  0.474801  0.075610
0.714403  0.503558  0.065215
0.097949  0.087953  0.037599
0.105654  0.094792  0.048255
0.116969  0.112879  0.060758
0.144986  0.137477  0.075082
0.197450  0.181993  0.105004
0.254997  0.219610  0.088058
0.316911  0.249232  0.095658
0.384004  0.291369  0.084874
0.418601  0.322734  0.081268
0.462621  0.349607  0.082780
0.511904  0.373777  0.082238
0.583378  0.419208  0.073219
0.647847  0.470866  0.075259
0.684015  0.494610  0.073259
0.725500  0.522222  0.074882
0.119816  0.108770  0.054958
0.109404  0.102558  0.050651
0.125911  0.112724  0.052310
0.156505  0.149557  0.089392
0.221697  0.201956  0.098903
0.271506  0.225505  0.086489
0.348362  0.276626  0.090023
0.382191  0.291319  0.085728
0.457756  0.342079  0.088353
0.485818  0.369891  0.082300
0.532158  0.396614  0.082865
0.602865  0.455725  0.078428
0.641809  0.466784  0.080286
0.700627  0.498295  0.077565
0.738416  0.538004  0.065977
0.123278  0.112953  0.056803
0.130347  0.121346  0.063097
0.152966  0.142481  0.077667
0.199996  0.179090  0.092344
0.263742  0.222168  0.094091
0.305380  0.252249  0.095480
0.375986  0.297203  0.092412
0.410246  0.319520  0.094340
0.478145  0.350520  0.072417
0.512729  0.386045  0.088477
0.557101  0.422621  0.093489
0.609738  0.461220  0.088803
0.646959  0.478967  0.072532
0.722820  0.532041  0.073564
0.774165  0.572413  0.073752
0.137293  0.138372  0.080072
0.161054  0.152595  0.085045
0.199581  0.186865  0.096735
0.226666  0.208119  0.111422
0.288104  0.242650  0.098762
0.353627  0.278397  0.103881
0.392079  0.313912  0.090222
0.445845  0.338532  0.082209
0.487303  0.363255  0.080336
0.554661  0.411369  0.084739
0.592979  0.452579  0.088879
0.655879  0.495013  0.083509
0.681293  0.522514  0.079813
0.731490  0.544791  0.074939
0.794394  0.579590  0.073560
0.163423  0.158103  0.101329
0.212106  0.188230  0.097593
0.228088  0.201985  0.096625
0.281145  0.238008  0.100179
0.325851  0.259405  0.093018
0.354629  0.288230  0.102919
0.415198  0.323430  0.099978
0.478373  0.363761  0.094068
0.503219  0.384397  0.083193
0.534979  0.403934  0.080841
0.603136  0.463326  0.080024
0.653959  0.496337  0.090205
0.721254  0.546730  0.078250
0.766757  0.579119  0.086448
0.807029  0.592996  0.070149
0.219339  0.192027  0.094696
0.255464  0.225724  0.122638
0.305448  0.260728  0.107099
0.337876  0.275591  0.109632
0.376526  0.296248  0.106264
0.421747  0.330243  0.105239
0.451492  0.351869  0.086187
0.515034  0.401835  0.098802
0.543129  0.421628  0.085319
0.606704  0.469627  0.081863
0.642882  0.490168  0.080585
0.673422  0.520140  0.092076
0.734214  0.558518  0.092624
0.798236  0.595471  0.072017
0.843334  0.622459  0.079367
0.264632  0.235677  0.123648
0.301985  0.252948  0.101937
0.316414  0.264468  0.112032
0.371546  0.296294  0.096241
0.426019  0.343149  0.120654
0.456210  0.355846  0.095456
0.487099  0.377153  0.085539
0.550650  0.410853  0.090248
0.581801  0.449225  0.086427
0.623525  0.494140  0.085151
0.667222  0.526332  0.079802
0.724297  0.559494  0.093731
0.760647  0.590328  0.076738
0.833594  0.643506  0.087817
0.891511  0.664292  0.076381
0.302305  0.262355  0.125718
0.353849  0.291863  0.105072
0.380076  0.296922  0.097268
0.415672  0.324739  0.092005
0.470226  0.364239  0.094782
0.488747  0.384206  0.092895
0.525563  0.405017  0.093701
0.586728  0.442505  0.095229
0.612777  0.482775  0.082405
0.665607  0.530427  0.087826
0.692121  0.557556  0.084776
0.741858  0.595596  0.096417
0.799107  0.616229  0.092205
0.837914  0.659805  0.076385
0.907734  0.694902  0.092566
0.355311  0.291208  0.122984
0.381401  0.303392  0.106255
0.422865  0.327629  0.100539
0.457651  0.366959  0.107660
0.493666  0.399271  0.097242
0.533897  0.420794  0.093285
0.577604  0.456598  0.094141
0.625890  0.489077  0.088625
0.654021  0.516614  0.087278
0.701681  0.570994  0.086958
0.750713  0.603974  0.096618
0.783512  0.632740  0.077634
0.829101  0.670173  0.086332
0.860390  0.676330  0.085484
0.910979  0.725368  0.087384
0.380970  0.306622  0.123376
0.428408  0.348739  0.114445
0.466433  0.368554  0.103898
0.494092  0.384338  0.089047
0.553004  0.435284  0.100798
0.581580  0.450882  0.089622
0.610073  0.474451  0.097837
0.668582  0.526436  0.082427
0.711018  0.577986  0.086936
0.723291  0.593506  0.089107
0.781443  0.638890  0.081256
0.803486  0.645982  0.094485
0.858705  0.698678  0.087880
0.911888  0.732584  0.080107
0.947335  0.750000  0.101057
0.417407  0.336353  0.111844
0.460421  0.363231  0.101178
0.500132  0.395300  0.104994
0.545602  0.429837  0.100560
0.585847  0.453495  0.091797
0.636981  0.500573  0.090852
0.659849  0.524022  0.087918
0.675402  0.551201  0.087399
0.736213  0.592275  0.087321
0.755692  0.618036  0.077626
0.806134  0.658575  0.096366
0.840277  0.683595  0.092222
0.889620  0.709053  0.085269
0.923643  0.742114  0.090397
0.968272  0.761070  0.091083
0.466369  0.361880  0.096141
0.483452  0.384743  0.103636
0.523534  0.419995  0.101880
0.595657  0.460971  0.086198
0.622780  0.490799  0.091406
0.653549  0.522359  0.095955
0.696611  0.563518  0.080370
0.721784  0.581564  0.084522
0.760394  0.619888  0.096869
0.786802  0.644334  0.097191
0.827307  0.667377  0.081297
0.886815  0.712593  0.089542
0.908517  0.733664  0.088311
0.941725  0.760702  0.089129
1.018267  0.787037  0.093404
0.509227  0.403159  0.099163
0.567392  0.448702  0.098572
0.574291  0.456625  0.084124
0.622394  0.498994  0.092321
0.654046  0.527423  0.089780
0.668257  0.537651  0.090160
0.722297  0.577107  0.077729
0.772783  0.618622  0.084959
0.795281  0.650838  0.092410
0.820723  0.656784  0.097402
0.845842  0.690219  0.079436
0.909686  0.726368  0.085916
0.941283  0.758985  0.094391
0.991777  0.786367  0.105756
1.020250  0.784616  0.093968
0.537905  0.430192  0.099505
0.575961  0.449365  0.091586
0.633504  0.501572  0.100473
0.674546  0.533145  0.081536
0.689575  0.553014  0.086147
0.705486  0.570930  0.090146
0.743700  0.604788  0.095793
0.786974  0.644265  0.089002
0.799461  0.647282  0.083190
0.854627  0.694348  0.095421
0.884160  0.707244  0.098208
0.932936  0.751366  0.095478
0.972488  0.764887  0.102143
1.024937  0.797338  0.090861
1.080416  0.823970  0.087655
0.090767  0.090227  0.040769
0.102604  0.094130  0.048771
0.106292  0.099841  0.048395
0.124021  0.113020  0.060483
0.160737  0.145116  0.071712
0.232275  0.198611  0.083956
0.309541  0.252368  0.098297
0.355469  0.281821  0.102071
0.402279  0.317301  0.074670
0.433341  0.322779  0.073589
0.500743  0.365395  0.070027
0.555238  0.410747  0.081145
0.610965  0.442422  0.069334
0.648589  0.478490  0.071685
0.708483  0.509176  0.077335
0.102648  0.092757  0.047133
0.103290  0.102374  0.049560
0.112470  0.106006  0.058893
0.148934  0.138770  0.068960
0.179638  0.163365  0.098597
0.267287  0.227078  0.091061
0.306693  0.251225  0.085401
0.366239  0.283315  0.076587
0.412565  0.314957  0.080769
0.480593  0.359885  0.091618
0.513539  0.384492  0.079096
0.555584  0.405338  0.071819
0.622710  0.463029  0.066953
0.672347  0.493103  0.073453
0.730370  0.526111  0.077108
0.112140  0.099415  0.050589
0.120835  0.110655  0.058334
0.137794  0.127069  0.065476
0.168165  0.154465  0.080201
0.213996  0.195227  0.104455
0.295193  0.242351  0.089251
0.322404  0.255620  0.081137
0.381393  0.294847  0.090764
0.445624  0.337085  0.082516
0.483504  0.367713  0.086091
0.539185  0.398798  0.078493
0.594289  0.442563  0.069501
0.651884  0.473422  0.076364
0.704360  0.512515  0.073172
0.767981  0.551432  0.070426
0.136500  0.131801  0.072819
0.131297  0.128690  0.075564
0.157816  0.157308  0.092072
0.182987  0.166182  0.089473
0.236425  0.219046  0.114988
0.318099  0.256800  0.097749
0.353355  0.280549  0.102116
0.428550  0.333419  0.096173
0.468593  0.355333  0.099552
0.504126  0.382508  0.084958
0.557447  0.431869  0.091872
0.613308  0.452310  0.085098
0.674423  0.494996  0.082373
0.698051  0.520630  0.075086
0.773469  0.572883  0.071978
0.164022  0.155441  0.092918
0.169591  0.157486  0.087558
0.189628  0.181898  0.114744
0.228548  0.208665  0.118784
0.289696  0.241201  0.121616
0.343235  0.279002  0.101666
0.383867  0.304285  0.105602
0.442232  0.341032  0.089821
0.488373  0.380565  0.095217
0.532930  0.405594  0.101093
0.579692  0.432246  0.084122
0.627089  0.479839  0.083492
0.670746  0.522109  0.093587
0.732930  0.536778  0.082842
0.767085  0.585794  0.084777
0.185115  0.167461  0.094164
0.206767  0.187757  0.108489
0.231815  0.213903  0.121849
0.274444  0.240835  0.128985
0.332205  0.279419  0.114197
0.389630  0.317009  0.111271
0.440110  0.344632  0.111629
0.467785  0.360793  0.115090
0.504118  0.388721  0.101223
0.560826  0.432195  0.109975
0.600015  0.460409  0.093291
0.651638  0.497326  0.075735
0.689137  0.520784  0.076387
0.765606  0.563707  0.073954
0.839911  0.627806  0.074567
0.232711  0.224815  0.150618
0.254414  0.231718  0.121358
0.275618  0.256888  0.144952
0.314467  0.276139  0.146049
0.367011  0.303861  0.119677
0.415917  0.329009  0.099410
0.462935  0.357965  0.105167
0.492350  0.388304  0.123033
0.545770  0.428982  0.109847
0.577485  0.441580  0.098927
0.644799  0.514636  0.101770
0.683038  0.516724  0.087172
0.745300  0.567955  0.075907
0.785959  0.603912  0.085584
0.845596  0.632414  0.080039
0.258472  0.224956  0.121341
0.283206  0.255777  0.134210
0.334961  0.288495  0.141464
0.365239  0.306106  0.147328
0.423218  0.333004  0.099662
0.440478  0.355341  0.117373
0.519777  0.401473  0.094471
0.542735  0.421840  0.103792
0.577337  0.447569  0.115177
0.610065  0.487791  0.091752
0.674203  0.523821  0.098453
0.709855  0.551211  0.077005
0.771278  0.596577  0.074721
0.801015  0.618991  0.086724
0.879283  0.662158  0.077638
0.288685  0.260610  0.141889
0.333185  0.295970  0.163766
0.369426  0.308206  0.130613
0.405395  0.333026  0.130066
0.459525  0.356440  0.114900
0.480227  0.382150  0.114255
0.534924  0.422563  0.116820
0.572118  0.461291  0.099491
0.615491  0.481099  0.096102
0.669738  0.545157  0.092639
0.698716  0.551560  0.095997
0.746128  0.605267  0.093881
0.792667  0.632154  0.088116
0.851014  0.671504  0.095097
0.881523  0.681858  0.085700
0.319767  0.273909  0.140289
0.382789  0.320189  0.130317
0.410999  0.331537  0.131802
0.463847  0.369335  0.107347
0.499624  0.387752  0.117293
0.548795  0.439593  0.111690
0.593329  0.467063  0.111662
0.620748  0.491223  0.107916
0.668592  0.525696  0.105059
0.704699  0.565832  0.097327
0.752394  0.600794  0.078344
0.771929  0.618995  0.089295
0.821938  0.652081  0.092504
0.872768  0.686957  0.088071
0.926756  0.731346  0.093174
0.366219  0.311803  0.151118
0.391074  0.330344  0.155227
0.428224  0.355383  0.129810
0.511762  0.401143  0.113590
0.539957  0.430789  0.117278
0.583220  0.452953  0.103087
0.626919  0.504695  0.096882
0.678845  0.541990  0.096187
0.696959  0.560584  0.088371
0.734167  0.598298  0.090740
0.778801  0.632458  0.100793
0.825859  0.664428  0.094195
0.851793  0.685385  0.081885
0.909733  0.723682  0.102368
0.932647  0.730484  0.101293
0.394851  0.340331  0.149254
0.450274  0.367319  0.141158
0.502131  0.403869  0.127023
0.534703  0.417436  0.116676
0.589223  0.468903  0.113682
0.604749  0.481307  0.104183
0.637432  0.499809  0.118390
0.687761  0.551464  0.117164
0.721425  0.579727  0.095564
0.751384  0.614110  0.086566
0.800107  0.655429  0.074388
0.853118  0.681169  0.109030
0.890583  0.718278  0.095536
0.917412  0.744769  0.096118
0.978664  0.759411  0.089504
0.466879  0.374825  0.122615
0.520930  0.423817  0.104731
0.547244  0.433821  0.116085
0.596538  0.464884  0.106742
0.614273  0.484560  0.110930
0.677256  0.533527  0.111863
0.698008  0.565472  0.099387
0.709296  0.579948  0.106113
0.768341  0.619439  0.097008
0.789427  0.642751  0.100675
0.824279  0.676136  0.109993
0.882253  0.705444  0.100982
0.903193  0.739592  0.100335
0.981019  0.764425  0.102219
1.001345  0.770958  0.092022
0.499557  0.395561  0.140519
0.532748  0.414463  0.111916
0.581745  0.453169  0.101857
0.585755  0.463189  0.103994
0.653359  0.529039  0.105189
0.686405  0.527412  0.090892
0.701503  0.577178  0.115381
0.772793  0.632940  0.083486
0.795404  0.636810  0.095415
0.823182  0.666987  0.107052
0.860800  0.700842  0.095778
0.878818  0.712430  0.110996
0.938299  0.748478  0.099382
0.966175  0.770210  0.093528
0.999496  0.787536  0.096616
0.536875  0.433338  0.133719
0.575270  0.459714  0.102563
0.595206  0.467460  0.099094
0.651320  0.503489  0.097350
0.676734  0.552655  0.106766
0.719119  0.572253  0.103880
0.760582  0.605747  0.110274
0.777087  0.648091  0.113112
0.820469  0.669708  0.116796
0.843074  0.692700  0.118935
0.902070  0.738555  0.108976
0.917439  0.739640  0.106757
0.978961  0.770591  0.095794
1.019931  0.805480  0.108847
1.064437  0.819943  0.107286
0.110346  0.101142  0.050507
0.115014  0.112093  0.058518
0.121846  0.112608  0.066973
0.150475  0.141442  0.075409
0.184722  0.163091  0.083932
0.225991  0.196967  0.095418
0.280571  0.234384  0.094777
0.374386  0.283714  0.090374
0.404849  0.310946  0.084520
0.445438  0.341847  0.078785
0.505343  0.382828  0.071726
0.559438  0.413643  0.075721
0.591648  0.447586  0.079471
0.661772  0.483602  0.073394
0.723892  0.492630  0.076035
0.124470  0.113147  0.052793
0.135596  0.132477  0.077419
0.152714  0.141484  0.080759
0.147774  0.142601  0.080501
0.212805  0.172994  0.087709
0.277541  0.241326  0.109788
0.329693  0.269657  0.108413
0.359066  0.285310  0.104051
0.427421  0.333968  0.077879
0.472467  0.351859  0.082340
0.526254  0.406336  0.072429
0.573539  0.438137  0.077097
0.627156  0.462772  0.081242
0.702864  0.504480  0.076441
0.728953  0.532176  0.075258
0.134449  0.128100  0.068764
0.143918  0.140124  0.090001
0.164020  0.156343  0.093591
0.180144  0.174361  0.110728
0.215188  0.201173  0.112430
0.286428  0.245016  0.114505
0.308534  0.263016  0.114940
0.391860  0.302906  0.105539
0.430648  0.337394  0.096344
0.503366  0.386317  0.100339
0.550197  0.411127  0.088728
0.591520  0.436854  0.089144
0.654898  0.488390  0.076163
0.704515  0.503875  0.076880
0.732517  0.534273  0.073746
0.151272  0.154876  0.104108
0.162123  0.160645  0.112848
0.178920  0.187824  0.132668
0.209679  0.201224  0.130006
0.227310  0.215251  0.135560
0.314402  0.272262  0.139431
0.366228  0.304531  0.131374
0.399166  0.318299  0.126533
0.462902  0.358201  0.102645
0.513182  0.386914  0.081502
0.549165  0.416975  0.103599
0.624263  0.466004  0.085699
0.655394  0.501992  0.084703
0.689944  0.509802  0.078767
0.762844  0.553403  0.081866
0.160688  0.165051  0.116765
0.186725  0.206722  0.161814
0.198039  0.200138  0.151883
0.218624  0.221265  0.150887
0.276853  0.257968  0.157308
0.316834  0.275470  0.145687
0.383282  0.313672  0.128959
0.445084  0.349271  0.113669
0.493338  0.381143  0.123879
0.541671  0.407600  0.105516
0.587057  0.447562  0.110423
0.638859  0.493882  0.099062
0.682866  0.509415  0.090821
0.734139  0.562670  0.087927
0.791867  0.595626  0.094836
0.178432  0.197786  0.159958
0.197763  0.205764  0.160307
0.228304  0.234306  0.173187
0.258575  0.253410  0.162485
0.299976  0.272846  0.166058
0.358313  0.316189  0.168931
0.410525  0.342770  0.140986
0.468205  0.376300  0.124086
0.522788  0.401333  0.106823
0.568834  0.441106  0.122277
0.618774  0.475004  0.100471
0.651634  0.501926  0.108484
0.704892  0.538927  0.099409
0.772495  0.591105  0.097162
0.815995  0.618024  0.085135
0.205337  0.232204  0.187900
0.239916  0.241956  0.181260
0.262921  0.261868  0.194998
0.305798  0.279910  0.187943
0.332986  0.295667  0.161732
0.402239  0.332083  0.169163
0.443344  0.361685  0.149436
0.496299  0.399585  0.142558
0.526448  0.404432  0.132852
0.585303  0.448548  0.122140
0.626747  0.495819  0.133360
0.687756  0.541522  0.122480
0.742196  0.565831  0.130335
0.797961  0.609645  0.112133
0.832465  0.640795  0.096451
0.264980  0.277070  0.204324
0.274922  0.279646  0.217448
0.323069  0.300790  0.193616
0.354417  0.316318  0.179260
0.380844  0.333513  0.178958
0.434536  0.353480  0.161041
0.487647  0.404528  0.183260
0.539379  0.435561  0.138082
0.590820  0.459040  0.139103
0.633445  0.493166  0.130605
0.668996  0.523460  0.137086
0.705281  0.545963  0.122119
0.747213  0.583651  0.116478
0.812226  0.630136  0.108417
0.860315  0.669223  0.097737
0.291849  0.277078  0.199477
0.321609  0.304954  0.199333
0.330431  0.303129  0.182350
0.387334  0.340612  0.182977
0.422139  0.372175  0.195180
0.454543  0.379142  0.179512
0.529152  0.441317  0.177438
0.557904  0.442545  0.132065
0.618463  0.492479  0.124035
0.664430  0.530897  0.128336
0.709649  0.568590  0.106480
0.740981  0.596405  0.122099
0.788721  0.625608  0.124446
0.835104  0.652915  0.129215
0.904226  0.694807  0.118226
0.298500  0.292180  0.217134
0.349908  0.330788  0.212412
0.383334  0.340556  0.175070
0.417838  0.371994  0.219044
0.471578  0.394146  0.188421
0.523294  0.426934  0.160848
0.569720  0.465880  0.169795
0.610064  0.485999  0.123239
0.660902  0.520384  0.141683
0.694099  0.558806  0.123801
0.738467  0.598301  0.107902
0.782929  0.627866  0.120036
0.815317  0.654734  0.121159
0.869340  0.695358  0.134211
0.908670  0.718014  0.127630
0.364509  0.329979  0.196762
0.384232  0.334813  0.203392
0.434123  0.379666  0.195784
0.491314  0.403753  0.160835
0.501130  0.420770  0.164989
0.550707  0.441820  0.172436
0.578636  0.470882  0.145892
0.648355  0.534078  0.136633
0.686835  0.565786  0.110435
0.734916  0.598441  0.129818
0.766372  0.627481  0.117244
0.810991  0.652014  0.122990
0.871490  0.702453  0.133613
0.895773  0.703120  0.123626
0.972616  0.760637  0.135409
0.391135  0.346726  0.207159
0.431690  0.377639  0.206535
0.482908  0.404877  0.206149
0.504767  0.416449  0.173367
0.564091  0.461778  0.174952
0.607064  0.487964  0.160441
0.625529  0.507543  0.146064
0.689399  0.548469  0.126808
0.722613  0.582116  0.145075
0.775665  0.631259  0.117310
0.795325  0.639984  0.119021
0.824266  0.694401  0.126389
0.896315  0.724906  0.125144
0.935049  0.744755  0.128560
0.972416  0.780576  0.148104
0.421105  0.372574  0.210238
0.454857  0.391554  0.207750
0.525244  0.424956  0.180583
0.543216  0.443749  0.188108
0.598184  0.484181  0.179345
0.644793  0.528809  0.165336
0.675493  0.557429  0.121655
0.712954  0.572512  0.135716
0.750675  0.610639  0.123936
0.801838  0.651962  0.124778
0.829105  0.681659  0.120379
0.863820  0.695695  0.137359
0.928388  0.748132  0.118229
0.953828  0.765890  0.149073
0.991578  0.779040  0.118380
0.468376  0.399660  0.200403
0.518711  0.421613  0.188240
0.517347  0.428266  0.184362
0.588062  0.479516  0.164902
0.620223  0.504038  0.146675
0.677208  0.558189  0.136200
0.718502  0.567632  0.132580
0.764580  0.626809  0.119216
0.786804  0.643606  0.132786
0.805637  0.659074  0.132032
0.844318  0.689985  0.136071
0.911040  0.735940  0.142930
0.932193  0.742641  0.128894
0.993472  0.781518  0.133868
1.020241  0.804831  0.138861
0.504836  0.425542  0.211050
0.540209  0.456923  0.204195
0.594244  0.487999  0.164535
0.641671  0.518646  0.159058
0.680029  0.550049  0.171133
0.721631  0.590030  0.144015
0.764545  0.620068  0.130411
0.783461  0.635005  0.138761
0.824374  0.673150  0.122910
0.865212  0.697671  0.144943
0.895442  0.731664  0.121721
0.918500  0.745559  0.139858
0.976099  0.768851  0.125985
1.025285  0.797120  0.123273
1.065681  0.822694  0.142850
0.121735  0.124616  0.078285
0.118415  0.107251  0.058831
0.139352  0.148256  0.095424
0.162798  0.164821  0.114844
0.195754  0.179348  0.092134
0.229665  0.205516  0.102757
0.307787  0.266272  0.107401
0.376146  0.301247  0.107293
0.411015  0.315787  0.103814
0.456464  0.345911  0.093756
0.505546  0.386962  0.086948
0.567814  0.417438  0.082494
0.594591  0.449397  0.086354
0.660365  0.479830  0.068379
0.713416  0.512873  0.077845
0.137265  0.142965  0.102380
0.146739  0.147575  0.103422
0.157417  0.163394  0.115388
0.185219  0.193104  0.132483
0.198250  0.198682  0.128753
0.236432  0.222139  0.126421
0.328950  0.273840  0.119575
0.383301  0.311053  0.119913
0.427038  0.336131  0.101187
0.475340  0.364401  0.102831
0.532238  0.406369  0.088137
0.572513  0.421792  0.086219
0.647788  0.483808  0.088488
0.701103  0.508587  0.072479
0.737167  0.538031  0.075673
0.148892  0.153083  0.111606
0.170957  0.178390  0.134039
0.183096  0.188479  0.140867
0.201200  0.219559  0.172202
0.224599  0.228744  0.156069
0.289177  0.260274  0.140889
0.334450  0.289707  0.144206
0.383159  0.323419  0.140321
0.446756  0.357425  0.106134
0.505100  0.395604  0.108471
0.543432  0.418676  0.100910
0.609424  0.453378  0.088991
0.640519  0.482256  0.100017
0.700112  0.525523  0.086318
0.777389  0.567142  0.080423
0.159918  0.175639  0.142687
0.179802  0.200649  0.163109
0.191425  0.210475  0.176757
0.205210  0.221029  0.180239
0.258225  0.259343  0.189930
0.295912  0.278111  0.186297
0.360157  0.317760  0.162935
0.402647  0.335319  0.139288
0.483635  0.386432  0.123637
0.529716  0.415194  0.117852
0.536848  0.422339  0.115225
0.620095  0.479227  0.107323
0.670231  0.515991  0.100394
0.709550  0.534811  0.084655
0.782516  0.569288  0.100091
0.186005  0.216645  0.188602
0.203447  0.233634  0.204091
0.209812  0.232512  0.200114
0.231871  0.249469  0.210209
0.264855  0.274152  0.207601
0.314811  0.301788  0.204204
0.341676  0.315163  0.195410
0.438635  0.366384  0.155815
0.459201  0.370692  0.156929
0.539128  0.411754  0.114013
0.592430  0.466387  0.128236
0.622260  0.480662  0.118609
0.681469  0.526845  0.130918
0.718434  0.558156  0.111383
0.795661  0.585358  0.102828
0.199382  0.228027  0.196752
0.206769  0.234128  0.213143
0.224079  0.256390  0.225692
0.252888  0.278608  0.235818
0.307110  0.309564  0.241460
0.344973  0.330785  0.224951
0.417669  0.359753  0.188982
0.450700  0.384696  0.193322
0.504945  0.398036  0.163464
0.538541  0.434932  0.162486
0.605356  0.481968  0.147529
0.654385  0.516706  0.143369
0.722106  0.553727  0.117499
0.756869  0.589957  0.143312
0.793426  0.612890  0.132679
0.221476  0.256762  0.230846
0.231138  0.258070  0.232989
0.264667  0.286780  0.249795
0.289319  0.315304  0.261263
0.335981  0.322561  0.247524
0.397434  0.371490  0.244069
0.429939  0.379664  0.215102
0.477275  0.408417  0.205031
0.527831  0.440426  0.186426
0.561666  0.450837  0.164842
0.618604  0.486373  0.162993
0.701998  0.552173  0.152574
0.734763  0.576688  0.148579
0.785555  0.614188  0.116239
0.846066  0.664645  0.155080
0.225211  0.266592  0.250748
0.272590  0.300161  0.267684
0.293975  0.317504  0.274338
0.331497  0.338379  0.266936
0.357115  0.346241  0.244090
0.439066  0.381968  0.208436
0.450373  0.401056  0.239144
0.510628  0.428465  0.213916
0.550403  0.465976  0.224403
0.599525  0.487964  0.189236
0.683927  0.551717  0.161762
0.715272  0.566539  0.178603
0.768284  0.610784  0.171711
0.808377  0.619179  0.157599
0.846981  0.653557  0.163159
0.269648  0.299360  0.265681
0.292134  0.322875  0.280061
0.325024  0.343109  0.273940
0.352857  0.359042  0.268960
0.407088  0.376872  0.246703
0.451609  0.405362  0.266288
0.502589  0.434719  0.232844
0.545419  0.457265  0.212080
0.585113  0.494975  0.232736
0.656787  0.529894  0.183388
0.729752  0.587074  0.162030
0.758071  0.600036  0.172113
0.776531  0.617167  0.176925
0.844582  0.666394  0.191979
0.905250  0.712276  0.173911
0.285089  0.320572  0.299836
0.337399  0.345236  0.277962
0.371418  0.366736  0.268392
0.390435  0.377846  0.267533
0.470842  0.413783  0.252014
0.518600  0.441408  0.249162
0.519417  0.446266  0.250558
0.603502  0.494976  0.236319
0.639731  0.524359  0.201999
0.666946  0.541988  0.197452
0.747517  0.597857  0.160051
0.793861  0.639019  0.162710
0.816711  0.657236  0.167701
0.882359  0.708798  0.178141
