LUT/LUT_3.CUBE
TITLE "LUT_3" 
#LUT size 
LUT_3D_SIZE 15 
DOMAIN_MIN 0.0 0.0 0.0 
DOMAIN_MAX 1.0 1.0 1.0 
#data point 
0.017568  0.017534  0.005198
0.048481  0.040727  0.016806
0.100582  0.071777  0.016759
0.179374  0.086332  0.012523
0.252846  0.101688  0.008028
0.317944  0.105751  -0.003039
0.390348  0.113763  -0.001356
0.451475  0.112934  -0.009293
0.524474  0.111333  -0.008638
0.597991  0.116193  -0.012812
0.664004  0.119929  -0.010542
0.730886  0.122766  -0.010456
0.811338  0.122186  -0.013804
0.876918  0.124273  -0.017614
0.952760  0.120560  -0.017993
0.041076  0.040716  0.021227
0.074378  0.068468  0.028841
0.119355  0.089369  0.031201
0.191894  0.120695  0.023613
0.260406  0.133885  0.015533
0.327498  0.142683  0.013702
0.394718  0.157495  0.012389
0.460297  0.163638  0.010299
0.526307  0.170895  0.002776
0.595675  0.171856  -0.004214
0.666962  0.181103  -0.002901
0.742579  0.180049  -0.008421
0.813462  0.184695  -0.010455
0.882579  0.183376  -0.016550
0.948645  0.193745  -0.016434
0.077092  0.078140  0.041605
0.105252  0.097569  0.042480
0.149602  0.118770  0.038920
0.206110  0.149931  0.028998
0.272938  0.169079  0.026939
0.338724  0.177623  0.021501
0.406990  0.188941  0.017811
0.465137  0.200814  0.016692
0.539149  0.210990  0.016161
0.606675  0.217780  0.017338
0.669007  0.219072  0.005712
0.747693  0.228458  0.006146
0.814300  0.237001  0.000772
0.888136  0.241746  -0.002233
0.952539  0.245374  -0.003150
0.113448  0.110921  0.047405
0.139827  0.136540  0.053445
0.177864  0.170381  0.042031
0.231776  0.189906  0.036984
0.286572  0.208492  0.034370
0.350029  0.224444  0.032470
0.416068  0.231044  0.024166
0.485859  0.251566  0.023607
0.544769  0.261711  0.022822
0.613747  0.268911  0.019216
0.680095  0.271703  0.020805
0.749066  0.278852  0.018480
0.819290  0.281466  0.012014
0.893434  0.282543  0.011235
0.961417  0.297775  0.008658
0.137683  0.156879  0.049251
0.169981  0.184742  0.053449
0.213829  0.218975  0.048300
0.255343  0.244118  0.033470
0.298344  0.270456  0.032795
0.360277  0.280636  0.034062
0.419991  0.292391  0.031722
0.490126  0.299155  0.029032
0.559721  0.307928  0.034008
0.622169  0.317131  0.026807
0.684957  0.327224  0.026269
0.759081  0.345679  0.021175
0.825634  0.335493  0.019639
0.895689  0.342437  0.017404
0.963290  0.348329  0.014929
0.168740  0.207701  0.057815
0.198727  0.236888  0.046391
0.238708  0.255684  0.045475
0.282798  0.294903  0.032067
0.319511  0.316333  0.029260
0.369698  0.335388  0.032966
0.432414  0.351038  0.032779
0.500921  0.363946  0.032442
0.564282  0.366990  0.032773
0.623049  0.371845  0.029594
0.693777  0.378256  0.027506
0.766885  0.383980  0.030285
0.827770  0.394290  0.027013
0.904786  0.408793  0.026996
0.968900  0.415676  0.021354
0.191170  0.254474  0.054134
0.230288  0.280320  0.049046
0.274458  0.313057  0.041404
0.310902  0.338576  0.040134
0.348173  0.364861  0.036908
0.390903  0.387785  0.037765
0.442617  0.405604  0.034869
0.505210  0.418840  0.035966
0.569329  0.423737  0.035019
0.628799  0.439564  0.034340
0.697998  0.443178  0.032604
0.768210  0.446271  0.032178
0.843285  0.448089  0.035701
0.909608  0.452106  0.037693
0.980016  0.460647  0.032457
0.216145  0.309863  0.061951
0.254220  0.329980  0.049857
0.295343  0.356609  0.045412
0.339246  0.381475  0.035332
0.372855  0.412270  0.037933
0.416920  0.443961  0.031530
0.458053  0.469269  0.034292
0.511096  0.482002  0.032485
0.573554  0.493439  0.034524
0.641645  0.496310  0.029291
0.713739  0.501850  0.034768
0.772611  0.517955  0.036401
0.844034  0.517395  0.035627
0.920336  0.519575  0.038699
0.985170  0.520944  0.038743
0.240144  0.355938  0.057619
0.278208  0.382153  0.062016
0.324196  0.400195  0.042876
0.363828  0.422742  0.033945
0.407660  0.455397  0.035513
0.441167  0.481252  0.032111
0.486242  0.516144  0.037389
0.524828  0.537602  0.034023
0.586686  0.546522  0.033609
0.651215  0.564902  0.032239
0.705403  0.574801  0.026661
0.778343  0.568476  0.037454
0.852533  0.575970  0.033980
0.911973  0.587371  0.039632
0.985702  0.585617  0.043850
0.253226  0.413479  0.057232
0.302062  0.429070  0.051222
0.349006  0.447777  0.043461
0.393841  0.475672  0.038640
0.436606  0.496340  0.040001
0.472407  0.523390  0.032024
0.507688  0.546156  0.036943
0.550338  0.582558  0.033156
0.604062  0.607885  0.031504
0.661415  0.617716  0.030214
0.722459  0.630905  0.031474
0.783210  0.642895  0.032536
0.846244  0.647500  0.034856
0.916528  0.650959  0.037449
0.984922  0.658267  0.037380
0.254717  0.474121  0.046889
0.318225  0.481022  0.049426
0.373062  0.498374  0.041628
0.414810  0.524091  0.043623
0.467669  0.543651  0.038213
0.506669  0.568463  0.035284
0.544046  0.596621  0.040168
0.585815  0.619041  0.034627
0.633624  0.649719  0.029885
0.672014  0.660087  0.032180
0.737476  0.683092  0.030541
0.796499  0.688700  0.036097
0.851364  0.711218  0.030695
0.922767  0.721105  0.039975
0.988982  0.719701  0.040978
0.269521  0.528219  0.044862
0.331455  0.537568  0.039199
0.381873  0.550350  0.041348
0.433804  0.567457  0.030768
0.480375  0.588515  0.040856
0.532502  0.609707  0.036895
0.564465  0.632606  0.034292
0.612074  0.656833  0.031746
0.657584  0.679152  0.033027
0.706201  0.700746  0.032559
0.752721  0.725842  0.031631
0.809303  0.747131  0.034009
0.872147  0.760279  0.035800
0.936127  0.780502  0.035841
0.994845  0.789667  0.037720
0.274216  0.595991  0.044308
0.340244  0.597755  0.036117
0.396540  0.607130  0.036197
0.452518  0.616102  0.029741
0.499335  0.638910  0.033802
0.545990  0.659918  0.038380
0.592105  0.673662  0.034303
0.637529  0.697031  0.034791
0.683689  0.725399  0.035245
0.731529  0.744762  0.040100
0.780349  0.769626  0.035436
0.830007  0.791496  0.031918
0.881098  0.808335  0.037673
0.944497  0.821922  0.037763
1.010291  0.840595  0.034025
0.276009  0.660469  0.028381
0.346268  0.666395  0.036647
0.410079  0.664080  0.032083
0.460722  0.682483  0.030079
0.516600  0.688884  0.030471
0.563596  0.709151  0.025130
0.617697  0.729249  0.033207
0.660505  0.746436  0.035182
0.709000  0.766161  0.032238
0.749109  0.787285  0.031614
0.797706  0.811573  0.031190
0.852420  0.833513  0.036178
0.902511  0.851945  0.038075
0.962063  0.869792  0.035640
1.019824  0.880384  0.038222
0.289059  0.713228  0.029260
0.345696  0.721925  0.031903
0.408858  0.725960  0.025154
0.475325  0.737219  0.021128
0.529841  0.746448  0.025725
0.581814  0.762375  0.022954
0.632585  0.771226  0.031494
0.678646  0.794023  0.031043
0.725091  0.816269  0.034734
0.770828  0.835643  0.035403
0.816394  0.855708  0.032718
0.871768  0.874677  0.034815
0.927121  0.892913  0.036636
0.978080  0.914680  0.039515
1.041035  0.927109  0.036958
0.030723  0.033950  0.024956
0.058646  0.051866  0.025180
0.099765  0.080562  0.029984
0.169826  0.100464  0.029566
0.237584  0.105733  0.029499
0.316857  0.113615  0.019358
0.389522  0.114194  0.019408
0.454781  0.118277  0.013652
0.527712  0.118521  0.015861
0.592120  0.115374  0.009014
0.663567  0.113705  0.011012
0.744015  0.125225  0.009808
0.809940  0.125783  0.010429
0.876042  0.116635  0.008507
0.949041  0.114864  0.006023
0.051233  0.066854  0.048292
0.071021  0.085066  0.046659
0.121420  0.106450  0.052736
0.183046  0.131316  0.052420
0.253563  0.149351  0.038568
0.324128  0.157559  0.032568
0.385557  0.161449  0.028507
0.454894  0.171367  0.026983
0.523870  0.175281  0.021774
0.603157  0.183999  0.020865
0.665342  0.186228  0.015185
0.740822  0.192701  0.018725
0.806500  0.184359  0.017116
0.878489  0.182368  0.009069
0.944607  0.189145  0.016762
0.069749  0.093727  0.073654
0.098832  0.107755  0.066868
0.147675  0.132908  0.068951
0.197405  0.165356  0.071699
0.266844  0.179119  0.059666
0.330505  0.189606  0.054664
0.395616  0.209725  0.053195
0.466588  0.216881  0.040152
0.532348  0.224311  0.034744
0.600059  0.232684  0.029080
0.676736  0.239812  0.027586
0.741172  0.244176  0.023678
0.812739  0.245890  0.021665
0.884849  0.248218  0.017767
0.960165  0.253305  0.020708
0.107247  0.119798  0.095798
0.144728  0.148559  0.085802
0.175514  0.174407  0.086011
0.217573  0.190777  0.082554
0.283329  0.215992  0.075160
0.349319  0.235480  0.070744
0.408943  0.246565  0.061896
0.474234  0.256798  0.056618
0.543904  0.269322  0.049089
0.603067  0.271797  0.046383
0.673810  0.287167  0.043001
0.749265  0.295615  0.035339
0.818587  0.294774  0.033487
0.896482  0.307345  0.031355
0.959312  0.310319  0.027590
0.141298  0.164245  0.092924
0.176214  0.196021  0.087797
0.204536  0.215547  0.085795
0.244610  0.245257  0.083004
0.304693  0.268755  0.076147
0.355595  0.282785  0.075429
0.420926  0.288864  0.068757
0.485338  0.304620  0.065063
0.549774  0.313495  0.066920
0.615334  0.326547  0.056819
0.682304  0.334356  0.048180
0.754682  0.346634  0.045706
0.817929  0.351294  0.036636
0.889525  0.346392  0.040251
0.963563  0.358364  0.039937
0.163490  0.205797  0.103834
0.200293  0.232902  0.093394
0.237413  0.269651  0.100553
0.270364  0.292199  0.094222
0.320368  0.317204  0.075113
0.366544  0.338543  0.074888
0.432337  0.353021  0.072260
0.491667  0.360676  0.079397
0.552857  0.370173  0.077062
0.628728  0.374635  0.074605
0.695348  0.381930  0.064765
0.763905  0.398379  0.054560
0.832605  0.397977  0.056461
0.901904  0.406275  0.047498
0.968669  0.419593  0.044982
0.193280  0.260747  0.107212
0.229447  0.283320  0.101069
0.267473  0.311581  0.098882
0.302091  0.339807  0.096524
0.342847  0.366363  0.081813
0.385925  0.394523  0.073724
0.440158  0.412649  0.075768
0.509465  0.420785  0.075410
0.569576  0.428088  0.073749
0.636991  0.429526  0.067061
0.700510  0.445233  0.066969
0.768949  0.441489  0.060443
0.837903  0.455245  0.066634
0.915458  0.462190  0.060042
0.976059  0.477626  0.054388
0.215054  0.314063  0.102408
0.251837  0.333983  0.100419
0.290167  0.357077  0.103373
0.329753  0.383541  0.098987
0.373188  0.417004  0.075619
0.413209  0.446414  0.080392
0.464903  0.469907  0.070656
0.513614  0.488441  0.072385
0.574920  0.490420  0.080383
0.645197  0.499595  0.074125
0.710225  0.507819  0.074052
0.776225  0.509935  0.059794
0.843511  0.518627  0.068765
0.910202  0.520379  0.061258
0.986534  0.523105  0.063981
0.243720  0.355305  0.103194
0.276557  0.377560  0.105987
0.319003  0.400706  0.106739
0.356829  0.425415  0.099197
0.399999  0.455635  0.088112
0.441728  0.483245  0.074633
0.484079  0.511971  0.074515
0.522144  0.539989  0.071976
0.588255  0.547818  0.072456
0.651697  0.568158  0.071506
0.714098  0.571298  0.071157
0.780650  0.571443  0.075618
0.851242  0.582402  0.071713
0.922662  0.583731  0.066735
0.985352  0.587710  0.065427
0.242521  0.404497  0.102264
0.305918  0.421916  0.105682
0.343614  0.456259  0.106401
0.386657  0.474734  0.095279
0.430095  0.494089  0.090739
0.472997  0.526365  0.077495
0.518423  0.560526  0.081013
0.550607  0.578504  0.079192
0.601062  0.612062  0.078230
0.657401  0.624014  0.071424
0.722351  0.634557  0.072974
0.787610  0.639828  0.069420
0.850193  0.655188  0.069437
0.921863  0.653755  0.068488
0.988638  0.664605  0.069697
0.261661  0.468525  0.100823
0.308929  0.477010  0.102845
0.366414  0.488552  0.099033
0.415077  0.524610  0.100431
0.453922  0.544627  0.093810
0.502805  0.567555  0.086398
0.542551  0.595214  0.077449
0.583383  0.622518  0.079363
0.625867  0.644318  0.075559
0.673216  0.662835  0.086277
0.736600  0.687611  0.072384
0.791151  0.702135  0.075581
0.852036  0.713092  0.068506
0.920143  0.724417  0.076872
0.997936  0.711899  0.069286
0.267592  0.526698  0.097631
0.327592  0.535476  0.093463
0.385866  0.547762  0.088631
0.436318  0.564293  0.095862
0.483122  0.591672  0.093308
0.527478  0.611046  0.085620
0.569297  0.629371  0.080930
0.614430  0.658424  0.082961
0.653457  0.685198  0.075787
0.704158  0.702339  0.078908
0.754631  0.728081  0.077838
0.805544  0.749627  0.082954
0.869505  0.760381  0.072422
0.926535  0.773944  0.068121
0.990861  0.789884  0.069536
0.267173  0.595009  0.093278
0.346736  0.598800  0.082484
0.394391  0.603049  0.089121
0.451893  0.613411  0.087775
0.503040  0.632718  0.083646
0.549300  0.655570  0.080233
0.597269  0.673539  0.077885
0.640033  0.695873  0.080173
0.682841  0.727376  0.083204
0.725472  0.753946  0.086056
0.780981  0.769529  0.083518
0.832290  0.793565  0.076126
0.884933  0.807739  0.079108
0.952282  0.830190  0.072848
1.007933  0.846805  0.073096
0.278788  0.647727  0.089225
0.341159  0.655009  0.080616
0.405526  0.663477  0.080930
0.463679  0.675722  0.085071
0.516358  0.688694  0.076197
0.561432  0.704492  0.075764
0.609657  0.727605  0.083050
0.658574  0.750037  0.077980
0.709622  0.767758  0.082062
0.746256  0.789288  0.082905
0.801027  0.812705  0.081938
0.846608  0.840346  0.083632
0.908627  0.854252  0.081366
0.967030  0.868412  0.071637
1.021931  0.888880  0.073949
0.284488  0.715964  0.081046
0.349980  0.721797  0.080130
0.410287  0.725199  0.085846
0.473547  0.728399  0.078457
0.528889  0.741088  0.073496
0.584452  0.759522  0.074025
0.632998  0.771212  0.076758
0.684480  0.791246  0.077519
0.727043  0.814505  0.083083
0.774814  0.840251  0.076402
0.819437  0.859603  0.091088
0.865267  0.869746  0.083049
0.925174  0.898696  0.077278
0.978415  0.917497  0.076978
1.042426  0.929289  0.075094
0.039119  0.072522  0.078285
0.058990  0.084827  0.076805
0.103369  0.106835  0.076809
0.173973  0.115733  0.065746
0.246247  0.115888  0.063518
0.316077  0.117947  0.068667
0.384179  0.121955  0.074012
0.453069  0.118593  0.079651
0.527221  0.120273  0.079327
0.590633  0.125728  0.085298
0.663997  0.115262  0.075980
0.741917  0.119998  0.078606
0.805641  0.121741  0.079439
0.876340  0.122471  0.074148
0.952076  0.119645  0.072809
0.058272  0.099633  0.105887
0.076161  0.112909  0.110748
0.122741  0.135555  0.105902
0.176952  0.157071  0.095338
0.248976  0.168126  0.088055
0.320578  0.176413  0.085092
0.394243  0.176497  0.081184
0.454061  0.182630  0.077055
0.527415  0.188916  0.076378
0.591852  0.193188  0.077948
0.670980  0.189804  0.071504
0.738489  0.187129  0.076441
0.812378  0.195833  0.078475
0.886689  0.191982  0.066078
0.948647  0.191105  0.076530
0.075344  0.115577  0.135899
0.097988  0.131253  0.133467
0.134313  0.159989  0.132644
0.198111  0.183853  0.118562
0.253609  0.201358  0.108907
0.328002  0.211655  0.108528
0.398858  0.222309  0.093612
0.459812  0.238075  0.086908
0.528203  0.247190  0.090948
0.598937  0.251031  0.100696
0.670140  0.254769  0.083601
0.736906  0.256345  0.080655
0.810358  0.258307  0.079627
0.875300  0.260158  0.078049
0.951014  0.255263  0.077637
0.095149  0.144779  0.158514
0.130011  0.163704  0.152251
0.162481  0.186555  0.146934
0.217451  0.210917  0.142403
0.268185  0.230582  0.135084
0.341924  0.246758  0.125675
0.408919  0.261653  0.120457
0.463653  0.270794  0.111659
0.542204  0.282249  0.105113
0.604847  0.300357  0.107127
0.666672  0.298476  0.095033
0.736945  0.302881  0.098567
0.813751  0.310010  0.090668
0.882408  0.315071  0.083622
0.951550  0.319314  0.081798
0.130835  0.166264  0.176035
0.167692  0.202622  0.169302
0.203431  0.230364  0.159922
0.241535  0.249957  0.153967
0.294818  0.272790  0.140775
0.338954  0.282748  0.145765
0.413985  0.303301  0.136283
0.480250  0.312532  0.119855
0.542517  0.332536  0.121887
0.607776  0.339211  0.120908
0.677527  0.354137  0.118060
0.744329  0.356294  0.111401
0.823004  0.363321  0.110790
0.885869  0.368224  0.100010
0.962366  0.372405  0.101624
0.158549  0.211313  0.178734
0.190248  0.239321  0.171383
0.223100  0.268760  0.169292
0.263637  0.298892  0.161732
0.311428  0.322484  0.150293
0.360696  0.342757  0.153418
0.435116  0.356711  0.146025
0.491509  0.360189  0.138441
0.561354  0.369230  0.135198
0.622373  0.390362  0.138697
0.690574  0.398717  0.130641
0.751772  0.415848  0.128529
0.819309  0.412866  0.121396
0.894185  0.416758  0.113325
0.962488  0.425086  0.109540
0.180530  0.260091  0.178876
0.223288  0.283975  0.178101
0.258896  0.315605  0.168993
0.302139  0.343992  0.156572
0.336600  0.372075  0.145193
0.382789  0.397296  0.154183
0.442011  0.412616  0.144011
0.508361  0.416092  0.142118
0.561057  0.431913  0.134463
0.630961  0.443687  0.138282
0.701495  0.447020  0.140391
0.766896  0.447630  0.143515
0.837637  0.464353  0.132214
0.903261  0.473577  0.121107
0.964161  0.477469  0.114209
0.210470  0.313398  0.178656
0.246691  0.340356  0.178145
0.287886  0.358180  0.170378
0.327257  0.382589  0.161789
0.364765  0.413202  0.161791
0.402174  0.445214  0.153256
0.453057  0.463290  0.151123
0.514967  0.483273  0.146599
0.577113  0.488405  0.134764
0.639951  0.500766  0.135995
0.702648  0.505817  0.141839
0.765838  0.514786  0.140564
0.841080  0.519270  0.142428
0.915861  0.522118  0.136766
0.977465  0.534295  0.123631
0.236260  0.359595  0.177539
0.271288  0.383444  0.173600
0.308376  0.402913  0.169238
0.354439  0.432273  0.162554
0.396013  0.461490  0.164135
0.430825  0.489062  0.157076
0.482440  0.521257  0.148312
0.527770  0.543527  0.142779
0.587735  0.553382  0.139063
0.647834  0.560744  0.141851
0.711578  0.567093  0.140865
0.774290  0.583942  0.144139
0.842511  0.584520  0.139289
0.915897  0.585103  0.141068
0.982040  0.593917  0.136406
0.238785  0.409539  0.183422
0.299977  0.423546  0.170550
0.339739  0.450826  0.164136
0.375824  0.471697  0.172939
0.421058  0.495582  0.165871
0.458579  0.525916  0.160326
0.500400  0.559308  0.153139
0.547612  0.586919  0.143475
0.595137  0.611470  0.147055
0.656353  0.620854  0.138994
0.721835  0.633367  0.137183
0.786585  0.643982  0.140291
0.852392  0.646623  0.140087
0.913006  0.651601  0.140314
0.988569  0.653978  0.135821
0.259493  0.460398  0.179316
0.315342  0.472313  0.171798
0.367798  0.498081  0.169732
0.407642  0.518903  0.158228
0.448081  0.543415  0.165635
0.492780  0.567216  0.161352
0.533274  0.593018  0.161628
0.576522  0.620237  0.147865
0.622287  0.644382  0.138876
0.674397  0.670753  0.144946
0.731340  0.686548  0.145797
0.794593  0.701451  0.141612
0.855857  0.714080  0.140212
0.924016  0.720136  0.139871
0.998459  0.725095  0.137622
0.266083  0.522371  0.172768
0.328884  0.529023  0.169350
0.383414  0.544138  0.162417
0.434323  0.561995  0.162834
0.473433  0.585141  0.161668
0.524240  0.608012  0.169051
0.563479  0.629845  0.158551
0.604105  0.657225  0.148531
0.651549  0.685107  0.146317
0.705042  0.708858  0.140438
0.746449  0.731824  0.142640
0.806665  0.748223  0.145807
0.867339  0.766981  0.139140
0.926677  0.775176  0.145878
0.998513  0.784858  0.144746
0.268573  0.585438  0.161247
0.340538  0.593272  0.155905
0.397864  0.603476  0.155335
0.449555  0.614120  0.166023
0.498399  0.630966  0.163343
0.544194  0.652165  0.160135
0.591194  0.675277  0.157165
0.642683  0.696417  0.148358
0.678601  0.723850  0.149536
0.724810  0.749015  0.151130
0.778206  0.763820  0.143686
0.826270  0.789329  0.143560
0.889742  0.810646  0.138596
0.944481  0.824144  0.145783
1.005998  0.837698  0.134335
0.277427  0.645457  0.163218
0.337951  0.653087  0.149938
0.404695  0.657862  0.162270
0.459944  0.667425  0.152427
0.510722  0.689275  0.155710
0.561750  0.706462  0.154475
0.611099  0.716790  0.151733
0.664793  0.747784  0.154688
0.704269  0.763480  0.144771
0.752546  0.786780  0.139785
0.790795  0.814985  0.142917
0.854461  0.832673  0.141499
0.902490  0.854864  0.147994
0.962044  0.874365  0.144887
1.019122  0.891336  0.144019
0.277466  0.698351  0.157851
0.349910  0.712976  0.148544
0.415966  0.724725  0.153175
0.476566  0.724797  0.153117
0.533325  0.733206  0.149575
0.575369  0.757596  0.153684
0.624645  0.773350  0.147607
0.687354  0.783135  0.141512
0.720257  0.815242  0.145625
0.777971  0.842930  0.150072
0.818347  0.852774  0.145128
0.869989  0.873121  0.143198
0.919120  0.890021  0.145246
0.982491  0.912152  0.147609
1.040792  0.929067  0.146062
0.030732  0.091246  0.125414
0.056018  0.112157  0.134291
0.105249  0.131792  0.138120
0.168011  0.134102  0.141849
0.240276  0.137057  0.130726
0.317128  0.131763  0.127090
0.389465  0.129620  0.127571
0.456706  0.130083  0.126776
0.527308  0.128937  0.130558
0.591104  0.129487  0.132387
0.659299  0.126873  0.139757
0.734228  0.122852  0.144026
0.810313  0.125326  0.144429
0.881004  0.119475  0.138068
0.952426  0.121405  0.143993
0.058976  0.113453  0.146073
0.082277  0.139875  0.162258
0.118154  0.157049  0.150399
0.172311  0.175530  0.150392
0.240766  0.183969  0.147620
0.314350  0.189884  0.135112
0.389372  0.193456  0.132348
0.457766  0.194690  0.134610
0.521572  0.190106  0.138123
0.595975  0.195984  0.140220
0.666479  0.193846  0.145194
0.734615  0.193363  0.143269
0.808078  0.198528  0.144066
0.875041  0.186371  0.144902
0.952510  0.191055  0.134824
0.079501  0.142510  0.173305
0.107652  0.166020  0.184945
0.137491  0.184246  0.186606
0.189335  0.209120  0.181240
0.245439  0.224787  0.172102
0.316851  0.235702  0.156724
0.386094  0.240995  0.149253
0.452404  0.246153  0.147312
0.530275  0.252339  0.152421
0.599235  0.259869  0.139591
0.667302  0.264632  0.147876
0.739800  0.266029  0.139245
0.807698  0.261580  0.147384
0.874832  0.263735  0.146666
0.950525  0.265887  0.139963
0.094400  0.164949  0.205917
0.119762  0.183481  0.208938
0.157366  0.206624  0.211023
0.202224  0.229293  0.210057
0.267293  0.260067  0.194225
0.326362  0.276487  0.187427
0.406869  0.287670  0.175296
0.467509  0.288519  0.169024
0.534075  0.301439  0.163367
0.605385  0.312791  0.154412
0.665360  0.308953  0.153406
0.738081  0.320180  0.153055
0.808694  0.319434  0.151635
0.878674  0.326810  0.150686
0.943272  0.334372  0.154269
0.122525  0.197709  0.230908
0.157721  0.217463  0.239162
0.193500  0.239233  0.225001
0.231334  0.262394  0.228718
0.285345  0.281859  0.211046
0.345809  0.300500  0.205267
0.406626  0.320638  0.195936
0.476633  0.336584  0.190652
0.535417  0.345964  0.178344
0.609576  0.355987  0.165651
0.674431  0.368281  0.168816
0.744679  0.371241  0.167143
0.813407  0.376203  0.161362
0.882868  0.385007  0.167807
0.954557  0.390531  0.160245
0.150107  0.221708  0.255740
0.186362  0.242748  0.235355
0.225243  0.272534  0.232157
0.260792  0.302164  0.229053
0.299451  0.328935  0.226333
0.360073  0.347380  0.220265
0.428800  0.364225  0.204139
0.489955  0.366763  0.209487
0.552191  0.383902  0.198925
0.611108  0.392506  0.187742
0.682982  0.406676  0.187836
0.747678  0.416710  0.183477
0.820968  0.424891  0.175939
0.896356  0.433641  0.174858
0.953516  0.439775  0.172576
0.177299  0.258884  0.254494
0.216631  0.288290  0.242814
0.256121  0.320772  0.236504
0.288741  0.345964  0.235033
0.323986  0.371199  0.225404
0.385237  0.397662  0.222304
0.437090  0.415401  0.211302
0.502293  0.427525  0.216313
0.563002  0.434701  0.209901
0.628117  0.442550  0.212114
0.690692  0.456333  0.193817
0.762203  0.468941  0.196037
0.828730  0.471365  0.188350
0.891976  0.486800  0.195215
0.963160  0.487422  0.187004
0.195372  0.305977  0.257173
0.242566  0.339904  0.244231
0.288962  0.368937  0.238982
0.317529  0.390209  0.238672
0.357266  0.421811  0.229570
0.406911  0.445917  0.213419
0.461254  0.468873  0.218277
0.505998  0.485648  0.221249
0.572355  0.490158  0.219541
0.637361  0.504309  0.215176
0.709623  0.516704  0.205601
0.776571  0.508180  0.206399
0.837264  0.529840  0.207039
0.903995  0.536252  0.203817
0.965830  0.547866  0.198786
0.221360  0.353518  0.247008
0.266757  0.377389  0.249418
0.307615  0.411585  0.243050
0.343434  0.432724  0.237495
0.387489  0.460875  0.231127
0.429076  0.489368  0.220511
0.473394  0.516514  0.218903
0.516530  0.534838  0.221007
0.577433  0.553100  0.220871
0.649790  0.553724  0.210033
0.721339  0.569444  0.210084
0.786512  0.582735  0.209676
0.841339  0.579266  0.209822
0.914347  0.589059  0.211722
0.987245  0.590758  0.210351
0.238851  0.408528  0.254175
0.293909  0.423254  0.241340
0.339952  0.451803  0.246737
0.372509  0.471273  0.237804
0.421798  0.506625  0.230070
0.460884  0.534572  0.230528
0.498881  0.553680  0.226228
0.549347  0.587681  0.222441
0.600823  0.612208  0.217349
0.661543  0.627577  0.212419
0.725766  0.632885  0.213098
0.791625  0.646989  0.212987
0.846034  0.648298  0.206058
