LUT/LUT_10.CUBE
TITLE "LUT_10" 
#LUT size 
LUT_3D_SIZE 5 
#data point 
DOMAIN_MIN 0.000000 0.000000 0.000000
DOMAIN_MAX 0.857143 0.857143 0.857143
0.037560  0.035551  0.015642
0.143553  0.119408  0.050730
0.344513  0.204201  0.029413
0.532496  0.258616  0.023572
0.725525  0.295047  0.020741
0.118005  0.117233  0.062257
0.226370  0.183712  0.063653
0.394790  0.261400  0.050969
0.570763  0.327689  0.039181
0.762112  0.385215  0.036199
0.231663  0.202017  0.080852
0.346543  0.301539  0.064646
0.458977  0.379097  0.058471
0.622359  0.456214  0.049657
0.802177  0.485637  0.044606
0.352461  0.318268  0.082538
0.448402  0.401273  0.062443
0.558131  0.501401  0.056437
0.676684  0.591501  0.055022
0.834686  0.652070  0.058005
0.432667  0.424650  0.073992
0.539580  0.514539  0.056002
0.649412  0.606003  0.058599
0.772351  0.676690  0.063675
0.903268  0.762854  0.065559
0.092640  0.113732  0.088217
0.156248  0.163451  0.117422
0.347592  0.240123  0.084120
0.518369  0.286462  0.060420
0.701900  0.328707  0.049263
0.135271  0.177102  0.176579
0.198878  0.229158  0.207166
0.387922  0.320806  0.163017
0.567693  0.375601  0.129637
0.756128  0.431524  0.113811
0.199300  0.250211  0.249876
0.301748  0.309292  0.253345
0.441943  0.393504  0.210738
0.609887  0.455234  0.184559
0.783354  0.520563  0.182695
0.290420  0.328092  0.282051
0.418470  0.402965  0.254537
0.530405  0.503321  0.247037
0.672381  0.590212  0.209357
0.831635  0.649010  0.197721
0.405415  0.424452  0.281729
0.527109  0.521354  0.241781
0.628986  0.613140  0.242633
0.768412  0.698243  0.216873
0.909017  0.770417  0.198509
0.129642  0.177933  0.190368
0.173141  0.229927  0.240520
0.321247  0.304296  0.229619
0.531281  0.351384  0.184264
0.717212  0.373159  0.169972
0.178055  0.250892  0.279619
0.231730  0.304587  0.321831
0.357072  0.373919  0.330527
0.536214  0.439149  0.290082
0.741714  0.498148  0.255200
0.235019  0.324105  0.357235
0.289790  0.388317  0.425091
0.410077  0.446017  0.407874
0.583397  0.530029  0.376846
0.775375  0.583222  0.344094
0.289161  0.396449  0.440125
0.366388  0.462994  0.480122
0.510301  0.531256  0.460731
0.648842  0.613849  0.456661
0.828455  0.680613  0.416232
0.345469  0.455297  0.499469
0.482809  0.528420  0.489590
0.603443  0.609843  0.470289
0.741627  0.708432  0.458584
0.891212  0.788949  0.455379
0.152409  0.258129  0.321607
0.220283  0.313868  0.362335
0.329263  0.379259  0.360077
0.507618  0.421667  0.326548
0.730647  0.442437  0.293861
0.225036  0.338009  0.395946
0.284753  0.394852  0.441671
0.356132  0.450431  0.469642
0.528271  0.518154  0.438863
0.724398  0.565387  0.390908
0.287893  0.408918  0.463104
0.343504  0.467589  0.514582
0.410586  0.525293  0.557724
0.557351  0.588638  0.531583
0.752355  0.664131  0.501180
0.350426  0.484175  0.538453
0.409283  0.539608  0.589081
0.474168  0.606829  0.646211
0.635042  0.677116  0.626121
0.793022  0.743396  0.587246
0.400078  0.542723  0.601494
0.462537  0.603838  0.652309
0.544847  0.669469  0.697855
0.717453  0.741607  0.673200
0.877192  0.813487  0.670788
0.128282  0.341410  0.487197
0.239910  0.406800  0.491249
0.328237  0.467318  0.528126
0.494857  0.493710  0.478823
0.706104  0.491327  0.461895
0.216852  0.419825  0.534089
0.329437  0.483016  0.553192
0.391838  0.544556  0.603631
0.522467  0.587960  0.566155
0.710472  0.645809  0.543330
0.321635  0.488676  0.563377
0.405434  0.551177  0.613160
0.472875  0.623097  0.675492
0.566617  0.678989  0.697052
0.750304  0.742117  0.638951
0.382132  0.549260  0.615565
0.469625  0.621350  0.675784
0.522833  0.681717  0.751771
0.617541  0.753036  0.808596
0.779596  0.802326  0.754667
0.437399  0.616989  0.696724
0.509054  0.677741  0.754229
0.595749  0.746593  0.826176
0.687177  0.812952  0.863538
0.834361  0.883473  0.877488
