LUT/LUT_18.CUBE
TITLE "LUT_18" 
#LUT size 
LUT_3D_SIZE 15 
DOMAIN_MIN 0.0 0.0 0.0 
DOMAIN_MAX 1.0 1.0 1.0 
#data point 
0.053848  0.056608  0.026860
0.072286  0.067594  0.031358
0.095899  0.091254  0.046579
0.138604  0.121580  0.058344
0.195086  0.165817  0.067255
0.249078  0.196436  0.060740
0.321140  0.237170  0.052079
0.365943  0.245514  0.045876
0.430442  0.284912  0.048823
0.488701  0.309223  0.038047
0.540357  0.326482  0.040523
0.587403  0.351157  0.044750
0.663919  0.378690  0.044547
0.719900  0.388476  0.046489
0.795470  0.412816  0.042440
0.065579  0.067250  0.031022
0.084936  0.084238  0.032143
0.110444  0.099917  0.044243
0.157743  0.134968  0.058532
0.208382  0.177944  0.067862
0.277546  0.213488  0.058440
0.335257  0.249831  0.061949
0.399733  0.275285  0.052961
0.448127  0.301094  0.048197
0.488436  0.315276  0.043747
0.560872  0.347526  0.054232
0.624991  0.376233  0.053790
0.690459  0.395702  0.048607
0.748767  0.417478  0.041477
0.804727  0.436436  0.049340
0.101069  0.098239  0.050237
0.098489  0.086454  0.049695
0.134885  0.120902  0.056368
0.170350  0.152462  0.071493
0.245506  0.200027  0.066880
0.291779  0.226053  0.064015
0.366013  0.264192  0.067151
0.407265  0.289079  0.059819
0.468124  0.320588  0.057643
0.522785  0.337957  0.054473
0.571901  0.362720  0.049897
0.643952  0.401036  0.052311
0.696272  0.415285  0.049228
0.766717  0.439624  0.054480
0.820168  0.460405  0.054741
0.115791  0.113110  0.059404
0.131730  0.121581  0.064344
0.163363  0.145106  0.070770
0.219250  0.186244  0.080080
0.281454  0.228952  0.073454
0.327603  0.253424  0.066152
0.379154  0.280947  0.065034
0.442000  0.309302  0.050110
0.491895  0.334754  0.051451
0.535938  0.356510  0.052105
0.592937  0.385677  0.055663
0.659832  0.409962  0.054852
0.709401  0.435683  0.047393
0.782194  0.449787  0.048669
0.846296  0.486835  0.045614
0.144941  0.131374  0.070151
0.177096  0.161039  0.083572
0.219139  0.185774  0.084338
0.258555  0.209462  0.079214
0.304778  0.235023  0.074577
0.360315  0.278513  0.081958
0.403816  0.297315  0.072220
0.458404  0.335679  0.063391
0.521339  0.359356  0.060947
0.568692  0.381359  0.054155
0.611134  0.417633  0.060748
0.695019  0.449245  0.055312
0.735637  0.463159  0.058797
0.805152  0.485290  0.052193
0.863773  0.505204  0.057195
0.176805  0.167379  0.097296
0.218926  0.186846  0.080716
0.251671  0.209103  0.084973
0.313465  0.245513  0.071562
0.339933  0.273938  0.072566
0.370051  0.295168  0.078414
0.438585  0.329646  0.073416
0.486969  0.366117  0.072920
0.524318  0.379890  0.061563
0.564953  0.407673  0.055458
0.641019  0.443786  0.056454
0.688606  0.463081  0.070183
0.767212  0.482384  0.054237
0.814776  0.514297  0.061393
0.876802  0.533987  0.062064
0.226591  0.196715  0.083228
0.264866  0.222521  0.084631
0.307405  0.253342  0.093280
0.345517  0.286932  0.093292
0.381778  0.302885  0.075116
0.431099  0.338244  0.083879
0.455556  0.361208  0.074571
0.511336  0.403233  0.074623
0.554772  0.419878  0.063209
0.618975  0.467359  0.066169
0.663110  0.484811  0.060066
0.707365  0.495142  0.064773
0.767711  0.527532  0.053874
0.831236  0.542256  0.062042
0.907137  0.562806  0.060475
0.276365  0.237173  0.101063
0.310505  0.259794  0.091479
0.340680  0.272526  0.084585
0.388522  0.308543  0.076608
0.423407  0.352386  0.082544
0.463330  0.381585  0.064190
0.493027  0.402556  0.071711
0.533328  0.425300  0.070726
0.582037  0.469474  0.069600
0.635958  0.499651  0.061066
0.693270  0.517134  0.063944
0.746672  0.547090  0.073456
0.797742  0.569365  0.070404
0.858471  0.581652  0.069371
0.928747  0.611118  0.063898
0.303618  0.250457  0.106981
0.350123  0.293685  0.085364
0.379610  0.309849  0.068381
0.410134  0.336292  0.077336
0.464338  0.387324  0.083931
0.493923  0.404411  0.078730
0.527288  0.439561  0.071606
0.581157  0.475601  0.078519
0.610860  0.509553  0.074395
0.665252  0.546085  0.064381
0.696221  0.565481  0.070885
0.746448  0.587679  0.075336
0.819435  0.606710  0.066032
0.862122  0.641559  0.071740
0.939688  0.658634  0.061283
0.366267  0.303740  0.098117
0.391216  0.321324  0.085823
0.421643  0.351604  0.077289
0.459308  0.381536  0.079395
0.494217  0.419716  0.069681
0.531388  0.440758  0.070013
0.566097  0.476598  0.072823
0.619295  0.511421  0.069225
0.652090  0.549644  0.059844
0.688289  0.573183  0.070133
0.736669  0.616666  0.070280
0.772117  0.632248  0.059769
0.825410  0.661346  0.076331
0.889221  0.668027  0.068099
0.942461  0.702232  0.073010
0.376077  0.324663  0.091262
0.430986  0.347910  0.088198
0.459212  0.392353  0.076937
0.488997  0.417319  0.075478
0.549884  0.453036  0.078378
0.568784  0.486022  0.073707
0.607153  0.508879  0.084290
0.648282  0.554544  0.067103
0.694912  0.585898  0.067431
0.722274  0.612889  0.068181
0.767499  0.648568  0.067411
0.800796  0.664091  0.070571
0.863175  0.698953  0.075258
0.915457  0.718965  0.067249
0.957311  0.738415  0.080415
0.431987  0.357433  0.087495
0.456904  0.380650  0.088549
0.491682  0.421785  0.077313
0.529782  0.447797  0.070515
0.568825  0.487988  0.072431
0.621553  0.517046  0.066013
0.638260  0.548850  0.066039
0.669952  0.580316  0.061810
0.724194  0.615579  0.074179
0.757361  0.640664  0.063993
0.795728  0.677346  0.071356
0.842287  0.700331  0.068214
0.891210  0.724383  0.067354
0.926144  0.768686  0.081545
0.990402  0.779853  0.069635
0.455334  0.391443  0.083859
0.491554  0.417068  0.072688
0.530178  0.448807  0.071410
0.562368  0.491503  0.062629
0.605523  0.520789  0.076083
0.638886  0.555759  0.080895
0.680578  0.585620  0.070243
0.708833  0.604238  0.077351
0.753957  0.637885  0.074040
0.779521  0.660337  0.071158
0.827420  0.691620  0.068889
0.881029  0.724321  0.082217
0.912732  0.752738  0.080633
0.952124  0.783747  0.069932
1.023018  0.806823  0.081304
0.505197  0.431198  0.071318
0.538731  0.470573  0.070443
0.571155  0.497898  0.070055
0.609042  0.525736  0.078456
0.644031  0.552851  0.069045
0.673335  0.574909  0.060194
0.706698  0.606567  0.072949
0.750237  0.640077  0.063347
0.773966  0.664781  0.074690
0.810918  0.682954  0.075328
0.854999  0.713777  0.072569
0.902821  0.738540  0.071216
0.943110  0.773431  0.074392
0.980192  0.795871  0.074484
1.023177  0.818422  0.073017
0.533248  0.460665  0.077591
0.554208  0.491665  0.069800
0.599813  0.518715  0.072311
0.642325  0.553588  0.066003
0.675710  0.585274  0.075278
0.698553  0.607449  0.075618
0.735959  0.629344  0.077759
0.775707  0.663462  0.070628
0.809443  0.687976  0.067387
0.847967  0.712062  0.073066
0.884471  0.732221  0.083527
0.921854  0.767368  0.079412
0.972211  0.788408  0.084695
1.029804  0.818568  0.077909
1.076553  0.849535  0.080395
0.070884  0.066462  0.034999
0.083917  0.074477  0.034050
0.100971  0.092500  0.046070
0.123400  0.115259  0.053189
0.183148  0.157227  0.071676
0.248720  0.193022  0.061400
0.322315  0.237577  0.061907
0.374577  0.263055  0.054777
0.434846  0.284139  0.045228
0.477108  0.299108  0.044671
0.548116  0.332130  0.042996
0.598459  0.358496  0.042871
0.673012  0.375319  0.040665
0.719579  0.397117  0.044817
0.781399  0.417556  0.045596
0.083973  0.082430  0.042259
0.088891  0.085207  0.038022
0.117012  0.105231  0.049948
0.164631  0.148203  0.068036
0.217269  0.184166  0.074430
0.288709  0.225511  0.056186
0.335500  0.248618  0.056928
0.379949  0.279236  0.055622
0.446973  0.304633  0.049138
0.507601  0.328089  0.046848
0.554385  0.347904  0.046265
0.620598  0.380060  0.044964
0.691609  0.401207  0.040911
0.747360  0.411278  0.046790
0.808719  0.441301  0.045447
0.099336  0.093427  0.051597
0.108760  0.104249  0.060184
0.148599  0.133319  0.069844
0.179875  0.162564  0.076310
0.230207  0.195024  0.078684
0.307130  0.240943  0.074206
0.346691  0.261230  0.060434
0.411913  0.294070  0.061830
0.463796  0.319678  0.056167
0.515179  0.335738  0.056829
0.582871  0.377108  0.056036
0.637686  0.390978  0.055654
0.711031  0.420532  0.050516
0.764187  0.445808  0.049807
0.836297  0.468177  0.059305
0.124103  0.124296  0.078664
0.143539  0.138973  0.070745
0.169120  0.162821  0.094131
0.210406  0.185352  0.094942
0.253514  0.218944  0.082759
0.328614  0.258762  0.072474
0.376196  0.278206  0.073587
0.436050  0.320067  0.079000
0.482691  0.344646  0.063210
0.530910  0.364474  0.058813
0.594688  0.392938  0.063795
0.657558  0.420981  0.061308
0.716307  0.439541  0.050132
0.773270  0.464438  0.051075
0.839886  0.486094  0.058509
0.154996  0.149433  0.090128
0.176472  0.167388  0.093227
0.211918  0.190999  0.107132
0.248309  0.216727  0.094378
0.304773  0.252563  0.104320
0.350210  0.265054  0.085742
0.407088  0.306536  0.085627
0.448177  0.325109  0.072361
0.503791  0.365374  0.081041
0.558871  0.394723  0.077937
0.606674  0.408861  0.055994
0.683670  0.445924  0.059522
0.742589  0.474082  0.067476
0.793080  0.482672  0.060766
0.848891  0.516990  0.059116
0.186537  0.172632  0.102808
0.222920  0.192570  0.110912
0.254211  0.231035  0.121453
0.291838  0.248347  0.123647
0.339555  0.279790  0.092057
0.387136  0.310667  0.092793
0.451657  0.340569  0.088824
0.468241  0.361899  0.096790
0.525145  0.386192  0.073260
0.577999  0.425929  0.084617
0.638913  0.444875  0.074592
0.694175  0.478563  0.066529
0.747944  0.481011  0.067564
0.819432  0.519583  0.063568
0.886327  0.554573  0.054618
0.234295  0.223891  0.142387
0.271864  0.236330  0.110937
0.291312  0.258711  0.127055
0.334631  0.276786  0.118608
0.382014  0.308510  0.100011
0.430657  0.345271  0.092362
0.457999  0.369690  0.089712
0.515005  0.400740  0.093990
0.550400  0.419288  0.090141
0.588720  0.446893  0.090415
0.668154  0.484206  0.076197
0.720147  0.505537  0.066554
0.774386  0.528245  0.069563
0.850041  0.552276  0.060249
0.899057  0.579407  0.064740
0.259977  0.232571  0.127170
0.289091  0.259790  0.131357
0.336541  0.290746  0.130402
0.376323  0.313342  0.126953
0.423745  0.348688  0.091541
0.461649  0.372210  0.101204
0.505205  0.407080  0.092020
0.555309  0.439676  0.083961
0.589158  0.458714  0.078802
0.622282  0.486663  0.090589
0.680783  0.525295  0.068863
0.738641  0.538245  0.069363
0.800298  0.566133  0.065322
0.855868  0.591813  0.070351
0.931579  0.603663  0.076252
0.311405  0.264778  0.124029
0.342783  0.298398  0.140634
0.375849  0.314754  0.120524
0.399895  0.340775  0.119344
0.450075  0.378161  0.108517
0.495981  0.412441  0.091768
0.530576  0.442138  0.099000
0.572668  0.471151  0.078721
0.611355  0.513060  0.089475
0.670118  0.555376  0.090847
0.721751  0.564844  0.083076
0.764329  0.585650  0.088920
0.814978  0.607677  0.079629
0.883268  0.645786  0.086353
0.933286  0.647359  0.072570
0.331717  0.286411  0.127516
0.394342  0.326357  0.126379
0.423234  0.357727  0.127188
0.458709  0.383054  0.100522
0.491785  0.420525  0.106445
0.538823  0.450754  0.086949
0.581338  0.490387  0.100027
0.611765  0.514287  0.092507
0.653961  0.550117  0.084330
0.683223  0.576253  0.078638
0.744767  0.626946  0.077641
0.778993  0.636272  0.065412
0.832186  0.656819  0.076266
0.889674  0.677338  0.079612
0.954039  0.706313  0.076045
0.368539  0.320465  0.135411
0.396273  0.344947  0.132690
0.441203  0.385230  0.128722
0.502540  0.425521  0.102876
0.534545  0.450878  0.097788
0.571840  0.489788  0.092250
0.623949  0.527555  0.089691
0.651780  0.557765  0.082972
0.694574  0.584726  0.091433
0.722800  0.616583  0.085224
0.774891  0.637361  0.081389
0.811592  0.672631  0.083931
0.854564  0.694769  0.072351
0.919939  0.716127  0.080001
0.962603  0.730302  0.085489
0.409273  0.347489  0.133632
0.450301  0.382399  0.119953
0.502885  0.435173  0.109875
0.530328  0.446601  0.096006
0.564569  0.494641  0.106153
0.609512  0.521321  0.098852
0.631606  0.537425  0.097027
0.674450  0.579110  0.099593
0.707243  0.602724  0.092177
0.736136  0.628048  0.088916
0.794353  0.665686  0.074538
0.840914  0.697584  0.088085
0.894234  0.731618  0.079259
0.929923  0.756860  0.082028
0.984210  0.780685  0.076128
0.460936  0.393378  0.124787
0.509517  0.434117  0.077715
0.534332  0.450809  0.104555
0.581342  0.495072  0.095668
0.594572  0.519009  0.098456
0.639473  0.550220  0.096587
0.680342  0.591284  0.095724
0.693275  0.602591  0.092495
0.754432  0.635192  0.096967
0.787974  0.663894  0.099374
0.822771  0.683792  0.081916
0.877264  0.732502  0.088877
0.913277  0.743581  0.082877
0.975075  0.778398  0.086534
1.008308  0.796841  0.081189
0.479380  0.420761  0.115899
0.508071  0.447662  0.100281
0.568447  0.486462  0.089054
0.584908  0.506015  0.092058
0.639291  0.552775  0.083232
0.668281  0.577290  0.079528
0.688247  0.603069  0.103928
0.750203  0.645126  0.086523
0.782859  0.662455  0.085720
0.810052  0.688846  0.097516
0.859343  0.721394  0.083942
0.894264  0.736802  0.093868
0.935793  0.770521  0.095650
0.987923  0.796845  0.080231
1.033633  0.827222  0.078385
0.534061  0.462734  0.121839
0.560254  0.496383  0.087006
0.580677  0.502944  0.104427
0.629709  0.540260  0.086449
0.658207  0.573329  0.089229
0.706739  0.605332  0.096265
0.737915  0.636031  0.087902
0.779791  0.668090  0.095072
0.805102  0.675836  0.094159
0.850192  0.709859  0.098806
0.890394  0.744320  0.093922
0.915489  0.763159  0.090008
0.976611  0.798738  0.092734
1.021073  0.816258  0.083215
1.078335  0.854096  0.101793
0.090504  0.082065  0.040590
0.102207  0.104919  0.058651
0.116745  0.108594  0.061232
0.159133  0.144298  0.072481
0.197629  0.164570  0.076431
0.258501  0.207405  0.070657
0.314125  0.236879  0.060854
0.387129  0.267844  0.056869
0.441264  0.295112  0.053696
0.478483  0.313410  0.053712
0.535528  0.338790  0.046516
0.604579  0.367162  0.050760
0.651508  0.385182  0.041731
0.745663  0.411759  0.049476
0.793560  0.414951  0.039922
0.108374  0.109044  0.068231
0.117750  0.122002  0.070923
0.131397  0.131845  0.087159
0.164628  0.157245  0.094721
0.220996  0.199519  0.100732
0.288433  0.233916  0.079940
0.339158  0.262769  0.067515
0.388227  0.279891  0.070706
0.455472  0.313682  0.059679
0.506513  0.338457  0.063037
0.563049  0.369447  0.048434
0.622580  0.386018  0.050610
0.677194  0.405571  0.051193
0.767639  0.433755  0.043843
0.809428  0.445537  0.050256
0.121383  0.124510  0.083913
0.130143  0.144959  0.112667
0.153983  0.156732  0.099686
0.191517  0.175260  0.104327
0.228294  0.206441  0.112403
0.307986  0.256546  0.108602
0.350011  0.278079  0.088830
0.394424  0.299572  0.081369
0.470287  0.330960  0.077043
0.525783  0.360117  0.086114
0.574885  0.385500  0.060536
0.634907  0.413224  0.057303
0.704631  0.430049  0.055730
0.763950  0.455262  0.057727
0.810794  0.467568  0.049093
0.140608  0.159091  0.121995
0.157439  0.164085  0.129912
0.157811  0.171023  0.142466
0.205464  0.202658  0.132164
0.237877  0.222047  0.133442
0.325770  0.273902  0.116350
0.377386  0.309168  0.112419
0.421897  0.323038  0.101921
0.488225  0.363199  0.088596
0.540943  0.381978  0.093179
0.581592  0.401155  0.084814
0.651112  0.430656  0.076340
0.710176  0.452057  0.063229
0.768029  0.471508  0.059555
0.838132  0.494633  0.059469
0.143966  0.172963  0.149446
0.186265  0.208484  0.177637
0.200427  0.210812  0.156368
0.225629  0.222142  0.160904
0.291125  0.257088  0.136727
0.333370  0.286248  0.140278
0.395295  0.314420  0.132179
0.463718  0.350461  0.111702
0.504691  0.378269  0.114498
0.561145  0.405723  0.101916
0.617689  0.431479  0.103913
0.677616  0.450367  0.091864
0.729851  0.475945  0.079672
0.790968  0.514282  0.072306
0.856160  0.530113  0.063662
0.169131  0.202016  0.174950
0.197365  0.215074  0.174301
0.241761  0.245548  0.172822
0.261797  0.255992  0.167015
0.318877  0.288172  0.166956
0.367918  0.320083  0.167622
0.429951  0.343289  0.138675
0.478558  0.369866  0.125832
0.542538  0.406809  0.109114
0.580254  0.428828  0.115789
0.633646  0.452498  0.099710
0.693973  0.485837  0.119566
0.740090  0.497015  0.089525
0.817485  0.539157  0.088416
0.863858  0.549026  0.084454
0.208620  0.226600  0.186030
0.239057  0.246722  0.181450
0.282112  0.271091  0.188359
0.325539  0.297037  0.184884
0.359221  0.320278  0.171258
0.409377  0.342407  0.165595
0.457351  0.379553  0.152131
0.506681  0.404609  0.143772
0.543252  0.420381  0.132936
0.596185  0.460324  0.127842
0.656517  0.495325  0.134448
0.709761  0.516815  0.137946
0.772687  0.529377  0.126419
0.840880  0.575422  0.113254
0.895231  0.580779  0.089547
0.257818  0.262908  0.203665
0.286042  0.282700  0.208350
0.325697  0.304956  0.194138
0.355928  0.320422  0.167987
0.399815  0.356293  0.186089
0.447150  0.375498  0.157642
0.493337  0.410682  0.165224
0.540021  0.440652  0.140860
0.594316  0.472162  0.117275
0.649405  0.498375  0.126048
0.682255  0.518992  0.134499
0.724432  0.551290  0.140285
0.781731  0.580280  0.133107
0.866741  0.601427  0.105683
0.905083  0.615107  0.108918
0.275140  0.271724  0.204017
0.331072  0.308207  0.194449
0.353434  0.320613  0.183392
0.406586  0.357363  0.187559
0.435089  0.381429  0.193248
0.465253  0.406484  0.177240
0.526858  0.449002  0.163869
0.561711  0.479725  0.145478
0.631369  0.511101  0.123604
0.665198  0.534855  0.127626
0.714329  0.566292  0.123044
0.756024  0.596771  0.130626
0.814736  0.613222  0.131290
0.874836  0.636993  0.126940
0.933261  0.663002  0.115903
0.311685  0.303440  0.213611
0.358760  0.336871  0.198065
0.403155  0.358841  0.183763
0.431915  0.383692  0.198277
0.462243  0.408202  0.193736
0.523313  0.444314  0.165222
0.570697  0.480659  0.160959
0.605174  0.508095  0.141459
0.647413  0.551943  0.136305
0.697455  0.583484  0.125794
0.739898  0.606922  0.133034
0.791862  0.633353  0.128444
0.840804  0.658832  0.140042
0.883233  0.681903  0.130865
0.937887  0.697910  0.120686
0.363598  0.331450  0.197488
0.400105  0.357265  0.189454
0.433520  0.394315  0.205050
0.488389  0.426089  0.172239
0.516626  0.446365  0.160900
0.543227  0.476109  0.163067
0.587369  0.515400  0.157730
0.646879  0.547947  0.145835
0.680035  0.585368  0.114330
0.719148  0.603095  0.132652
0.761423  0.636199  0.130707
0.796583  0.667060  0.134230
0.859315  0.709962  0.128748
0.907241  0.719711  0.129875
0.981525  0.756754  0.129026
0.403442  0.369507  0.207267
0.431911  0.387508  0.193815
0.482882  0.432548  0.195010
0.522039  0.446445  0.180481
0.567919  0.481206  0.171268
0.595013  0.512574  0.162621
0.623495  0.530303  0.158655
0.671373  0.571799  0.138969
0.719792  0.610016  0.145735
0.763331  0.640793  0.121042
0.793511  0.668853  0.135621
0.833708  0.712856  0.136667
0.880868  0.724663  0.135649
0.931939  0.764425  0.133567
0.990907  0.792139  0.142612
0.437007  0.388446  0.196181
0.465386  0.420069  0.191798
0.512374  0.447446  0.171874
0.533656  0.471683  0.193184
0.585158  0.506309  0.176002
0.632639  0.548160  0.163322
0.665559  0.569259  0.140242
0.703042  0.611868  0.145945
0.750556  0.641703  0.133521
0.782038  0.663337  0.132292
0.814148  0.694880  0.139977
0.854150  0.725969  0.133477
0.916060  0.757417  0.127524
0.963998  0.778888  0.153313
1.010239  0.802087  0.126729
0.474232  0.415045  0.205211
0.507679  0.443106  0.182165
0.526629  0.475520  0.193051
0.575296  0.510350  0.162695
0.614147  0.539525  0.150212
0.677373  0.589927  0.150864
0.703921  0.600766  0.140784
0.742458  0.647522  0.129681
0.775460  0.665829  0.129236
0.806977  0.688056  0.129635
0.844901  0.719131  0.126808
0.903229  0.756005  0.128800
0.934716  0.777741  0.138367
0.994030  0.811393  0.137509
1.037744  0.822610  0.154252
0.497535  0.448042  0.202691
0.552996  0.488428  0.192915
0.585261  0.526863  0.170989
0.620150  0.547355  0.157979
0.677846  0.571709  0.147797
0.690342  0.601357  0.151021
0.736721  0.638748  0.139192
0.765872  0.660395  0.138245
0.802590  0.689001  0.144550
0.849568  0.723588  0.151333
0.898435  0.754985  0.130525
0.918982  0.763377  0.144461
0.962862  0.800342  0.145509
1.020901  0.821979  0.136318
1.066854  0.854242  0.135918
0.113606  0.117727  0.076623
0.119453  0.122171  0.080400
0.134712  0.145643  0.108199
0.158205  0.160481  0.122488
0.200788  0.175532  0.095670
0.250655  0.215553  0.091089
0.334211  0.258375  0.084985
0.389902  0.279936  0.076729
0.417221  0.294601  0.067824
0.488105  0.333080  0.068016
0.533410  0.349981  0.065701
0.611212  0.373757  0.066113
0.658478  0.392039  0.056989
0.732908  0.416908  0.045201
0.783191  0.426712  0.045854
0.119034  0.134644  0.103834
0.128190  0.146153  0.125488
0.149258  0.164557  0.130491
0.173615  0.184026  0.135390
0.212065  0.205699  0.134017
0.273512  0.237898  0.113875
0.344710  0.279316  0.117987
0.399452  0.305531  0.098611
0.437615  0.321534  0.089014
0.497127  0.347927  0.085254
0.551284  0.372605  0.077110
0.617968  0.395000  0.072659
0.688292  0.424147  0.068230
0.739396  0.431103  0.051670
0.814655  0.452355  0.052179
0.131920  0.154784  0.127345
0.142058  0.174106  0.152737
0.164389  0.192320  0.166027
0.188173  0.212572  0.184443
0.220038  0.236842  0.160047
0.294105  0.262644  0.139131
0.360201  0.299968  0.138739
0.405504  0.312195  0.123284
0.470315  0.336981  0.110009
0.523202  0.381327  0.099140
0.578297  0.396333  0.100544
0.626660  0.418805  0.081539
0.688674  0.437485  0.072767
0.759690  0.462639  0.075179
0.836641  0.490613  0.063668
0.149959  0.178659  0.160067
0.161679  0.199210  0.185286
0.184728  0.217893  0.197326
0.205486  0.230259  0.199251
0.254212  0.260258  0.190974
0.308726  0.289609  0.173155
0.382399  0.317562  0.164562
0.419321  0.341105  0.135176
0.499064  0.374783  0.127585
0.553903  0.404570  0.116197
0.588248  0.413293  0.117839
0.644260  0.446162  0.118183
0.718757  0.471954  0.110410
0.768193  0.488537  0.094568
0.829215  0.511072  0.097486
0.165402  0.206547  0.203666
0.186681  0.227978  0.218383
0.201307  0.237134  0.212854
0.234871  0.255037  0.223935
0.278266  0.273417  0.201968
0.324072  0.306456  0.198582
0.375247  0.327902  0.184253
0.448324  0.365823  0.168004
0.485424  0.384541  0.155179
0.551749  0.417593  0.125581
0.609536  0.440741  0.134671
0.665141  0.460971  0.131072
0.713205  0.501570  0.135926
0.778178  0.520778  0.116601
0.860875  0.542522  0.112765
0.186847  0.226180  0.213599
0.198220  0.247004  0.228804
0.223488  0.264564  0.247412
0.247509  0.272062  0.243989
0.301389  0.308167  0.246694
0.356161  0.324931  0.219769
0.423260  0.362583  0.188247
0.465118  0.386709  0.202520
0.516913  0.416678  0.174751
0.552537  0.421732  0.169426
0.627462  0.472130  0.156359
0.678242  0.505702  0.153634
0.744761  0.526153  0.139575
0.796629  0.552490  0.144972
0.853333  0.564286  0.125773
0.215329  0.257511  0.242125
0.234775  0.260829  0.236333
0.259965  0.284830  0.247644
0.297620  0.305537  0.253546
0.329972  0.324675  0.239034
0.393200  0.367186  0.245775
0.445623  0.392523  0.211086
0.495490  0.424629  0.217131
0.548887  0.440789  0.196220
0.588289  0.461096  0.179607
0.644091  0.488400  0.177409
0.712839  0.525998  0.161201
0.756120  0.546420  0.168301
0.821074  0.574587  0.151263
0.886752  0.607625  0.159970
0.212991  0.269128  0.264132
0.274034  0.296070  0.262474
0.303915  0.323071  0.268619
0.343412  0.340264  0.272530
0.383729  0.362282  0.245964
0.435581  0.390376  0.213139
0.471307  0.423206  0.224708
0.528732  0.444188  0.227694
0.570697  0.477213  0.225852
0.628940  0.497406  0.197744
0.694246  0.544992  0.179790
0.732234  0.551095  0.190625
0.792052  0.585246  0.171847
0.830323  0.601325  0.182131
0.901433  0.623880  0.177523
0.267380  0.298423  0.263934
0.295281  0.317858  0.273116
0.337149  0.342392  0.277651
0.373977  0.360811  0.263442
0.422110  0.395538  0.257116
0.461879  0.425448  0.249765
0.499506  0.445795  0.229922
0.553724  0.491236  0.224799
0.591716  0.493750  0.229914
0.668946  0.541878  0.205548
0.720274  0.577716  0.177032
0.772097  0.593535  0.198446
0.805101  0.612340  0.190394
0.868638  0.653884  0.196573
0.932039  0.659280  0.193959
0.287644  0.322810  0.290412
0.335180  0.344522  0.270460
0.386964  0.374878  0.270364
0.423474  0.391431  0.258126
0.474910  0.426435  0.244221
0.511071  0.449504  0.246561
0.545328  0.475690  0.250380
0.586811  0.514767  0.226438
0.645277  0.545065  0.216223
0.675092  0.573412  0.192272
0.739972  0.611162  0.195301
0.798422  0.648656  0.189983
0.822556  0.655845  0.185997
0.903328  0.696475  0.197898
