LUT/LUT_8.CUBE
TITLE "LUT_8" 
#LUT size 
LUT_3D_SIZE 8 
DOMAIN_MIN 0.0 0.0 0.0 
DOMAIN_MAX 1.0 1.0 1.0 
#data point 
0.034237  0.031887  0.010797
0.093767  0.086104  0.036862
0.217387  0.154032  0.035838
0.354967  0.188224  0.024102
0.479345  0.215017  0.021320
0.609978  0.239727  0.016214
0.748560  0.258049  0.012141
0.882028  0.269859  -0.003783
0.091077  0.087414  0.041980
0.138040  0.122886  0.051306
0.260361  0.190558  0.043451
0.381147  0.235014  0.036129
0.498666  0.276991  0.040483
0.621669  0.303455  0.024053
0.760642  0.338165  0.023565
0.897421  0.349815  0.017555
0.149560  0.135097  0.068621
0.223037  0.191448  0.073832
0.308996  0.248106  0.055770
0.409476  0.297858  0.051041
0.537058  0.336950  0.047456
0.648692  0.374968  0.047032
0.784831  0.393927  0.037044
0.915559  0.430064  0.042591
0.232080  0.207136  0.075299
0.303747  0.270404  0.063799
0.366750  0.329443  0.057738
0.454265  0.380169  0.055132
0.562153  0.421558  0.054392
0.681357  0.467159  0.042369
0.810125  0.476513  0.043116
0.945440  0.498680  0.051418
0.294592  0.284813  0.082731
0.369990  0.352145  0.058997
0.441480  0.420174  0.057066
0.513484  0.475149  0.052797
0.603280  0.527056  0.052052
0.704866  0.571659  0.051529
0.840008  0.587470  0.051670
0.961046  0.618390  0.060597
0.363558  0.362518  0.065577
0.432946  0.432368  0.057837
0.514958  0.494308  0.050339
0.578861  0.550497  0.064461
0.671508  0.612133  0.049835
0.752702  0.661357  0.058953
0.857269  0.709485  0.058459
0.980446  0.728300  0.062174
0.423282  0.440967  0.070970
0.494961  0.498783  0.056459
0.563672  0.567127  0.051461
0.636698  0.617975  0.056644
0.727234  0.670291  0.056850
0.811197  0.720968  0.058051
0.899774  0.766005  0.058735
1.015982  0.821659  0.062057
0.481735  0.515438  0.058184
0.546609  0.571386  0.057540
0.632081  0.625257  0.057170
0.703451  0.674387  0.057967
0.781282  0.729477  0.059252
0.868359  0.775201  0.057779
0.961530  0.822298  0.064554
1.069453  0.878502  0.057597
0.068397  0.077891  0.050748
0.107968  0.108023  0.062144
0.211311  0.165638  0.056367
0.340969  0.208827  0.046975
0.480456  0.237521  0.035155
0.600770  0.249793  0.029879
0.730762  0.271950  0.026244
0.880330  0.289772  0.022080
0.095188  0.122210  0.108664
0.140956  0.159254  0.122918
0.240077  0.215652  0.108425
0.376849  0.259341  0.083769
0.495066  0.301648  0.075566
0.620503  0.336539  0.057974
0.762890  0.352102  0.044033
0.884044  0.366824  0.035090
0.139571  0.180343  0.166710
0.206890  0.214541  0.160080
0.297942  0.265913  0.145637
0.402919  0.311544  0.138727
0.518535  0.357889  0.112539
0.646070  0.396302  0.103104
0.782202  0.429213  0.090750
0.915505  0.460990  0.072788
0.202141  0.229343  0.192318
0.291564  0.283592  0.181317
0.360515  0.342107  0.157939
0.453972  0.393677  0.146042
0.556494  0.428412  0.130667
0.680116  0.468799  0.131048
0.808065  0.493937  0.125866
0.937173  0.529579  0.098514
0.277652  0.291711  0.198535
0.351905  0.351161  0.176796
0.425233  0.409822  0.179770
0.502442  0.485374  0.156814
0.602263  0.538216  0.121897
0.716342  0.567535  0.137493
0.833351  0.597761  0.140413
0.965057  0.621421  0.124747
0.352580  0.362380  0.193014
0.417808  0.433148  0.185314
0.490225  0.483801  0.163704
0.561909  0.550853  0.162709
0.656314  0.611529  0.131071
0.745414  0.667184  0.140363
0.847094  0.710557  0.137274
0.995771  0.739046  0.129843
0.412375  0.442189  0.187261
0.482335  0.495686  0.164642
0.549467  0.551552  0.170016
0.627430  0.618845  0.150567
0.718241  0.668259  0.140125
0.805990  0.719035  0.150390
0.904180  0.783440  0.137081
1.006169  0.818912  0.126552
0.461538  0.499928  0.191605
0.544100  0.580684  0.168526
0.621550  0.627450  0.158498
0.695076  0.675423  0.144022
0.780998  0.731749  0.143432
0.870453  0.778008  0.143338
0.952888  0.831806  0.150375
1.052547  0.879813  0.147176
0.091705  0.133735  0.139850
0.122745  0.161951  0.154378
0.203745  0.207165  0.147838
0.339885  0.247641  0.125706
0.480123  0.271886  0.111787
0.602942  0.291282  0.108129
0.734475  0.307556  0.099204
0.873915  0.314373  0.104170
0.125634  0.174078  0.190092
0.158375  0.214833  0.215592
0.230330  0.255602  0.229171
0.361814  0.303246  0.184848
0.497466  0.339164  0.157816
0.609560  0.364786  0.155437
0.742551  0.397359  0.138187
0.875889  0.412453  0.134446
0.159712  0.231095  0.253306
0.193779  0.260516  0.277872
0.261565  0.290508  0.265132
0.386795  0.362247  0.252745
0.513554  0.396340  0.219969
0.641805  0.430749  0.190894
0.775118  0.477727  0.183836
0.895692  0.499658  0.178217
0.195777  0.274821  0.298625
0.258528  0.317039  0.316422
0.329076  0.353212  0.306004
0.427490  0.408591  0.297155
0.550514  0.446480  0.267441
0.670670  0.492139  0.250586
0.791370  0.530692  0.226587
0.919217  0.560030  0.220300
0.233820  0.324488  0.344573
0.328999  0.376309  0.334621
0.408661  0.422998  0.323716
0.490578  0.486674  0.306790
0.591209  0.537473  0.294886
0.703087  0.572307  0.280395
0.837712  0.619399  0.263426
0.964780  0.639489  0.259554
0.314410  0.378004  0.361085
0.401439  0.436102  0.345470
0.478923  0.496983  0.327342
0.552096  0.558432  0.308116
0.649776  0.623946  0.303406
0.747837  0.672637  0.288373
0.857617  0.709980  0.273643
0.986594  0.737443  0.284351
0.374825  0.421933  0.353281
0.454120  0.490533  0.335376
0.547176  0.561744  0.325691
0.612813  0.622372  0.317727
0.707129  0.685489  0.313051
0.802671  0.733070  0.300238
0.901555  0.787597  0.267604
1.014055  0.824235  0.267569
0.444182  0.500007  0.342141
0.526484  0.569444  0.318760
0.602355  0.623133  0.306579
0.679174  0.673390  0.315757
0.760387  0.730362  0.304963
0.872485  0.793529  0.304024
0.947595  0.832998  0.295330
1.059786  0.892569  0.273770
0.113035  0.177479  0.199558
0.143606  0.206943  0.233450
0.210266  0.257422  0.246022
0.329097  0.299748  0.228888
0.467376  0.317968  0.191021
0.604713  0.330479  0.186503
0.739182  0.335514  0.194003
0.870089  0.335646  0.205064
0.150581  0.218226  0.247369
0.182968  0.262853  0.285792
0.238251  0.310780  0.319213
0.340495  0.344976  0.293181
0.488563  0.388818  0.255249
0.600390  0.409190  0.249812
0.735092  0.418169  0.224949
0.869884  0.443056  0.236888
0.187838  0.275445  0.314490
0.226164  0.309833  0.342903
0.276387  0.354556  0.381153
0.384564  0.406517  0.355813
0.487397  0.444960  0.338535
0.638761  0.476977  0.288515
0.760334  0.510509  0.270251
0.895551  0.535644  0.278584
0.222270  0.324091  0.367840
0.262404  0.366411  0.404209
0.306141  0.401444  0.434041
0.414174  0.441833  0.408203
0.523566  0.494992  0.387518
0.675173  0.534676  0.346256
0.787822  0.573854  0.341907
0.913996  0.615028  0.320636
0.264738  0.377200  0.422598
0.307515  0.410198  0.447767
0.373981  0.458108  0.461161
0.473264  0.502055  0.441444
0.560725  0.553750  0.461932
0.688173  0.595891  0.416829
0.818994  0.643441  0.394487
0.936005  0.678985  0.379051
0.299700  0.416944  0.468475
0.356184  0.460040  0.481527
0.464114  0.512643  0.463307
0.533494  0.553679  0.464190
0.624733  0.623275  0.459073
0.726254  0.682804  0.447904
0.851752  0.730044  0.429390
0.968505  0.745832  0.426675
0.337368  0.458862  0.500223
0.427884  0.508454  0.498431
0.526492  0.561439  0.472173
0.604935  0.620018  0.464530
0.694230  0.687554  0.450199
0.789953  0.742616  0.439889
0.891765  0.797355  0.445069
1.016466  0.831934  0.447141
0.394836  0.499727  0.521495
0.496084  0.553536  0.480290
0.591066  0.621130  0.471684
0.670229  0.676188  0.457764
0.773932  0.740317  0.446630
0.844082  0.789520  0.441396
0.941673  0.842195  0.465067
1.052265  0.897357  0.436300
0.123398  0.231171  0.290167
0.171723  0.273932  0.320163
0.225852  0.308953  0.332030
0.328883  0.344053  0.319721
0.457839  0.364042  0.309839
0.604006  0.367155  0.292546
0.758964  0.376446  0.286185
0.887637  0.364172  0.284414
0.175087  0.279228  0.334114
0.219045  0.311371  0.355873
0.252307  0.346892  0.382656
0.346580  0.399607  0.384184
0.461115  0.442762  0.369105
0.599397  0.459562  0.341891
0.738335  0.467236  0.314994
0.888341  0.477539  0.318017
0.212688  0.334830  0.393288
0.252845  0.361976  0.412073
0.292946  0.403703  0.448942
0.379412  0.456995  0.456929
0.487472  0.493019  0.431972
0.617126  0.536083  0.410687
0.754920  0.559084  0.379706
0.888902  0.567755  0.366231
0.254426  0.376895  0.433749
0.298842  0.413435  0.464094
0.333691  0.460115  0.502649
0.394571  0.497797  0.516955
0.515938  0.542007  0.497927
0.636956  0.594042  0.479853
0.766654  0.629590  0.447034
0.906105  0.653751  0.424062
0.299613  0.420589  0.483245
0.339205  0.463616  0.512917
0.388845  0.513427  0.554306
0.434100  0.550715  0.586827
0.562602  0.597644  0.552454
0.662483  0.646263  0.543924
0.807989  0.687184  0.497227
0.939079  0.724899  0.475780
0.332577  0.467899  0.526009
0.371122  0.502895  0.559339
0.428355  0.556724  0.601496
0.496935  0.598608  0.615455
0.605984  0.644687  0.593735
0.712397  0.707497  0.598342
0.825051  0.751804  0.569469
0.961159  0.787855  0.537548
0.370631  0.507848  0.570872
0.412097  0.555154  0.603458
0.481005  0.595912  0.626215
0.573745  0.636993  0.610593
0.689780  0.693426  0.596426
0.769792  0.749033  0.611044
0.887654  0.801034  0.593885
1.005010  0.854105  0.578710
0.407721  0.562457  0.621317
0.461045  0.595620  0.643829
0.559924  0.643649  0.627313
0.657284  0.684307  0.616001
0.751402  0.741931  0.602288
0.836581  0.795128  0.593496
0.944372  0.853252  0.599869
1.052287  0.900856  0.595970
0.103175  0.287275  0.412923
0.171111  0.325944  0.414533
0.231134  0.361225  0.427467
0.335284  0.388372  0.410524
0.460748  0.402596  0.393054
0.592523  0.402403  0.402728
0.733101  0.390241  0.398706
0.896290  0.381537  0.395747
0.162845  0.338324  0.443874
0.237018  0.375473  0.454905
0.289160  0.412386  0.473881
0.352833  0.451356  0.475103
0.459683  0.484935  0.454844
0.594652  0.509110  0.447910
0.733701  0.523488  0.440131
0.886778  0.522455  0.423273
0.224545  0.386707  0.474314
0.293982  0.422267  0.490095
0.330796  0.461606  0.523278
0.389257  0.503478  0.532974
0.475497  0.541661  0.526338
0.607128  0.590148  0.511754
0.741241  0.608422  0.486692
0.884746  0.623853  0.460378
0.275287  0.433853  0.509227
0.336105  0.477898  0.538844
0.383998  0.517225  0.573364
0.424090  0.549689  0.590940
0.493377  0.596610  0.605826
0.625018  0.633254  0.564988
0.759703  0.678863  0.543087
0.892256  0.714975  0.536733
0.312389  0.477628  0.555266
0.370458  0.526167  0.583506
0.427529  0.563616  0.620190
0.472354  0.604631  0.644785
0.532635  0.648921  0.674377
0.657117  0.692309  0.635489
0.782196  0.740871  0.616107
0.922084  0.787978  0.596073
0.358362  0.526200  0.601932
0.411479  0.564316  0.625726
0.462391  0.604511  0.656942
0.516391  0.654521  0.699519
0.577196  0.701809  0.729382
0.700134  0.742240  0.706252
0.826476  0.792003  0.674937
0.952949  0.836646  0.656297
0.390264  0.568166  0.645019
0.451900  0.616988  0.680986
0.499225  0.662668  0.718998
0.554962  0.689791  0.730831
0.636252  0.737046  0.746973
0.745743  0.780444  0.733812
0.871302  0.834564  0.722777
0.977272  0.872693  0.708928
0.425288  0.613895  0.702323
0.472516  0.654144  0.732416
0.521819  0.693064  0.764743
0.612271  0.731066  0.763180
0.705627  0.774035  0.766023
0.827049  0.819349  0.740364
0.930118  0.872383  0.743650
1.031860  0.919338  0.734989
0.074978  0.297716  0.554993
0.157627  0.358334  0.548834
0.218809  0.398276  0.570964
0.302862  0.439471  0.567029
0.452769  0.439226  0.522912
0.597687  0.427281  0.510734
0.738429  0.413082  0.513745
0.880779  0.407998  0.526136
0.138311  0.386940  0.571762
0.216689  0.428436  0.563252
0.289091  0.472538  0.572824
0.349262  0.518720  0.595368
0.451173  0.537344  0.563897
0.601090  0.545796  0.537966
0.736220  0.537391  0.542627
0.873840  0.539497  0.544517
0.196268  0.438347  0.585006
0.285488  0.483968  0.582543
0.353375  0.528572  0.600593
0.403866  0.570893  0.639164
0.475944  0.608038  0.642667
0.601128  0.631743  0.601494
0.730981  0.654235  0.595222
0.873135  0.667912  0.584882
0.268823  0.484847  0.602346
0.351221  0.522056  0.603613
0.407673  0.577166  0.644107
0.458747  0.620558  0.687496
0.518852  0.665835  0.719230
0.617491  0.685749  0.669468
0.757016  0.729468  0.641462
0.884024  0.762127  0.626911
0.318349  0.523794  0.637275
0.398350  0.573408  0.651002
0.451291  0.616429  0.675794
0.504445  0.672237  0.743498
0.552892  0.712567  0.781877
0.647311  0.745500  0.752954
0.783439  0.789723  0.709779
0.905931  0.829682  0.692672
0.367768  0.576047  0.678661
0.433373  0.616286  0.690564
0.496710  0.666304  0.741647
0.539560  0.705476  0.780973
0.592807  0.750665  0.821962
0.677738  0.796840  0.829514
0.801590  0.829985  0.792752
0.941501  0.878011  0.754856
0.409185  0.607526  0.719949
0.472073  0.656274  0.741324
0.524797  0.698070  0.782774
0.587516  0.746265  0.828299
0.641796  0.784832  0.850038
0.726254  0.839746  0.880485
0.833417  0.879421  0.873490
0.972793  0.915306  0.815322
0.446655  0.644882  0.755548
0.506624  0.692248  0.789615
0.568340  0.729442  0.820072
0.623002  0.773349  0.852885
0.691777  0.818896  0.879771
0.784812  0.882019  0.913629
0.896966  0.915226  0.897720
1.010701  0.953508  0.864830
0.072313  0.301606  0.688503
0.146887  0.352005  0.694044
0.229541  0.402942  0.704425
0.298640  0.434871  0.720718
0.408579  0.454722  0.724172
0.572550  0.450896  0.681392
0.748845  0.427296  0.652787
0.908937  0.428544  0.639602
0.121982  0.394423  0.695031
0.215392  0.452820  0.679853
0.280043  0.504861  0.696638
0.341530  0.548034  0.721889
0.424383  0.594427  0.733380
0.570892  0.604878  0.709388
0.716902  0.582628  0.673477
0.884221  0.565813  0.652514
0.192061  0.466507  0.687239
0.278584  0.520776  0.694988
0.359788  0.577421  0.712754
0.428362  0.623498  0.735750
0.481590  0.665550  0.763734
0.579783  0.711746  0.759117
0.718719  0.708221  0.709544
0.875168  0.709095  0.688881
0.262044  0.514841  0.690799
0.351456  0.567274  0.693419
0.423173  0.619297  0.723397
0.483096  0.669202  0.762866
0.531374  0.700650  0.801806
0.605831  0.754823  0.829215
0.710231  0.794985  0.807098
0.876886  0.813866  0.739519
0.323251  0.559801  0.714200
0.413616  0.609541  0.717635
0.472161  0.656782  0.751936
0.528224  0.701551  0.788821
0.575195  0.740261  0.825484
0.644242  0.785203  0.859572
0.738110  0.848763  0.894502
0.885507  0.879541  0.821761
0.371286  0.598434  0.738226
0.459351  0.651985  0.756575
0.512864  0.691102  0.789919
0.573898  0.737230  0.825841
0.625884  0.775942  0.860139
0.703322  0.831550  0.890503
0.797439  0.894168  0.925039
0.897924  0.928335  0.920017
0.419148  0.638191  0.785003
0.497868  0.689314  0.795391
0.563788  0.729541  0.824167
0.614765  0.766771  0.855853
0.681997  0.804563  0.878320
0.765907  0.866371  0.913899
0.839960  0.913227  0.948755
0.943055  0.967906  0.983309
0.454049  0.668674  0.818365
0.540655  0.716794  0.824673
0.598031  0.757720  0.854392
0.667626  0.807712  0.886432
0.732238  0.849233  0.915318
0.816253  0.903115  0.943994
0.895662  0.946041  0.966159
0.984331  0.991903  0.999909
