LUT/LUT_38.CUBE
TITLE "LUT_38" 
#LUT size 
LUT_3D_SIZE 5 
#data point 
DOMAIN_MIN 0.000000 0.000000 0.000000
DOMAIN_MAX 0.857143 0.857143 0.857143
0.076706  0.070237  0.037513
0.127813  0.118574  0.064014
0.306558  0.238308  0.073770
0.455878  0.345281  0.073016
0.613124  0.430127  0.062901
0.123181  0.113773  0.057928
0.200001  0.181090  0.096125
0.379735  0.294902  0.094367
0.518359  0.385845  0.085305
0.650335  0.480868  0.072732
0.217043  0.194763  0.092280
0.339802  0.275702  0.104196
0.452039  0.342892  0.088314
0.609156  0.472561  0.081792
0.734884  0.555003  0.090878
0.359588  0.290023  0.124119
0.462567  0.372063  0.105140
0.578894  0.457069  0.092576
0.702698  0.572859  0.082747
0.827694  0.669916  0.088027
0.468796  0.358978  0.097576
0.593311  0.459267  0.086778
0.698198  0.564664  0.084766
0.786179  0.649421  0.090928
0.907935  0.736058  0.085959
0.124074  0.125623  0.075592
0.158570  0.166946  0.117036
0.314197  0.265138  0.105034
0.456126  0.342085  0.092991
0.596099  0.447608  0.082318
0.162024  0.173801  0.142617
0.206405  0.222999  0.175602
0.364726  0.317200  0.161990
0.530770  0.415465  0.113241
0.674490  0.515871  0.103449
0.219375  0.253814  0.228797
0.290089  0.313206  0.260610
0.432376  0.376074  0.213572
0.563331  0.450276  0.165445
0.732770  0.574907  0.154637
0.285262  0.322515  0.300828
0.392798  0.376131  0.271524
0.522840  0.449644  0.249994
0.666272  0.546622  0.201130
0.813391  0.658931  0.170829
0.404278  0.395545  0.296378
0.538672  0.459082  0.254587
0.650351  0.553508  0.242816
0.789735  0.648409  0.187438
0.932605  0.732993  0.184813
0.163413  0.189343  0.166294
0.194908  0.231025  0.203550
0.271928  0.294635  0.245601
0.486576  0.391281  0.161015
0.646409  0.485206  0.135460
0.215251  0.256313  0.248178
0.265548  0.312346  0.298539
0.354055  0.379635  0.342332
0.501727  0.446776  0.270438
0.688924  0.552988  0.228505
0.271459  0.332008  0.326328
0.310962  0.394459  0.411000
0.391411  0.444016  0.410427
0.555613  0.520595  0.396526
0.728335  0.620434  0.314068
0.330049  0.416202  0.425406
0.383490  0.463619  0.467751
0.481013  0.518703  0.471902
0.620102  0.599155  0.481816
0.822055  0.698613  0.410333
0.366354  0.467596  0.490028
0.474744  0.524145  0.496070
0.577360  0.589141  0.503780
0.741129  0.683736  0.497827
0.908097  0.766018  0.461192
0.219321  0.270431  0.266425
0.273538  0.336646  0.333589
0.325654  0.369190  0.342720
0.458554  0.439249  0.325925
0.651487  0.539738  0.252227
0.267950  0.339630  0.356417
0.312264  0.396133  0.417410
0.352754  0.441911  0.454820
0.500085  0.523509  0.448913
0.687254  0.598457  0.392494
0.331227  0.412932  0.438933
0.369214  0.475292  0.495334
0.413489  0.520143  0.548459
0.545256  0.587706  0.551319
0.720685  0.675030  0.504743
0.386625  0.486968  0.514960
0.409757  0.534889  0.573547
0.486077  0.609205  0.646597
0.631544  0.677905  0.637550
0.764957  0.743455  0.619154
0.431167  0.545354  0.576659
0.479055  0.609874  0.640067
0.566020  0.680312  0.701347
0.690446  0.745459  0.710374
0.848807  0.802303  0.690027
0.294537  0.374232  0.388636
0.326717  0.417141  0.431667
0.374319  0.474802  0.509290
0.465749  0.509026  0.478546
0.613347  0.570801  0.426228
0.328869  0.423812  0.448667
0.370327  0.473712  0.505396
0.441630  0.555170  0.586900
0.505021  0.586998  0.578452
0.658993  0.660670  0.563720
0.385146  0.492121  0.519667
0.446528  0.568371  0.595718
0.491885  0.618727  0.651174
0.561097  0.673780  0.704978
0.748468  0.742522  0.654552
0.427480  0.539776  0.582877
0.501387  0.623617  0.660614
0.554943  0.684609  0.721057
0.638654  0.759495  0.789622
0.757516  0.802800  0.770676
0.502378  0.621471  0.655405
0.567356  0.687217  0.720541
0.631719  0.759053  0.808396
0.705143  0.820483  0.868505
0.832243  0.893391  0.901322
