LUT/LUT_15.CUBE
TITLE "LUT_15" 
#LUT size 
LUT_3D_SIZE 15 
DOMAIN_MIN 0.0 0.0 0.0 
DOMAIN_MAX 1.0 1.0 1.0 
#data point 
0.046996  0.047316  0.021495
0.070558  0.061989  0.027630
0.099308  0.088946  0.039546
0.133161  0.123196  0.049330
0.204338  0.163787  0.056241
0.251694  0.192270  0.056244
0.328851  0.225233  0.045107
0.377689  0.236140  0.042948
0.437995  0.275157  0.043543
0.503429  0.296756  0.036510
0.554423  0.310875  0.034607
0.603250  0.330609  0.037054
0.677612  0.359420  0.037335
0.739365  0.371935  0.035876
0.813796  0.384024  0.032223
0.061334  0.065338  0.031797
0.081741  0.075942  0.035030
0.104270  0.097275  0.050466
0.162604  0.140663  0.057880
0.210648  0.179549  0.062704
0.281228  0.209746  0.053267
0.334975  0.245285  0.053293
0.403103  0.265536  0.051045
0.454162  0.289085  0.045492
0.495555  0.300126  0.037601
0.576403  0.336249  0.046084
0.637953  0.361149  0.044916
0.705406  0.373654  0.037477
0.764984  0.393786  0.038844
0.818631  0.415164  0.041973
0.097972  0.090566  0.044668
0.095582  0.096692  0.049141
0.131798  0.119888  0.057217
0.173661  0.151190  0.070519
0.250267  0.196398  0.058624
0.295206  0.222204  0.054521
0.366196  0.263247  0.059296
0.410222  0.283553  0.049569
0.474510  0.311880  0.060012
0.533803  0.325970  0.047816
0.585693  0.347999  0.045550
0.659977  0.384775  0.041020
0.716601  0.403609  0.047993
0.778566  0.416574  0.048592
0.835705  0.438870  0.050803
0.118139  0.112735  0.059368
0.136544  0.122206  0.060802
0.165998  0.147923  0.067321
0.218919  0.181403  0.076543
0.284847  0.226138  0.068224
0.330458  0.250774  0.058451
0.383945  0.274394  0.063507
0.444234  0.303608  0.048458
0.498913  0.323635  0.051497
0.547762  0.348298  0.046320
0.596493  0.379831  0.045868
0.673527  0.395078  0.049506
0.729269  0.419635  0.043534
0.792635  0.433921  0.047607
0.863382  0.467574  0.047419
0.146642  0.131005  0.068058
0.182785  0.163343  0.077444
0.221458  0.189313  0.085584
0.258866  0.214143  0.074172
0.306399  0.243296  0.068588
0.363476  0.276453  0.080628
0.405019  0.298684  0.066749
0.469110  0.335646  0.055163
0.526576  0.349690  0.064842
0.578192  0.373805  0.049147
0.620017  0.406263  0.058939
0.702060  0.436991  0.049044
0.749825  0.451891  0.053752
0.819309  0.466204  0.051626
0.875631  0.491901  0.054306
0.181099  0.170232  0.096068
0.220652  0.189278  0.076162
0.255222  0.215772  0.085083
0.314582  0.248622  0.064293
0.346108  0.280793  0.067580
0.377392  0.293046  0.077780
0.441802  0.339001  0.061200
0.487010  0.372901  0.063118
0.526787  0.381106  0.057784
0.574519  0.401559  0.052735
0.647700  0.439838  0.054577
0.697861  0.452331  0.059904
0.777950  0.467869  0.051582
0.832106  0.498996  0.055582
0.890546  0.521272  0.057713
0.228634  0.197053  0.082815
0.261493  0.223405  0.086978
0.306807  0.255054  0.080669
0.346592  0.291319  0.082388
0.376672  0.310721  0.067079
0.427055  0.341251  0.072789
0.460574  0.367060  0.069213
0.512876  0.402559  0.069624
0.558159  0.416268  0.062525
0.620116  0.461808  0.056210
0.664290  0.479808  0.053002
0.715539  0.487427  0.063216
0.778654  0.514579  0.048378
0.842111  0.522566  0.058918
0.913015  0.545364  0.056775
0.275997  0.235889  0.098298
0.311215  0.262508  0.085042
0.345239  0.275755  0.076105
0.388633  0.317877  0.068438
0.420516  0.358386  0.078352
0.459854  0.385607  0.063873
0.486532  0.406247  0.071003
0.527777  0.433000  0.066496
0.581525  0.469461  0.062655
0.636637  0.499735  0.055408
0.697683  0.511526  0.059814
0.745694  0.544711  0.071883
0.803292  0.560118  0.063752
0.869968  0.574390  0.058835
0.937605  0.599195  0.066308
0.305766  0.258327  0.101176
0.349076  0.301245  0.079094
0.379541  0.320923  0.068361
0.412394  0.342287  0.071224
0.462362  0.395714  0.077864
0.487818  0.411392  0.074599
0.524798  0.447396  0.067335
0.578246  0.482944  0.074438
0.612475  0.508762  0.071158
0.661247  0.545273  0.058754
0.705426  0.569110  0.067176
0.756092  0.583596  0.069297
0.818507  0.601180  0.063937
0.872654  0.633183  0.068635
0.942519  0.648506  0.058596
0.362181  0.304612  0.092947
0.388417  0.328879  0.079775
0.412390  0.358761  0.071687
0.461560  0.383811  0.073472
0.492049  0.425732  0.068602
0.527653  0.441587  0.066987
0.567006  0.485979  0.067450
0.612604  0.511656  0.071849
0.646373  0.553225  0.058142
0.683213  0.580992  0.063542
0.733999  0.615439  0.065774
0.776051  0.634945  0.059216
0.826507  0.659004  0.070627
0.892640  0.663883  0.067990
0.952047  0.699574  0.071852
0.380388  0.329221  0.087445
0.426280  0.355730  0.082193
0.454199  0.399972  0.071263
0.484099  0.429151  0.072396
0.537111  0.460777  0.071651
0.563700  0.493168  0.072242
0.600124  0.518852  0.084603
0.646783  0.559085  0.066155
0.690850  0.593906  0.064645
0.717863  0.613222  0.067686
0.767608  0.655348  0.065726
0.803066  0.669394  0.066512
0.860534  0.700380  0.070164
0.918053  0.724496  0.065870
0.965195  0.738458  0.078215
0.423591  0.369375  0.082478
0.450431  0.389650  0.078392
0.489462  0.426312  0.070527
0.521711  0.454562  0.064629
0.561323  0.496253  0.068850
0.615496  0.526659  0.059924
0.632303  0.552123  0.069871
0.662745  0.578176  0.060761
0.717693  0.619307  0.068677
0.753473  0.647071  0.056932
0.795898  0.677618  0.070689
0.841161  0.702247  0.068450
0.889728  0.731224  0.062594
0.931887  0.766603  0.076679
0.991213  0.782956  0.069588
0.447829  0.400361  0.073436
0.485171  0.424511  0.076561
0.524275  0.457858  0.068883
0.550888  0.498360  0.062345
0.599184  0.533382  0.067153
0.634290  0.559173  0.073089
0.663052  0.588447  0.063059
0.706849  0.609114  0.067134
0.751431  0.643264  0.073350
0.779994  0.660354  0.070657
0.821571  0.702056  0.063318
0.868075  0.734663  0.077670
0.911363  0.760625  0.074150
0.952684  0.780015  0.067944
1.018898  0.810919  0.075866
0.493765  0.439423  0.064865
0.528769  0.476833  0.068966
0.563226  0.509506  0.069034
0.601848  0.532449  0.072795
0.632049  0.564196  0.065232
0.664097  0.585477  0.056404
0.704816  0.615828  0.068230
0.740603  0.643609  0.062436
0.769097  0.668860  0.069748
0.808927  0.689826  0.072642
0.850868  0.717267  0.072386
0.901434  0.744888  0.069806
0.943985  0.781209  0.073095
0.982205  0.800797  0.075692
1.027396  0.827393  0.071109
0.524451  0.471689  0.074158
0.551184  0.499896  0.065259
0.590732  0.532150  0.070109
0.632278  0.566692  0.069734
0.662797  0.596276  0.073896
0.693312  0.618446  0.066304
0.729175  0.642450  0.072669
0.767561  0.663948  0.066525
0.797297  0.694462  0.063639
0.848696  0.716585  0.071806
0.884408  0.735459  0.077610
0.925614  0.774166  0.078613
0.969453  0.794053  0.074961
1.029905  0.828857  0.072822
1.075159  0.851066  0.080260
0.063518  0.063745  0.029919
0.075525  0.071171  0.032656
0.102128  0.095056  0.045876
0.127782  0.112289  0.050083
0.190329  0.152991  0.062283
0.255212  0.190820  0.052238
0.328350  0.231740  0.048616
0.380001  0.250385  0.042283
0.446022  0.277176  0.039654
0.492087  0.285823  0.040708
0.562637  0.315914  0.039188
0.613748  0.337388  0.038881
0.690262  0.352990  0.032677
0.736681  0.372360  0.037004
0.802006  0.380523  0.032219
0.079775  0.086392  0.042009
0.088619  0.088038  0.041436
0.114713  0.110662  0.051476
0.164221  0.149799  0.070320
0.219161  0.186531  0.068704
0.289399  0.218996  0.052376
0.344847  0.240753  0.052843
0.390082  0.272270  0.051591
0.457027  0.291009  0.044901
0.517666  0.310975  0.040518
0.566937  0.333486  0.043781
0.629749  0.361575  0.040656
0.702112  0.379228  0.040554
0.763484  0.393122  0.039202
0.819287  0.418486  0.044645
0.095053  0.096138  0.052897
0.110241  0.106527  0.061545
0.146444  0.133710  0.073033
0.179162  0.171041  0.080353
0.234450  0.197880  0.073555
0.309939  0.237595  0.071455
0.352070  0.258241  0.056651
0.416266  0.288080  0.053263
0.469675  0.310850  0.047648
0.525784  0.333499  0.047359
0.590709  0.365905  0.046710
0.649482  0.378672  0.048725
0.725126  0.402219  0.041691
0.774992  0.427762  0.046541
0.845087  0.444506  0.048399
0.115364  0.122651  0.078562
0.142793  0.140816  0.077592
0.170517  0.164023  0.093035
0.210194  0.187731  0.094601
0.261409  0.215170  0.078310
0.331709  0.254521  0.075154
0.379021  0.280945  0.073458
0.437594  0.316768  0.080151
0.486674  0.336023  0.064287
0.540906  0.358679  0.058688
0.607209  0.379719  0.057589
0.669380  0.410059  0.055478
0.733572  0.421954  0.050394
0.793076  0.445100  0.050912
0.861249  0.467250  0.049845
0.151324  0.151336  0.090392
0.182925  0.171087  0.091126
0.212030  0.188457  0.097705
0.249640  0.216736  0.094739
0.309988  0.255229  0.099612
0.352702  0.267129  0.087122
0.403851  0.308455  0.081617
0.454598  0.327135  0.067797
0.507565  0.351934  0.078969
0.560254  0.390749  0.077523
0.618673  0.401997  0.055584
0.688844  0.430832  0.054935
0.751181  0.456969  0.060437
0.805074  0.466408  0.054167
0.860455  0.492612  0.061462
0.180826  0.177959  0.105796
0.223624  0.198088  0.103537
0.264612  0.234124  0.119347
0.292600  0.246673  0.116981
0.345153  0.279273  0.088254
0.386297  0.305281  0.090696
0.458872  0.345014  0.085218
0.470356  0.361205  0.093347
0.531640  0.387629  0.073592
0.581712  0.415774  0.077370
0.648967  0.440603  0.073077
0.701955  0.465481  0.064111
0.767831  0.476431  0.058430
0.829501  0.502723  0.059421
0.898756  0.534503  0.059715
0.234213  0.225715  0.138227
0.272794  0.235929  0.114319
0.292635  0.262351  0.124302
0.334772  0.284542  0.118659
0.382867  0.316324  0.098891
0.422276  0.356207  0.086197
0.456385  0.371895  0.084984
0.513785  0.403848  0.093459
0.555295  0.424255  0.086584
0.598583  0.443285  0.082813
0.671053  0.480157  0.073234
0.726617  0.496951  0.069476
0.784542  0.521664  0.072584
0.865301  0.534098  0.058463
0.915216  0.561193  0.057638
0.262383  0.235064  0.126635
0.292604  0.266585  0.131897
0.339691  0.294223  0.129366
0.370708  0.316981  0.114838
0.420108  0.350675  0.091099
0.459149  0.378927  0.098358
0.500027  0.415755  0.088194
0.552943  0.450329  0.080213
0.585448  0.464084  0.078744
0.625715  0.492618  0.086214
0.680572  0.518719  0.070272
0.745250  0.531377  0.066457
0.807906  0.558015  0.069673
0.867118  0.580468  0.071021
0.938615  0.594650  0.070258
0.307006  0.270126  0.119768
0.342374  0.299448  0.130442
0.378171  0.317449  0.121228
0.406203  0.346586  0.115208
0.449012  0.383248  0.104525
0.495469  0.418280  0.085673
0.530779  0.448179  0.090091
0.569966  0.474422  0.076456
0.606633  0.517420  0.078485
0.669885  0.555441  0.090399
0.711723  0.569530  0.082588
0.760779  0.580018  0.084050
0.822269  0.605595  0.078338
0.889211  0.639947  0.075755
0.942581  0.637445  0.068837
0.335382  0.292420  0.129194
0.391884  0.333411  0.126782
0.418012  0.366263  0.125295
0.453470  0.386834  0.101926
0.486815  0.430502  0.098904
0.535487  0.463097  0.089403
0.577310  0.500787  0.096951
0.601566  0.520687  0.091300
0.644424  0.554861  0.089011
0.685618  0.583236  0.076155
0.739357  0.626536  0.075928
0.780998  0.640190  0.068225
0.829557  0.658969  0.074286
0.896581  0.675559  0.072640
0.965925  0.695402  0.079087
0.370996  0.330038  0.129519
0.395103  0.353003  0.131970
0.442619  0.395947  0.119803
0.489671  0.433281  0.102748
0.531208  0.455756  0.092317
0.567068  0.499472  0.087110
0.613819  0.535407  0.090743
0.645210  0.563055  0.080829
0.686817  0.588273  0.090832
0.716914  0.619037  0.085168
0.768189  0.640200  0.076029
0.812903  0.674574  0.085939
0.855179  0.702063  0.070923
0.910685  0.727976  0.081361
0.963839  0.723154  0.082187
0.403937  0.356280  0.130398
0.450903  0.391601  0.118727
0.489963  0.436816  0.104373
0.516858  0.456364  0.089483
0.559256  0.501695  0.099721
0.601468  0.531849  0.096723
0.629377  0.545409  0.095889
0.670992  0.585142  0.097256
0.700058  0.613350  0.089299
0.736432  0.636506  0.081829
0.790524  0.670758  0.071196
0.834663  0.701392  0.096842
0.891095  0.733388  0.082684
0.926237  0.760648  0.077453
0.988635  0.777773  0.073454
0.459257  0.402324  0.124735
0.503939  0.445571  0.082216
0.522917  0.458563  0.101761
0.567379  0.501993  0.095305
0.593744  0.521979  0.097606
0.628897  0.556894  0.093363
0.672828  0.601383  0.096765
0.692523  0.611708  0.093873
0.751072  0.642987  0.093255
0.785811  0.672760  0.100186
0.823258  0.695568  0.078733
0.872470  0.738045  0.089135
0.910300  0.751041  0.085401
0.974103  0.782391  0.092541
1.008656  0.806064  0.082150
0.471893  0.430196  0.112449
0.502921  0.459189  0.095596
0.562705  0.494602  0.093408
0.574618  0.516137  0.086925
0.637213  0.563968  0.083614
0.664852  0.584368  0.076493
0.691817  0.615864  0.100564
0.744962  0.646616  0.087289
0.775381  0.666863  0.085085
0.806466  0.695143  0.098130
0.854805  0.731629  0.085458
0.893584  0.740668  0.094602
0.941061  0.776322  0.096167
0.987746  0.805078  0.081432
1.035573  0.836550  0.079195
0.525045  0.473555  0.121002
0.550495  0.501097  0.087242
0.575106  0.515464  0.101683
0.622449  0.553501  0.085666
0.650560  0.581445  0.087494
0.700686  0.614163  0.094012
0.732309  0.643083  0.087168
0.776413  0.673536  0.092244
0.796928  0.684058  0.095150
0.837740  0.717823  0.096285
0.890097  0.750946  0.092094
0.913516  0.768196  0.090137
0.974959  0.807237  0.094716
1.024431  0.825846  0.085045
1.076634  0.860238  0.095737
0.086342  0.086942  0.041257
0.101314  0.100473  0.059566
0.115875  0.114462  0.059296
0.154110  0.136277  0.065163
0.196637  0.170612  0.075551
0.262927  0.201146  0.064364
0.315006  0.229757  0.056737
0.394565  0.264745  0.054292
0.453613  0.281765  0.052504
0.490633  0.303479  0.048074
0.551352  0.318870  0.040528
0.619555  0.349403  0.043688
0.670791  0.359720  0.042739
0.758699  0.390488  0.040490
0.811127  0.394094  0.034068
0.106911  0.112732  0.073834
0.112216  0.115760  0.077298
0.135705  0.134293  0.084312
0.163841  0.155883  0.099137
0.225366  0.197655  0.101929
0.291391  0.232023  0.078487
0.338990  0.257892  0.065514
0.393697  0.277779  0.066797
0.463689  0.301587  0.056288
0.518318  0.327708  0.054676
0.574469  0.354693  0.045047
0.637513  0.371147  0.050269
0.693323  0.394151  0.048502
0.773425  0.415586  0.047202
0.826250  0.425051  0.042362
0.112290  0.123761  0.091995
0.130115  0.145268  0.116680
0.152658  0.157161  0.105398
0.193096  0.178060  0.104008
0.237174  0.207815  0.113089
0.307275  0.257428  0.101673
0.356143  0.277714  0.085117
0.409644  0.298122  0.077712
0.476999  0.326402  0.077321
0.528332  0.355505  0.083140
0.582413  0.374520  0.058752
0.645627  0.403725  0.049255
0.722259  0.410227  0.053591
0.775954  0.436730  0.055317
0.829039  0.447846  0.049938
0.133092  0.154217  0.125143
0.150060  0.161196  0.130373
0.161874  0.177616  0.140602
0.204029  0.199418  0.133658
0.240310  0.222406  0.132341
0.324383  0.272440  0.118606
0.383158  0.298427  0.107454
0.421661  0.321306  0.095864
0.493212  0.360017  0.082153
0.551758  0.379121  0.090769
0.590103  0.395993  0.076636
0.656561  0.421125  0.072933
0.726121  0.436675  0.061657
0.788140  0.455865  0.057728
0.852216  0.478289  0.056125
0.144464  0.175303  0.154779
0.182108  0.205526  0.177002
0.204979  0.213877  0.160901
0.229450  0.233679  0.158651
0.290617  0.260526  0.136419
0.334119  0.286012  0.146683
0.396699  0.313507  0.134216
0.466519  0.350199  0.115109
0.509950  0.375324  0.111603
0.569040  0.397611  0.101021
0.621716  0.422275  0.106901
0.691201  0.446128  0.095715
0.742135  0.469828  0.082475
0.802207  0.495588  0.070545
0.874863  0.513928  0.063598
0.162609  0.195339  0.182781
0.200901  0.213340  0.175621
0.245133  0.245750  0.177170
0.272615  0.258922  0.171611
0.323787  0.288045  0.165238
0.373849  0.324943  0.163633
0.429693  0.340129  0.140439
0.474400  0.371805  0.134636
0.542070  0.404379  0.113073
0.577848  0.421676  0.116255
0.639154  0.449387  0.101001
0.698895  0.476660  0.116795
0.751363  0.487001  0.093878
0.824153  0.528356  0.087035
0.880964  0.532647  0.082416
0.208124  0.226787  0.188610
0.239494  0.246824  0.180805
0.283439  0.269368  0.189653
0.321563  0.296610  0.178097
0.361795  0.323364  0.167064
0.410109  0.342878  0.164809
0.458272  0.379892  0.150325
0.509839  0.407122  0.141036
0.540681  0.419127  0.128043
0.600516  0.453059  0.125785
0.663722  0.490653  0.134841
0.723841  0.505402  0.141257
0.783907  0.523924  0.119684
0.847196  0.559617  0.113429
0.904016  0.569347  0.091600
0.253826  0.261440  0.200508
0.287005  0.282650  0.207419
0.323756  0.300648  0.192465
0.353936  0.319106  0.171187
0.401931  0.360546  0.180669
0.441467  0.384090  0.161891
0.491299  0.416104  0.157994
0.536320  0.449029  0.138580
0.595553  0.470420  0.120807
0.654497  0.500417  0.130836
0.680021  0.513618  0.130015
0.729803  0.551421  0.139330
0.788855  0.572803  0.131213
0.874471  0.589735  0.111910
0.917553  0.608139  0.109851
0.275481  0.279354  0.203334
0.327542  0.308810  0.196590
0.356179  0.327132  0.180604
0.402274  0.361508  0.187555
0.431801  0.387994  0.188096
0.468657  0.414750  0.180931
0.526505  0.460058  0.163791
0.561700  0.484120  0.142550
0.625089  0.514151  0.122711
0.662910  0.534375  0.129772
0.717721  0.566026  0.128269
0.755305  0.593480  0.134947
0.821019  0.605172  0.137115
0.882026  0.630761  0.121621
0.946331  0.649733  0.124159
0.310481  0.301183  0.212467
0.361966  0.339628  0.196782
0.401535  0.359514  0.180423
0.429538  0.390040  0.193656
0.465132  0.413818  0.186578
0.517319  0.452255  0.164354
0.560600  0.488339  0.161766
0.597632  0.518051  0.144067
0.641875  0.556256  0.137400
0.697758  0.586363  0.126787
0.737288  0.609225  0.135570
0.787725  0.639064  0.128696
0.838798  0.655433  0.134171
0.888720  0.683234  0.138698
0.946604  0.688688  0.121418
0.361230  0.338521  0.194101
0.398952  0.362537  0.187063
0.432367  0.397651  0.197136
0.482241  0.435342  0.171075
0.509731  0.454185  0.164475
0.541250  0.481652  0.162373
0.576678  0.521769  0.158909
0.638680  0.560373  0.142381
0.681807  0.588828  0.118839
0.718777  0.609229  0.136370
0.761340  0.640668  0.135858
0.796982  0.670943  0.138356
0.851482  0.710805  0.129493
0.916278  0.714725  0.134582
0.986604  0.749683  0.130535
0.399934  0.371012  0.201239
0.426279  0.397739  0.192843
0.483156  0.439031  0.197084
0.521149  0.461688  0.179723
0.558982  0.491195  0.174032
0.592010  0.523918  0.166474
0.615699  0.539002  0.159625
0.663102  0.585714  0.135689
0.712437  0.617768  0.143222
0.761970  0.650500  0.125020
0.797418  0.675955  0.135991
0.833697  0.707840  0.140214
0.876607  0.733968  0.139307
0.937211  0.769341  0.134599
0.990211  0.788770  0.140389
0.438046  0.399529  0.195876
0.467337  0.429908  0.189445
0.508920  0.459161  0.169194
0.532692  0.484792  0.187399
0.575644  0.515317  0.175896
0.629351  0.561899  0.163693
0.656469  0.579479  0.143865
0.703828  0.616249  0.143106
0.744277  0.647121  0.136894
0.781336  0.671600  0.138127
0.818159  0.701021  0.142402
0.853448  0.730918  0.133321
0.913192  0.761754  0.131395
0.958622  0.781670  0.153268
1.006638  0.808937  0.127170
0.469647  0.427135  0.210087
0.501392  0.454818  0.178033
0.523058  0.491935  0.194868
0.568921  0.520175  0.162093
0.609182  0.550724  0.149859
0.667230  0.598523  0.151876
0.698698  0.611859  0.136443
0.737078  0.653348  0.141423
0.770256  0.671273  0.132552
0.807360  0.695164  0.126514
0.844907  0.728727  0.128178
0.905338  0.758589  0.131431
0.939614  0.783840  0.134999
0.991954  0.816029  0.140998
1.033212  0.834143  0.157839
0.490393  0.461197  0.198252
0.547229  0.500382  0.184937
0.580094  0.536541  0.170922
0.611257  0.556439  0.155809
0.661222  0.587097  0.148726
0.678987  0.615507  0.146925
0.725629  0.645148  0.138573
0.766446  0.666353  0.134387
0.800613  0.702220  0.146658
0.847637  0.731887  0.156715
0.891998  0.757605  0.135049
0.923222  0.762742  0.145243
0.966634  0.805209  0.145912
1.017184  0.831213  0.139804
1.068150  0.860765  0.136188
0.108950  0.114298  0.082575
0.113918  0.124251  0.089992
0.130045  0.144271  0.111369
0.151972  0.168223  0.120943
0.199066  0.180649  0.096502
0.258723  0.210124  0.088230
0.343969  0.253471  0.081374
0.397362  0.274013  0.068259
0.425478  0.287882  0.071850
0.500872  0.320023  0.063421
0.549122  0.333812  0.061188
0.616815  0.354688  0.060789
0.675393  0.377605  0.054670
0.749815  0.390096  0.044280
0.809759  0.405127  0.040638
0.115919  0.132288  0.112334
0.124507  0.150354  0.129206
0.143700  0.165161  0.137161
0.166411  0.179813  0.136082
0.217259  0.205341  0.136881
0.277250  0.239309  0.119674
0.352049  0.277224  0.109250
0.404465  0.303469  0.099724
0.450501  0.306717  0.091412
0.508720  0.338819  0.076492
0.564324  0.365724  0.074076
0.629291  0.379366  0.069098
0.704672  0.413148  0.067255
0.757466  0.412328  0.054549
0.825821  0.433156  0.050934
0.132010  0.154780  0.129337
0.141196  0.171595  0.158030
0.163726  0.196807  0.173858
0.188725  0.212033  0.182300
0.225413  0.227052  0.161808
0.298745  0.258751  0.142880
0.361296  0.297321  0.129669
0.413266  0.308502  0.126277
0.471088  0.329725  0.107555
0.529444  0.374933  0.097652
0.582187  0.389553  0.099427
0.640891  0.405498  0.079994
0.693162  0.424614  0.080276
0.771140  0.441752  0.074276
0.845690  0.470287  0.065553
0.142643  0.177564  0.166085
0.160514  0.193764  0.188753
0.173114  0.214240  0.203063
0.205653  0.229349  0.199969
0.259519  0.262102  0.195970
0.313929  0.290103  0.165763
0.383652  0.321415  0.163653
0.424287  0.334923  0.137244
0.505867  0.369630  0.127952
0.555720  0.399527  0.120075
0.592973  0.409357  0.124586
0.656345  0.435073  0.119745
0.728092  0.457565  0.109138
0.782838  0.476207  0.091934
0.843765  0.497100  0.103346
0.161781  0.208253  0.203591
0.181336  0.226425  0.221570
0.203883  0.234877  0.215884
0.232795  0.259963  0.224322
0.279756  0.277357  0.205967
0.327538  0.308196  0.200713
0.377013  0.330538  0.184329
0.450353  0.363161  0.169461
0.494836  0.389588  0.158213
0.563305  0.407897  0.127594
0.618836  0.432672  0.138852
0.674956  0.452051  0.134166
0.723802  0.492961  0.135053
0.795146  0.503202  0.123991
0.870381  0.525011  0.112648
0.187097  0.228180  0.217078
0.195010  0.240148  0.233219
0.224812  0.264576  0.246603
0.252435  0.276761  0.243701
0.303862  0.308849  0.245881
0.349011  0.326165  0.218131
0.423755  0.363387  0.187161
0.465413  0.387877  0.200235
0.519956  0.414526  0.177199
0.559653  0.420931  0.169866
0.638260  0.463282  0.163794
0.685028  0.496693  0.156563
0.753889  0.512890  0.143190
0.806894  0.539943  0.144879
0.866424  0.559002  0.131030
0.211586  0.250219  0.246283
0.231696  0.265070  0.236653
0.258666  0.281509  0.249313
0.298157  0.311152  0.249362
0.334036  0.326140  0.240073
0.396290  0.368601  0.240069
0.448487  0.385881  0.213721
0.492812  0.424165  0.218395
0.547986  0.443172  0.196743
0.593515  0.459136  0.180456
0.649191  0.484730  0.173082
0.719377  0.519459  0.162745
0.766626  0.543797  0.172129
0.828270  0.560051  0.161704
0.899834  0.596068  0.158290
0.220111  0.266102  0.268685
0.271986  0.295572  0.263087
0.311229  0.328646  0.270140
0.339591  0.341432  0.265368
0.380281  0.367721  0.250703
0.435830  0.387392  0.211127
0.475941  0.428147  0.223825
0.528312  0.449640  0.229783
0.567112  0.471420  0.227259
0.634469  0.498538  0.198157
0.696940  0.542553  0.184529
0.741290  0.551027  0.191469
0.802863  0.579442  0.175069
0.841673  0.592439  0.176938
0.913273  0.617291  0.182820
0.272397  0.300384  0.267131
0.301571  0.322485  0.273402
0.340401  0.345159  0.278746
0.375276  0.364173  0.258318
0.426996  0.398750  0.254641
0.462299  0.430299  0.248850
0.500906  0.458656  0.228497
0.553440  0.491162  0.225275
0.590185  0.503103  0.233099
0.666108  0.541786  0.207241
0.724037  0.577965  0.179022
0.774016  0.592463  0.195758
0.812828  0.614245  0.191823
0.871332  0.644678  0.199325
0.941128  0.652301  0.198301
0.291926  0.328135  0.286279
0.337906  0.348789  0.273166
0.390837  0.375045  0.275346
0.423925  0.393037  0.259570
0.474368  0.432218  0.243349
0.506520  0.456893  0.243899
0.540420  0.484269  0.247571
0.574760  0.527781  0.226701
0.640272  0.552212  0.216747
0.671964  0.577146  0.199960
0.740680  0.614364  0.197691
0.791116  0.649305  0.199748
0.823839  0.658416  0.190825
0.904896  0.693209  0.201696
