LUT/LUT_29.CUBE
TITLE "LUT_29" 
#LUT size 
LUT_3D_SIZE 8 
DOMAIN_MIN 0.0 0.0 0.0 
DOMAIN_MAX 1.0 1.0 1.0 
#data point 
0.072575  0.068895  0.032860
0.102536  0.092456  0.049279
0.176859  0.161244  0.075017
0.312746  0.233874  0.060258
0.419736  0.304621  0.062873
0.522746  0.362503  0.062051
0.623066  0.410467  0.052946
0.738741  0.476044  0.056216
0.111000  0.105608  0.051155
0.126881  0.119717  0.058943
0.225981  0.196218  0.086201
0.354177  0.272803  0.086845
0.467738  0.328010  0.076233
0.541458  0.392888  0.070399
0.655214  0.457577  0.067986
0.770997  0.512388  0.059695
0.148437  0.143633  0.077142
0.213077  0.190954  0.104197
0.292923  0.242343  0.085016
0.397919  0.308486  0.087201
0.503085  0.370879  0.074893
0.593188  0.436109  0.075790
0.700575  0.493336  0.066064
0.820011  0.557908  0.060806
0.230151  0.195974  0.080061
0.308098  0.249190  0.104228
0.384918  0.299780  0.080918
0.450389  0.346893  0.082710
0.555297  0.419717  0.074774
0.657355  0.481233  0.075236
0.740920  0.543790  0.076202
0.866995  0.602526  0.071391
0.300415  0.257050  0.115848
0.387234  0.299014  0.086150
0.472838  0.368927  0.095354
0.536485  0.410083  0.082931
0.613385  0.497955  0.070811
0.696287  0.561383  0.076193
0.806828  0.611064  0.086737
0.920044  0.688911  0.077667
0.384613  0.313651  0.109525
0.462467  0.378738  0.089576
0.559018  0.438987  0.089765
0.612112  0.488626  0.090731
0.702718  0.577147  0.073136
0.777807  0.649915  0.074722
0.855375  0.701675  0.080426
0.949378  0.755888  0.095393
0.469447  0.375851  0.090663
0.526938  0.421173  0.088631
0.621808  0.500922  0.086978
0.697646  0.568367  0.077758
0.758177  0.620920  0.088829
0.836764  0.679574  0.083688
0.909491  0.742062  0.084829
1.026749  0.790305  0.089970
0.541122  0.433893  0.091381
0.609444  0.506408  0.089634
0.690601  0.562312  0.080080
0.745388  0.612694  0.082732
0.808949  0.664886  0.081291
0.884927  0.717886  0.093039
0.969135  0.771845  0.088949
1.078521  0.840323  0.086254
0.100422  0.089185  0.046920
0.120996  0.108749  0.056171
0.185832  0.166382  0.085427
0.292041  0.242318  0.080364
0.411954  0.305116  0.068100
0.509719  0.369360  0.065886
0.624322  0.429765  0.063249
0.744755  0.476475  0.058788
0.130062  0.121828  0.070825
0.164155  0.160211  0.097529
0.224337  0.201574  0.102238
0.326417  0.267160  0.099937
0.444951  0.337478  0.092253
0.559019  0.403847  0.071679
0.677418  0.467104  0.063508
0.772074  0.506880  0.061180
0.152600  0.168688  0.128044
0.200094  0.211561  0.150590
0.282721  0.261601  0.153533
0.385763  0.326271  0.122516
0.493291  0.383540  0.116654
0.605537  0.442861  0.105719
0.698105  0.502057  0.088790
0.813751  0.572515  0.080184
0.207041  0.225787  0.183929
0.275006  0.268017  0.190735
0.340758  0.305027  0.168519
0.452024  0.371113  0.154633
0.536830  0.413739  0.131518
0.635447  0.492310  0.131391
0.755556  0.560099  0.122448
0.855917  0.618324  0.090115
0.285437  0.283517  0.206161
0.342835  0.309297  0.181614
0.437090  0.371149  0.192118
0.538571  0.437426  0.172263
0.625745  0.498745  0.120840
0.715225  0.568171  0.110531
0.804250  0.624037  0.122518
0.922294  0.680725  0.119610
0.369009  0.334301  0.195737
0.435609  0.386227  0.196468
0.515542  0.432492  0.160594
0.581512  0.489127  0.154621
0.689808  0.566468  0.114972
0.764748  0.629791  0.118336
0.865976  0.703444  0.129634
0.983366  0.754717  0.140616
0.429781  0.381611  0.205173
0.520292  0.429950  0.176343
0.591522  0.492326  0.179906
0.684023  0.559414  0.131706
0.756980  0.622149  0.134076
0.829795  0.689256  0.135189
0.912620  0.743472  0.114222
0.999599  0.778739  0.127690
0.507190  0.436641  0.213456
0.597817  0.501903  0.163539
0.683040  0.551494  0.162872
0.754346  0.631612  0.138216
0.818723  0.679628  0.132367
0.897056  0.739490  0.116236
0.966049  0.778458  0.139937
1.066393  0.831321  0.138809
0.130666  0.144470  0.105396
0.148830  0.165589  0.127463
0.191532  0.195444  0.139375
0.314346  0.259061  0.125177
0.430281  0.323564  0.093247
0.533082  0.388064  0.090373
0.637934  0.447955  0.078118
0.725777  0.499165  0.077620
0.162554  0.176423  0.146563
0.183265  0.214969  0.192267
0.232567  0.255548  0.215985
0.337477  0.305998  0.178015
0.472588  0.377384  0.146108
0.548100  0.414426  0.140058
0.657971  0.484414  0.113036
0.780327  0.551582  0.103143
0.206208  0.246967  0.227318
0.223000  0.270498  0.262835
0.246157  0.279970  0.242198
0.366356  0.359823  0.259939
0.493986  0.418389  0.229596
0.591950  0.464051  0.150899
0.706904  0.530506  0.142659
0.815304  0.599142  0.142205
0.217397  0.280259  0.280850
0.259879  0.321650  0.323602
0.318195  0.350918  0.313545
0.410167  0.407461  0.310701
0.529100  0.454805  0.260089
0.627972  0.503248  0.228326
0.753030  0.583555  0.205124
0.849001  0.634975  0.195335
0.260712  0.319606  0.319099
0.327375  0.367825  0.336555
0.398828  0.401447  0.332172
0.480438  0.451238  0.332673
0.582325  0.503421  0.294858
0.696944  0.573672  0.284588
0.822953  0.644351  0.239671
0.920312  0.698438  0.245303
0.313491  0.366554  0.356967
0.399272  0.422718  0.368748
0.479011  0.453194  0.339045
0.559648  0.509093  0.334425
0.662606  0.577456  0.324931
0.761822  0.640451  0.270002
0.858558  0.699569  0.262021
0.961621  0.753205  0.264113
0.356417  0.397868  0.364671
0.453655  0.454985  0.363721
0.558347  0.513695  0.329920
0.638373  0.565166  0.342946
0.735759  0.629178  0.324617
0.813141  0.675130  0.308803
0.915290  0.738784  0.267929
1.017849  0.798713  0.243409
0.440882  0.457112  0.377570
0.552925  0.516225  0.350770
0.633418  0.559512  0.332707
0.716677  0.615932  0.316628
0.790044  0.671734  0.304887
0.900933  0.736378  0.280752
0.965551  0.777350  0.277277
1.079952  0.839469  0.254737
0.164760  0.187898  0.171240
0.180200  0.221309  0.209792
0.221459  0.255870  0.232974
0.287175  0.301690  0.246217
0.445893  0.369107  0.171325
0.540456  0.429799  0.148061
0.648334  0.472910  0.135953
0.743164  0.535090  0.139851
0.187275  0.227530  0.213964
0.221156  0.267391  0.254779
0.260277  0.301419  0.291015
0.328492  0.351675  0.304044
0.462568  0.401318  0.226760
0.563140  0.451642  0.206507
0.676878  0.515647  0.180854
0.787870  0.585169  0.185589
0.226602  0.277412  0.267925
0.258436  0.317067  0.317486
0.283375  0.359394  0.363783
0.393001  0.416973  0.372731
0.462209  0.458033  0.364913
0.593723  0.506394  0.272244
0.712593  0.573344  0.263892
0.830259  0.640272  0.248033
0.262351  0.330856  0.335459
0.290381  0.368024  0.384953
0.320857  0.403133  0.420957
0.391919  0.435361  0.404991
0.503873  0.498959  0.403644
0.636142  0.561589  0.345621
0.739182  0.616302  0.325558
0.867110  0.678533  0.296353
0.304598  0.388665  0.404247
0.344389  0.435556  0.453612
0.370102  0.448052  0.458498
0.472916  0.506593  0.457010
0.557400  0.565880  0.479865
0.651787  0.588262  0.424410
0.781749  0.668838  0.396111
0.910454  0.736162  0.356341
0.329092  0.432308  0.452378
0.363094  0.460808  0.478922
0.442927  0.489079  0.456546
0.521849  0.543261  0.484689
0.603938  0.594000  0.490743
0.717641  0.661382  0.485570
0.863146  0.734230  0.436671
0.937849  0.781094  0.432294
0.360877  0.465425  0.496175
0.433238  0.509359  0.502220
0.514449  0.544784  0.474963
0.589250  0.589877  0.493957
0.696409  0.653780  0.492189
0.803172  0.715072  0.463633
0.905017  0.768347  0.458934
1.003277  0.818920  0.474453
0.398801  0.505663  0.528704
0.485571  0.531687  0.490567
0.565077  0.578363  0.509972
0.668682  0.638140  0.486401
0.786246  0.709936  0.479167
0.865834  0.745541  0.464993
0.966927  0.814919  0.484989
1.056421  0.849876  0.488482
0.185813  0.228497  0.223816
0.224001  0.275962  0.278002
0.246416  0.304591  0.302698
0.298219  0.343340  0.313561
0.408092  0.398807  0.302586
0.543656  0.458962  0.249135
0.671200  0.520402  0.218959
0.765557  0.557385  0.183673
0.227703  0.293058  0.285552
0.249509  0.309687  0.319495
0.284007  0.359341  0.369362
0.337818  0.406012  0.400991
0.422648  0.443913  0.385271
0.548077  0.491501  0.329280
0.679802  0.549908  0.275355
0.786255  0.613266  0.256772
0.264044  0.337397  0.352542
0.295979  0.376335  0.390786
0.317288  0.400417  0.426794
0.384140  0.462320  0.462337
0.465307  0.502604  0.447685
0.568387  0.546302  0.427419
0.706534  0.615509  0.368106
0.824005  0.661415  0.335236
0.296704  0.384760  0.405895
0.328990  0.417456  0.439320
0.359553  0.457705  0.486310
0.380598  0.488434  0.524005
0.501499  0.541282  0.489352
0.599503  0.595198  0.498672
0.729288  0.659858  0.450271
0.860638  0.707990  0.398749
0.329458  0.429594  0.454643
0.365651  0.469789  0.502078
0.398302  0.514913  0.542472
0.447987  0.561210  0.585301
0.536940  0.599487  0.569883
0.638475  0.652719  0.575455
0.779600  0.705455  0.521078
0.913673  0.769006  0.481379
0.365519  0.474947  0.502808
0.392098  0.504218  0.534532
0.443635  0.553734  0.585541
0.482342  0.597382  0.624174
0.582536  0.628976  0.586706
0.695199  0.709459  0.628277
0.818116  0.756475  0.598279
0.943252  0.806510  0.546614
0.406912  0.521895  0.558152
0.439921  0.553530  0.586528
0.480193  0.601502  0.627253
0.556211  0.628284  0.621977
0.682703  0.694625  0.613222
0.773993  0.749781  0.636750
0.888140  0.800582  0.618834
0.999963  0.845490  0.600421
0.445241  0.569318  0.599384
0.477697  0.602550  0.637571
0.536638  0.633700  0.632158
0.648894  0.691848  0.633993
0.737106  0.726383  0.623788
0.842597  0.783088  0.620936
0.941706  0.836334  0.629422
1.046637  0.878012  0.611062
0.240431  0.306477  0.311767
0.258327  0.329414  0.339771
0.287715  0.366243  0.381366
0.323811  0.398098  0.398854
0.423268  0.439936  0.379499
0.518032  0.499092  0.371626
0.646820  0.531661  0.298544
0.777410  0.596057  0.273733
0.263453  0.345371  0.370511
0.296054  0.382258  0.405809
0.316758  0.408844  0.431078
0.363417  0.451281  0.467948
0.457698  0.501060  0.472997
0.558273  0.555072  0.463527
0.677390  0.601331  0.401477
0.803579  0.653553  0.367664
0.309695  0.399290  0.423800
0.340365  0.429876  0.452410
0.377209  0.479775  0.511794
0.396273  0.505202  0.527478
0.460277  0.543379  0.540622
0.583508  0.604770  0.535032
0.692473  0.637432  0.471755
0.829407  0.710363  0.453688
0.327854  0.432247  0.464407
0.374769  0.469055  0.491103
0.414855  0.528705  0.560713
0.425057  0.549603  0.587749
0.485289  0.596348  0.622815
0.610222  0.641054  0.581606
0.731390  0.692766  0.551776
0.845314  0.760749  0.551065
0.378711  0.491089  0.525165
0.403033  0.525366  0.563077
0.448232  0.570326  0.604732
0.482991  0.606899  0.632934
0.533466  0.650648  0.684758
0.644600  0.692981  0.650941
0.748677  0.731584  0.624453
0.912406  0.805051  0.604036
0.408993  0.523258  0.561132
0.444804  0.572550  0.601137
0.481516  0.610557  0.650201
0.514918  0.647209  0.680635
0.574257  0.699107  0.730079
0.690413  0.753220  0.725214
0.822593  0.799249  0.695529
0.935144  0.840885  0.674361
0.454930  0.571717  0.613519
0.492116  0.617739  0.653399
0.545832  0.664994  0.690665
0.571523  0.693345  0.719040
0.631544  0.744182  0.763602
0.733510  0.780319  0.759043
0.865157  0.837015  0.735780
0.975709  0.872705  0.704997
0.488449  0.610888  0.648649
0.524613  0.647592  0.677776
0.569823  0.695869  0.734499
0.603688  0.724591  0.754244
0.698367  0.783323  0.787352
0.823280  0.819284  0.751665
0.914069  0.863556  0.750124
1.024905  0.905655  0.741201
0.282424  0.366824  0.392622
0.307698  0.392996  0.414780
0.338651  0.434852  0.457654
0.362113  0.471916  0.503555
0.424082  0.489265  0.478519
0.513874  0.529195  0.470983
0.627929  0.573036  0.410663
0.768074  0.645533  0.383526
0.309688  0.410773  0.437780
0.339473  0.444005  0.473915
0.364509  0.467536  0.500104
0.404344  0.521325  0.556956
0.444353  0.548859  0.569271
0.551239  0.584717  0.524689
0.660375  0.641454  0.520434
0.803115  0.706932  0.465352
0.344912  0.448008  0.477770
0.375467  0.488472  0.521549
0.407593  0.519441  0.559329
0.448299  0.567322  0.601540
0.483763  0.609215  0.640099
0.596505  0.647173  0.612339
0.690665  0.697583  0.602527
0.818251  0.746788  0.565116
0.374385  0.489860  0.521802
0.403098  0.516364  0.552818
0.460078  0.581883  0.612147
0.495868  0.620101  0.656102
0.535804  0.659239  0.699185
0.595383  0.691171  0.692754
0.743940  0.735670  0.650019
0.863336  0.794678  0.639438
0.415359  0.525177  0.559943
0.461948  0.577369  0.611637
0.492879  0.618219  0.644960
0.544819  0.669937  0.698984
0.586353  0.720474  0.766835
0.631336  0.732967  0.753629
0.767179  0.775553  0.705064
0.896655  0.839663  0.705213
0.450093  0.573514  0.611553
0.493925  0.618258  0.664849
0.534179  0.664092  0.701135
0.599442  0.729054  0.770866
0.631973  0.757251  0.801934
0.686875  0.806715  0.846964
0.797582  0.837757  0.813134
0.933937  0.870465  0.761317
0.495749  0.624896  0.659189
0.534496  0.653823  0.686224
0.570897  0.698275  0.744892
0.626011  0.757716  0.810544
0.677653  0.797801  0.840918
0.735425  0.839621  0.884877
0.829413  0.893376  0.901888
0.963270  0.906936  0.796130
0.524298  0.658860  0.701919
0.566163  0.700946  0.740174
0.606137  0.746004  0.796622
0.674757  0.795684  0.845497
0.717866  0.833699  0.882490
0.797395  0.883753  0.912098
0.867150  0.926680  0.929813
1.008740  0.954081  0.863165
0.317987  0.417807  0.445464
0.339529  0.448723  0.480316
0.380320  0.492319  0.527851
0.408154  0.533512  0.567550
0.451893  0.578534  0.612324
0.511213  0.590215  0.582013
0.640715  0.640165  0.548491
0.787898  0.696138  0.489972
0.344028  0.452730  0.486058
0.370472  0.487796  0.535684
0.422461  0.543639  0.582846
0.456019  0.582963  0.619192
0.497432  0.620558  0.656647
0.547598  0.658185  0.677545
0.638972  0.680190  0.632296
0.795743  0.742480  0.575819
0.369428  0.491443  0.532254
0.414304  0.536496  0.573787
0.456992  0.584790  0.620892
0.509502  0.638808  0.673771
0.549600  0.680244  0.726709
0.593697  0.719087  0.754139
0.701170  0.746064  0.696037
0.835833  0.792460  0.671297
0.414653  0.542069  0.574745
0.453560  0.577109  0.617584
0.501856  0.633005  0.667108
0.558479  0.692176  0.722622
0.582714  0.719211  0.764262
0.628284  0.762068  0.805421
0.698913  0.797848  0.817733
0.853225  0.831429  0.732379
0.446847  0.572195  0.610145
0.495349  0.623245  0.653788
0.538699  0.665612  0.702238
0.581055  0.716115  0.764397
0.622067  0.753791  0.798986
0.676059  0.799252  0.844248
0.753572  0.861981  0.903605
0.863601  0.878068  0.844475
0.481364  0.604248  0.640773
0.526788  0.650446  0.685459
0.576812  0.705442  0.745698
0.617618  0.748370  0.797197
0.648277  0.780927  0.828386
0.733560  0.845684  0.883411
0.807072  0.892272  0.922857
0.884799  0.924243  0.930399
0.527809  0.656825  0.696469
0.572452  0.706614  0.746138
0.608546  0.741119  0.792554
0.650196  0.778633  0.823329
0.711822  0.824691  0.869649
0.774131  0.875020  0.914719
0.848537  0.916287  0.944123
0.915671  0.953157  0.969836
0.567443  0.696744  0.731110
0.580121  0.721091  0.772730
0.639857  0.774416  0.826045
0.698631  0.813242  0.864590
0.751409  0.858454  0.903580
0.833099  0.907315  0.933536
0.889527  0.946921  0.965192
0.956073  0.967477  0.984993
