LUT/LUT_7.CUBE
TITLE "LUT_7" 
#LUT size 
LUT_3D_SIZE 15 
DOMAIN_MIN 0.0 0.0 0.0 
DOMAIN_MAX 1.0 1.0 1.0 
#data point 
0.029286  0.030552  0.015531
0.052849  0.050297  0.026011
0.090930  0.082019  0.036580
0.151361  0.123181  0.038073
0.225063  0.146392  0.030788
0.283742  0.161720  0.019856
0.363063  0.179174  0.017012
0.415739  0.182403  0.019979
0.486015  0.197986  0.015772
0.550884  0.216031  0.013028
0.617015  0.222152  0.008471
0.676285  0.225738  0.006547
0.760137  0.237625  0.005206
0.811700  0.243451  -0.004171
0.894594  0.248975  -0.014117
0.048635  0.049391  0.022638
0.074448  0.072169  0.032138
0.112740  0.096181  0.042055
0.174019  0.138169  0.042768
0.231266  0.162438  0.034615
0.301278  0.183023  0.028543
0.368903  0.204545  0.028921
0.426403  0.222731  0.027945
0.490283  0.232786  0.025052
0.550948  0.241978  0.018851
0.622583  0.256160  0.018651
0.695408  0.269348  0.013678
0.763239  0.276606  0.012937
0.829106  0.278413  0.008790
0.892555  0.293740  0.003954
0.088911  0.082872  0.041868
0.102686  0.094520  0.043574
0.141094  0.124627  0.051295
0.194824  0.154465  0.050829
0.260928  0.186478  0.040375
0.314846  0.202352  0.036318
0.384518  0.228780  0.032810
0.439839  0.242978  0.030794
0.503903  0.267730  0.031943
0.570337  0.272972  0.029247
0.631977  0.291922  0.021600
0.701517  0.310737  0.021120
0.770206  0.317971  0.018207
0.837655  0.325898  0.021676
0.906447  0.332111  0.014483
0.115686  0.112501  0.050220
0.141554  0.124463  0.057874
0.182257  0.151599  0.052398
0.230403  0.185160  0.052902
0.287215  0.212063  0.048621
0.338420  0.236328  0.043904
0.403391  0.251337  0.039800
0.463419  0.273793  0.039179
0.522892  0.290627  0.033732
0.585045  0.312739  0.033471
0.643466  0.326054  0.030941
0.710785  0.338971  0.030822
0.781691  0.354982  0.030199
0.848107  0.356162  0.024238
0.920225  0.377828  0.032099
0.149189  0.139332  0.064503
0.184965  0.161869  0.068405
0.221858  0.193226  0.072846
0.260337  0.214606  0.057731
0.306000  0.252864  0.053278
0.364031  0.278821  0.056660
0.414229  0.297296  0.047757
0.480751  0.320229  0.047257
0.537067  0.335665  0.042247
0.609909  0.340934  0.039809
0.653274  0.368032  0.043803
0.737511  0.385730  0.039260
0.793272  0.383036  0.036271
0.857137  0.402556  0.032726
0.918879  0.419481  0.035331
0.190421  0.175480  0.080263
0.224336  0.196450  0.065406
0.259007  0.227135  0.062150
0.302095  0.266471  0.048331
0.334446  0.288164  0.047755
0.377067  0.313398  0.052678
0.439070  0.345634  0.051477
0.496889  0.364404  0.045234
0.549642  0.367795  0.047719
0.605693  0.382216  0.039087
0.680565  0.396856  0.038605
0.736783  0.416180  0.047701
0.811317  0.431749  0.040106
0.876513  0.447073  0.046441
0.938715  0.461668  0.040794
0.232036  0.210189  0.071805
0.261767  0.234699  0.071791
0.301170  0.275668  0.059373
0.336017  0.307414  0.052403
0.361269  0.336178  0.054842
0.409232  0.365173  0.058288
0.451101  0.385882  0.052394
0.511872  0.415609  0.053484
0.562905  0.422509  0.051033
0.621803  0.452289  0.045343
0.682087  0.462622  0.040542
0.747206  0.464605  0.048954
0.817800  0.469159  0.044189
0.881628  0.484025  0.048431
0.949549  0.494454  0.053839
0.266270  0.256419  0.084227
0.298004  0.288116  0.059956
0.329052  0.308948  0.055715
0.370881  0.342083  0.050827
0.402593  0.387293  0.054936
0.442367  0.420148  0.045674
0.475980  0.441836  0.047108
0.515830  0.460261  0.047901
0.585066  0.480078  0.047923
0.640431  0.499399  0.046334
0.708848  0.511366  0.046082
0.765131  0.531242  0.053325
0.828365  0.537981  0.050841
0.898559  0.541200  0.051334
0.965081  0.552688  0.055127
0.292976  0.292536  0.080273
0.329541  0.330467  0.073082
0.365767  0.359728  0.054164
0.394997  0.382954  0.053435
0.434905  0.426658  0.053762
0.462202  0.451771  0.053916
0.509460  0.482936  0.051898
0.549190  0.509838  0.055218
0.599586  0.529483  0.054446
0.659095  0.550728  0.051266
0.706747  0.570856  0.049109
0.771992  0.573057  0.048474
0.843072  0.584575  0.048279
0.900640  0.604855  0.053520
0.966165  0.610069  0.057241
0.335392  0.338902  0.071988
0.359888  0.366384  0.064530
0.397276  0.400280  0.055762
0.435314  0.426848  0.054267
0.461630  0.461759  0.054456
0.498551  0.485882  0.054039
0.543835  0.519083  0.051627
0.581197  0.549136  0.053241
0.623000  0.578536  0.055967
0.672094  0.599853  0.042447
0.726822  0.623314  0.045366
0.783877  0.638925  0.049739
0.839971  0.649917  0.051722
0.909230  0.660717  0.052812
0.974367  0.674629  0.057816
0.355977  0.373744  0.060665
0.388630  0.397819  0.063913
0.429154  0.443994  0.056273
0.459708  0.467531  0.061245
0.509363  0.500180  0.047921
0.529975  0.530800  0.056020
0.576056  0.558552  0.059747
0.617182  0.585497  0.053864
0.664172  0.619056  0.047396
0.694662  0.634180  0.048227
0.748676  0.665078  0.057257
0.797917  0.681755  0.051317
0.857394  0.708243  0.052658
0.919256  0.726994  0.051211
0.982515  0.729055  0.055190
0.387858  0.410973  0.064144
0.426701  0.447021  0.058420
0.455177  0.470780  0.054571
0.488945  0.498287  0.046072
0.533345  0.534391  0.050650
0.567443  0.564097  0.054627
0.603797  0.584340  0.049223
0.639009  0.608872  0.049031
0.690589  0.647348  0.052410
0.734049  0.663642  0.051737
0.777055  0.696128  0.048967
0.829019  0.716443  0.054295
0.891106  0.745358  0.051415
0.945190  0.772878  0.058170
0.991885  0.783898  0.052188
0.415426  0.451247  0.064513
0.449933  0.480816  0.055857
0.489031  0.510086  0.057429
0.527168  0.539322  0.053080
0.558249  0.575655  0.050392
0.594736  0.599492  0.056008
0.633259  0.621562  0.055756
0.671941  0.646196  0.053193
0.721827  0.679412  0.056075
0.758164  0.697455  0.056107
0.809493  0.726781  0.056996
0.853334  0.752606  0.053373
0.900741  0.770163  0.058533
0.951907  0.800418  0.049551
1.013110  0.824470  0.056088
0.446385  0.493577  0.059450
0.481533  0.521338  0.059538
0.522375  0.553280  0.054313
0.556720  0.576883  0.047268
0.595198  0.605136  0.057058
0.632012  0.627697  0.043339
0.667402  0.655418  0.052633
0.708694  0.682182  0.054736
0.748386  0.699124  0.051698
0.790550  0.723990  0.052400
0.832685  0.754756  0.052094
0.888513  0.782797  0.052776
0.933945  0.804187  0.062542
0.981302  0.831159  0.054426
1.030840  0.847306  0.057318
0.472488  0.526918  0.057140
0.511311  0.549343  0.059207
0.539369  0.576476  0.056484
0.592830  0.611912  0.051975
0.622611  0.633849  0.054529
0.651804  0.660988  0.050776
0.699824  0.681464  0.052812
0.740482  0.709318  0.049826
0.775915  0.742333  0.056472
0.817764  0.764303  0.058712
0.861462  0.785684  0.053851
0.914021  0.804540  0.063838
0.956574  0.830281  0.063051
1.017578  0.861189  0.054543
1.063472  0.884501  0.055509
0.043237  0.042864  0.022044
0.061801  0.057020  0.023205
0.099146  0.089816  0.040681
0.141654  0.114365  0.039474
0.208893  0.149749  0.040460
0.286806  0.162941  0.026442
0.361252  0.181247  0.021831
0.406977  0.192849  0.019472
0.487075  0.212378  0.012538
0.542585  0.209485  0.013430
0.609852  0.221024  0.010169
0.688654  0.240252  0.010947
0.759144  0.244458  0.007324
0.819611  0.247901  -0.000570
0.887021  0.245098  -0.004125
0.063909  0.068958  0.041381
0.082489  0.082685  0.048194
0.113838  0.108828  0.050119
0.169646  0.143699  0.054427
0.232829  0.175490  0.051694
0.303773  0.192442  0.035474
0.366201  0.205006  0.030367
0.421041  0.227797  0.035283
0.490380  0.238955  0.027846
0.563070  0.259220  0.025199
0.621310  0.277548  0.018945
0.692146  0.278981  0.021678
0.755221  0.283933  0.016757
0.831161  0.291939  0.015384
0.893995  0.307910  0.018028
0.084817  0.093471  0.063588
0.104602  0.104704  0.058259
0.145983  0.139858  0.074239
0.195224  0.166214  0.074140
0.244321  0.196608  0.061929
0.319819  0.212617  0.054938
0.374893  0.241679  0.052524
0.441346  0.253745  0.043275
0.501032  0.270681  0.028799
0.563761  0.289451  0.033837
0.632440  0.302420  0.028940
0.702189  0.319850  0.027720
0.775207  0.324232  0.028373
0.839206  0.334342  0.024501
0.909486  0.341544  0.025400
0.115438  0.123182  0.085201
0.145529  0.143329  0.083544
0.185666  0.165007  0.088481
0.210365  0.189197  0.086620
0.278625  0.216691  0.078266
0.338111  0.246059  0.070249
0.389670  0.267755  0.067517
0.456280  0.286888  0.061797
0.519913  0.302925  0.045265
0.577934  0.315872  0.044205
0.644169  0.334152  0.041564
0.715015  0.359391  0.043672
0.777297  0.350394  0.031513
0.846956  0.378024  0.030950
0.911164  0.387776  0.033450
0.149721  0.151935  0.097592
0.184741  0.168528  0.095074
0.218555  0.201199  0.092673
0.256547  0.226015  0.093289
0.306759  0.255638  0.085621
0.351049  0.276811  0.079884
0.412720  0.299674  0.071129
0.465712  0.317007  0.062078
0.532028  0.334489  0.074441
0.594474  0.354854  0.067345
0.648433  0.368930  0.044424
0.727489  0.387395  0.043232
0.783404  0.394349  0.043688
0.848187  0.412192  0.038818
0.918349  0.423194  0.044202
0.185666  0.178596  0.105639
0.221914  0.205611  0.103057
0.261481  0.242077  0.113310
0.287165  0.261110  0.105894
0.338170  0.297105  0.078093
0.379323  0.324192  0.085416
0.441792  0.350032  0.075598
0.478170  0.361196  0.084293
0.541326  0.385579  0.072547
0.603496  0.398201  0.077579
0.669787  0.409266  0.067397
0.742926  0.422168  0.053324
0.801483  0.435873  0.052107
0.877216  0.447413  0.047933
0.938754  0.467437  0.051156
0.229570  0.224807  0.124980
0.260537  0.249705  0.115271
0.293295  0.275201  0.113855
0.325402  0.304083  0.108478
0.369400  0.338657  0.090631
0.408372  0.374971  0.078660
0.451621  0.397178  0.073462
0.507956  0.412298  0.081410
0.559103  0.429053  0.076110
0.623373  0.428559  0.072597
0.688593  0.457906  0.068118
0.760078  0.465472  0.059663
0.816577  0.482900  0.065841
0.899860  0.490674  0.059255
0.954180  0.506389  0.058088
0.261686  0.261289  0.118131
0.288379  0.286593  0.116925
0.324205  0.321739  0.117638
0.356780  0.341785  0.107941
0.403112  0.381092  0.085799
0.437305  0.416965  0.086153
0.487000  0.451178  0.073004
0.531082  0.469595  0.073032
0.583010  0.482909  0.081626
0.632614  0.493332  0.068688
0.700078  0.512326  0.071330
0.756521  0.521636  0.061473
0.828128  0.534090  0.067531
0.898319  0.542765  0.066061
0.969782  0.552369  0.065316
0.290113  0.290241  0.120074
0.330956  0.325537  0.120396
0.357415  0.353270  0.115294
0.388936  0.377072  0.109282
0.427326  0.416307  0.092443
0.471818  0.452732  0.075211
0.504771  0.477449  0.079001
0.542872  0.506930  0.074784
0.601601  0.531398  0.072805
0.658957  0.560221  0.078275
0.709992  0.574182  0.073606
0.774390  0.576014  0.071107
0.840903  0.593734  0.073779
0.909142  0.598633  0.067307
0.969490  0.609675  0.070851
0.312381  0.329861  0.125531
0.361307  0.366310  0.118195
0.399203  0.400447  0.114993
0.425406  0.420843  0.097624
0.460786  0.454760  0.094282
0.505912  0.496042  0.080969
0.547243  0.527800  0.087823
0.576189  0.550861  0.081454
0.618186  0.583385  0.085249
0.671203  0.600805  0.076818
0.727428  0.630252  0.069969
0.784233  0.648350  0.069416
0.850369  0.655522  0.065325
0.915774  0.663710  0.066244
0.978625  0.678329  0.070397
0.350409  0.374588  0.115930
0.378116  0.397995  0.118572
0.414917  0.435868  0.115651
0.458410  0.474612  0.104011
0.494217  0.494960  0.091442
0.538198  0.531690  0.087685
0.573027  0.562783  0.081804
0.615022  0.589116  0.080996
0.657692  0.610311  0.080309
0.697795  0.637188  0.085744
0.754448  0.668185  0.075758
0.798470  0.687834  0.075248
0.859710  0.707728  0.059812
0.922819  0.733227  0.071998
0.991111  0.714748  0.069773
0.378470  0.404679  0.115760
0.414082  0.437858  0.109193
0.453749  0.475326  0.095363
0.490038  0.504266  0.090429
0.529638  0.539712  0.093362
0.567150  0.569592  0.090652
0.598527  0.588377  0.081983
0.642767  0.615954  0.085740
0.682204  0.640161  0.088066
0.723626  0.662994  0.082791
0.781453  0.694032  0.075508
0.823038  0.724315  0.093043
0.879208  0.746046  0.076028
0.927641  0.770089  0.067975
0.988251  0.788731  0.070866
0.405958  0.453804  0.116361
0.455784  0.486632  0.086290
0.477856  0.505547  0.100490
0.522189  0.539177  0.092810
0.557926  0.564812  0.085939
0.589600  0.599407  0.084189
0.641249  0.628586  0.086585
0.677804  0.646754  0.086104
0.719066  0.680413  0.086469
0.759974  0.703935  0.092172
0.807300  0.730965  0.084167
0.859395  0.763052  0.078816
0.896759  0.778353  0.079136
0.962647  0.808656  0.084840
1.011630  0.823973  0.077427
0.438873  0.487898  0.109514
0.468311  0.515505  0.094813
0.515888  0.546223  0.088809
0.545597  0.569977  0.088052
0.587729  0.601112  0.074443
0.630556  0.626046  0.079932
0.666999  0.660441  0.091645
0.712947  0.685942  0.086971
0.754404  0.710166  0.086853
0.781756  0.732827  0.086972
0.837461  0.759303  0.084675
0.883836  0.784393  0.092666
0.932054  0.811463  0.087226
0.981737  0.838623  0.070922
1.032577  0.856873  0.077522
0.469473  0.523929  0.104238
0.511598  0.555147  0.089702
0.540832  0.581944  0.097245
0.584820  0.613361  0.083906
0.617303  0.635697  0.080707
0.656696  0.666247  0.085709
0.699482  0.683222  0.081598
0.744572  0.713432  0.079650
0.772159  0.732230  0.091095
0.813796  0.762386  0.089820
0.866606  0.792558  0.091439
0.904972  0.806345  0.085267
0.955304  0.839976  0.079177
1.005089  0.862713  0.080720
1.064164  0.895788  0.084710
0.065548  0.078441  0.054738
0.086698  0.091573  0.057597
0.104544  0.113379  0.065062
0.159201  0.139225  0.064913
0.215074  0.163842  0.052538
0.284952  0.181790  0.047570
0.344557  0.199432  0.047260
0.413943  0.213724  0.041799
0.490638  0.224264  0.037602
0.535194  0.231976  0.037894
0.608482  0.229614  0.028525
0.684204  0.242975  0.029156
0.746269  0.253908  0.028245
0.828401  0.261985  0.021643
0.892617  0.262579  0.021799
0.085631  0.104934  0.086195
0.098340  0.112211  0.090453
0.125008  0.135105  0.100312
0.172063  0.157517  0.094303
0.238332  0.193937  0.086828
0.301340  0.213246  0.068580
0.362835  0.227734  0.068368
0.416971  0.240829  0.055385
0.494390  0.265602  0.046603
0.554769  0.272757  0.050893
0.623323  0.283230  0.041626
0.686972  0.296762  0.033872
0.757396  0.309948  0.038095
0.835310  0.304855  0.028629
0.894261  0.306157  0.034154
0.090338  0.120721  0.112231
0.114096  0.139464  0.127324
0.140474  0.157215  0.124498
0.197629  0.187722  0.110392
0.241694  0.214779  0.107801
0.312861  0.239220  0.095608
0.378292  0.251919  0.084263
0.438921  0.276581  0.074929
0.500163  0.294092  0.074593
0.562749  0.314110  0.080205
0.624608  0.327012  0.057327
0.692652  0.329758  0.053632
0.768541  0.333607  0.045550
0.833170  0.355562  0.047988
0.896980  0.351375  0.037021
0.116880  0.144332  0.143895
0.141471  0.160146  0.141231
0.166416  0.182483  0.148179
0.212858  0.208305  0.140586
0.249795  0.231047  0.136749
0.328265  0.262280  0.121044
0.396478  0.289881  0.110760
0.441669  0.300372  0.104214
0.517001  0.322857  0.090512
0.575723  0.345550  0.096608
0.634630  0.347791  0.081353
0.695233  0.367483  0.076903
0.774877  0.379606  0.057462
0.835605  0.393311  0.051275
0.907493  0.405808  0.050918
0.138508  0.176244  0.167615
0.172733  0.198854  0.173286
0.207194  0.216664  0.160546
0.243744  0.234623  0.154669
0.300326  0.264859  0.144324
0.332687  0.283406  0.140836
0.405191  0.310172  0.135997
0.469187  0.339563  0.118495
0.521249  0.354291  0.109557
0.587053  0.370706  0.109908
0.651872  0.390200  0.104836
0.713896  0.408501  0.097041
0.791049  0.421153  0.091542
0.844999  0.437381  0.071285
0.919485  0.447328  0.067510
0.166448  0.196834  0.184972
0.201625  0.221339  0.178725
0.235314  0.243888  0.177450
0.279530  0.274723  0.171905
0.321916  0.300665  0.160151
0.366167  0.334198  0.164473
0.429690  0.350734  0.147500
0.487457  0.364207  0.138386
0.544883  0.380856  0.126872
0.603757  0.408518  0.130187
0.665682  0.423367  0.119796
0.726180  0.448451  0.119568
0.792600  0.449939  0.104735
0.870523  0.470084  0.094916
0.925371  0.482275  0.087165
0.203504  0.229101  0.189244
0.242859  0.254427  0.183187
0.287287  0.287007  0.180620
0.314952  0.311074  0.164779
0.359020  0.342373  0.156389
0.392944  0.369642  0.163651
0.455903  0.393176  0.145926
0.506945  0.406632  0.134112
0.556239  0.427358  0.132047
0.618404  0.453533  0.137304
0.683385  0.464209  0.136123
0.749770  0.472923  0.138262
0.816286  0.485707  0.131231
0.881871  0.507032  0.115508
0.940120  0.521893  0.097039
0.252347  0.268301  0.195821
0.278767  0.293511  0.190611
0.318070  0.317634  0.177735
0.357751  0.348141  0.168158
0.392531  0.382324  0.174810
0.418118  0.404075  0.163595
0.474218  0.442291  0.152899
0.533657  0.463793  0.133840
0.586834  0.476619  0.130955
0.642835  0.499305  0.133550
0.693112  0.511434  0.140090
0.749651  0.532445  0.138142
0.819844  0.541856  0.139017
0.897550  0.550821  0.122948
0.954498  0.558504  0.115941
0.271163  0.294787  0.195582
0.318774  0.334021  0.186504
0.347949  0.357171  0.174362
0.393082  0.393197  0.178356
0.424161  0.415775  0.177268
0.454361  0.451543  0.165694
0.498866  0.490940  0.153180
0.545222  0.518331  0.142474
0.598437  0.538588  0.127529
0.651106  0.551530  0.135618
0.715274  0.566834  0.138824
0.768210  0.583364  0.138555
0.839279  0.598718  0.142625
0.896789  0.604381  0.126187
0.967621  0.618546  0.122410
0.307419  0.333525  0.203241
0.354675  0.367842  0.182522
0.384925  0.399380  0.173990
0.413413  0.428443  0.184115
0.450407  0.453012  0.176942
0.489774  0.489195  0.167832
0.532283  0.527189  0.152253
0.572259  0.555779  0.145816
0.617940  0.587446  0.142099
0.678763  0.605561  0.135345
0.728777  0.627518  0.141218
0.786238  0.642182  0.142223
0.846489  0.654884  0.140935
0.903041  0.665079  0.141461
0.971538  0.667909  0.127836
0.343371  0.374005  0.191104
0.374183  0.405834  0.178042
0.416307  0.440542  0.179753
0.455836  0.459673  0.170352
0.486378  0.492199  0.162181
0.525724  0.524203  0.157952
0.556880  0.557221  0.160803
0.608319  0.582999  0.144078
0.650687  0.615852  0.133110
0.701221  0.641024  0.142748
0.745368  0.668638  0.142081
0.797819  0.692689  0.140570
0.847538  0.711294  0.141748
0.918202  0.719367  0.131414
0.996565  0.732656  0.129847
0.371896  0.415446  0.187115
0.407765  0.442412  0.185319
0.447717  0.480452  0.180180
0.488142  0.500934  0.172863
0.516697  0.530365  0.175617
0.559156  0.562745  0.168423
0.587534  0.583973  0.160245
0.630180  0.616907  0.143437
0.678720  0.651101  0.142565
0.733633  0.679321  0.135291
0.770642  0.703151  0.140512
0.819941  0.725977  0.145688
0.871341  0.752593  0.141343
0.934903  0.774378  0.142220
0.999018  0.789745  0.145130
0.403399  0.449544  0.185708
0.437916  0.482331  0.174645
0.474329  0.503923  0.163160
0.506474  0.537889  0.181519
0.545308  0.561732  0.169900
0.592485  0.599306  0.162556
0.625351  0.625691  0.153675
0.672789  0.650071  0.143308
0.712787  0.676450  0.139987
0.758342  0.709676  0.146042
0.803032  0.726797  0.148908
0.847387  0.753081  0.137095
0.902590  0.788655  0.136537
0.951751  0.802890  0.150374
1.007931  0.820596  0.127989
0.435184  0.484165  0.189296
0.470941  0.511651  0.169102
0.501891  0.543292  0.181808
0.538885  0.569793  0.157364
0.576985  0.602455  0.162056
0.628620  0.634910  0.163920
0.664026  0.651846  0.151562
0.709756  0.686213  0.154255
0.745539  0.704978  0.144609
0.788826  0.732077  0.132024
0.830461  0.763305  0.146939
0.880961  0.787279  0.138643
0.927629  0.812226  0.142731
0.976484  0.839393  0.142756
1.025904  0.868668  0.157509
0.453792  0.515077  0.186075
0.501957  0.555518  0.178232
0.538356  0.588339  0.168209
0.572770  0.603667  0.159473
0.615640  0.636785  0.157352
0.653049  0.657687  0.159737
0.690871  0.681051  0.144583
0.738117  0.705284  0.143041
0.774743  0.742826  0.140231
0.821085  0.771810  0.156551
0.864373  0.790243  0.145051
0.907509  0.814378  0.145918
0.948714  0.839024  0.148404
1.003030  0.871183  0.144487
1.048313  0.887526  0.145670
0.078288  0.104944  0.102045
0.088609  0.118810  0.112249
0.113796  0.143815  0.125996
0.159375  0.163519  0.124417
0.209688  0.179742  0.100107
0.282350  0.199330  0.088831
0.355717  0.217613  0.084308
0.417252  0.230612  0.073486
0.472975  0.236351  0.073106
0.541148  0.247584  0.073826
0.603433  0.255742  0.077876
0.673758  0.257939  0.076013
0.740971  0.271865  0.068954
0.819165  0.264881  0.051961
0.886667  0.274557  0.066161
0.094993  0.129001  0.121940
0.105235  0.143971  0.142994
0.126774  0.161870  0.144922
0.165917  0.179508  0.136670
0.225624  0.207813  0.138983
0.290442  0.227989  0.117265
0.361033  0.248799  0.104205
0.428028  0.269983  0.104570
0.482468  0.279168  0.095825
0.549015  0.294646  0.092623
0.619366  0.301094  0.092553
0.680569  0.305061  0.084467
0.750970  0.323108  0.085058
0.815213  0.316941  0.071809
0.897725  0.318722  0.062844
0.109646  0.146051  0.150455
0.130792  0.171317  0.167991
0.154757  0.190797  0.179334
0.186901  0.214484  0.181411
0.241380  0.233145  0.164891
0.303132  0.252184  0.146574
0.369907  0.278995  0.135186
0.431211  0.289270  0.131205
0.493576  0.307458  0.117905
0.563220  0.329422  0.106973
0.623383  0.341118  0.113416
0.688949  0.348570  0.092298
0.753815  0.354656  0.100872
0.817277  0.363630  0.096091
0.903391  0.376499  0.085830
0.124525  0.173720  0.182817
0.139978  0.191940  0.192817
0.161727  0.205392  0.208102
0.197285  0.229451  0.210051
0.262456  0.264301  0.201828
0.321785  0.282141  0.178469
0.393967  0.310705  0.170804
0.445228  0.321086  0.154644
0.509943  0.337176  0.144200
0.580076  0.362418  0.135724
0.630505  0.368713  0.130212
0.695477  0.391181  0.128878
0.772616  0.402872  0.122305
0.831290  0.409415  0.111165
0.896427  0.424946  0.116904
0.143914  0.205821  0.219496
0.169227  0.227236  0.233447
0.198362  0.233901  0.219776
0.226824  0.264535  0.229958
0.287643  0.276247  0.208744
0.336325  0.308518  0.202457
0.387818  0.329254  0.185224
0.465731  0.352819  0.174836
0.520538  0.364957  0.169932
0.593814  0.388093  0.145901
0.645304  0.400214  0.149026
0.711023  0.423627  0.151047
0.768311  0.438977  0.147377
0.844172  0.450510  0.141970
0.915637  0.468269  0.129517
0.163921  0.221371  0.236261
0.192363  0.239321  0.234046
0.228163  0.264967  0.247629
0.259426  0.281591  0.232912
0.308978  0.311466  0.235615
0.359346  0.335021  0.220921
0.424348  0.364838  0.195278
0.471881  0.384665  0.207584
0.544242  0.395770  0.192730
0.587253  0.416053  0.178462
0.672570  0.433183  0.178464
0.723375  0.460779  0.169508
0.793214  0.468481  0.160136
0.853622  0.487788  0.152709
0.914665  0.501504  0.149867
0.191598  0.251458  0.250450
0.228486  0.271207  0.246942
0.263264  0.294989  0.249134
0.304308  0.318367  0.243589
0.342064  0.338494  0.234854
0.395120  0.375753  0.224772
0.441939  0.396210  0.212745
0.497775  0.425568  0.219175
0.553344  0.440648  0.207874
0.612441  0.450591  0.192847
0.679475  0.472318  0.191327
0.747193  0.496133  0.183884
0.800023  0.499684  0.183096
0.862338  0.520997  0.176780
0.940564  0.539584  0.170160
0.219883  0.276112  0.271455
0.274460  0.308075  0.262157
0.314535  0.334573  0.255755
0.342509  0.352811  0.257049
0.382939  0.388298  0.242533
0.429334  0.414803  0.213615
0.469375  0.452615  0.225217
0.521802  0.467201  0.222471
0.569172  0.482757  0.223896
0.637046  0.499870  0.211027
0.694977  0.531672  0.189420
0.763801  0.534804  0.200262
0.823538  0.551092  0.194925
0.876321  0.556643  0.191184
0.939649  0.575442  0.185451
0.265651  0.305777  0.265307
0.300439  0.332104  0.268067
0.341153  0.360715  0.260533
0.370626  0.388978  0.247358
0.418049  0.419370  0.239921
0.452973  0.458819  0.234198
0.493004  0.485968  0.225614
0.527337  0.512284  0.225268
0.589364  0.527829  0.224749
0.660721  0.548276  0.209993
0.719966  0.568215  0.194973
0.783702  0.584572  0.209187
0.823446  0.596005  0.209744
0.900445  0.610972  0.211999
0.967694  0.618856  0.207381
0.293455  0.332986  0.275532
0.333479  0.365423  0.261197
0.377171  0.404790  0.265606
0.411773  0.423018  0.244881
0.452369  0.466898  0.230327
0.486630  0.496634  0.233848
0.521196  0.520647  0.241441
0.567017  0.559655  0.223707
0.614355  0.586599  0.215953
0.668431  0.605431  0.210754
0.732695  0.623737  0.210913
0.788309  0.644791  0.210192
0.837034  0.648106  0.200599
