LUT/LUT_7.CUBE
TITLE "LUT_7" 
#LUT size 
LUT_3D_SIZE 5 
#data point 
DOMAIN_MIN 0.000000 0.000000 0.000000
DOMAIN_MAX 0.857143 0.857143 0.857143
0.029286  0.030552  0.015531
0.151361  0.123181  0.038073
0.363063  0.179174  0.017012
0.550884  0.216031  0.013028
0.760137  0.237625  0.005206
0.115686  0.112501  0.050220
0.230403  0.185160  0.052902
0.403391  0.251337  0.039800
0.585045  0.312739  0.033471
0.781691  0.354982  0.030199
0.232036  0.210189  0.071805
0.336017  0.307414  0.052403
0.451101  0.385882  0.052394
0.621803  0.452289  0.045343
0.817800  0.469159  0.044189
0.335392  0.338902  0.071988
0.435314  0.426848  0.054267
0.543835  0.519083  0.051627
0.672094  0.599853  0.042447
0.839971  0.649917  0.051722
0.415426  0.451247  0.064513
0.527168  0.539322  0.053080
0.633259  0.621562  0.055756
0.758164  0.697455  0.056107
0.900741  0.770163  0.058533
0.078288  0.104944  0.102045
0.159375  0.163519  0.124417
0.355717  0.217613  0.084308
0.541148  0.247584  0.073826
0.740971  0.271865  0.068954
0.124525  0.173720  0.182817
0.197285  0.229451  0.210051
0.393967  0.310705  0.170804
0.580076  0.362418  0.135724
0.772616  0.402872  0.122305
0.191598  0.251458  0.250450
0.304308  0.318367  0.243589
0.441939  0.396210  0.212745
0.612441  0.450591  0.192847
0.800023  0.499684  0.183096
0.293455  0.332986  0.275532
0.411773  0.423018  0.244881
0.521196  0.520647  0.241441
0.668431  0.605431  0.210754
0.837034  0.648106  0.200599
0.389438  0.448574  0.275730
0.511347  0.540553  0.243415
0.617774  0.630938  0.244072
0.753979  0.714442  0.224303
0.905682  0.786280  0.205045
0.109425  0.176686  0.207691
0.167390  0.230511  0.246919
0.331408  0.294675  0.234317
0.548689  0.306570  0.207257
0.750655  0.304209  0.208751
0.162649  0.248324  0.285827
0.223227  0.300189  0.331343
0.357764  0.376514  0.332537
0.554075  0.430164  0.295339
0.761138  0.462943  0.267378
0.215826  0.322066  0.373722
0.276833  0.388783  0.428861
0.416625  0.441901  0.408468
0.592890  0.518736  0.380892
0.792896  0.563762  0.341948
0.278884  0.395147  0.449629
0.364918  0.456810  0.480788
0.507197  0.536729  0.452883
0.650068  0.623883  0.449124
0.836270  0.675646  0.423375
0.337714  0.456973  0.502823
0.475931  0.540694  0.484572
0.599222  0.626052  0.460202
0.732734  0.715817  0.446160
0.893132  0.802706  0.444102
0.084203  0.250973  0.378963
0.196270  0.312084  0.375979
0.337490  0.354202  0.376878
0.536626  0.348845  0.369558
0.770119  0.344892  0.366352
0.182979  0.337988  0.426505
0.268193  0.390469  0.450353
0.354940  0.450127  0.468652
0.535052  0.506505  0.444634
0.752747  0.522892  0.410549
0.250692  0.407838  0.484852
0.334679  0.466231  0.523874
0.406734  0.527721  0.563654
0.562271  0.590487  0.535039
0.762867  0.648102  0.505928
0.321270  0.480815  0.550739
0.396120  0.540466  0.597072
0.477471  0.602934  0.645030
0.632251  0.677803  0.624278
0.803707  0.741549  0.592286
0.370748  0.544051  0.625082
0.451942  0.597771  0.659715
0.548801  0.668287  0.696109
0.721076  0.746808  0.669890
0.878245  0.814155  0.667466
0.062934  0.268116  0.592792
0.182109  0.345010  0.594452
0.305958  0.395751  0.607758
0.545760  0.385475  0.543129
0.754181  0.367931  0.548432
0.125631  0.400220  0.607072
0.266198  0.479257  0.608384
0.360909  0.547264  0.628887
0.539087  0.565219  0.584344
0.742439  0.576655  0.583135
0.242131  0.478744  0.627394
0.364660  0.550340  0.641720
0.448885  0.626091  0.692065
0.562344  0.679323  0.694946
0.761314  0.721242  0.643588
0.309520  0.538564  0.678662
0.438761  0.616318  0.698589
0.508213  0.679934  0.757106
0.613897  0.751800  0.812266
0.787180  0.799654  0.751016
0.386068  0.603414  0.737571
0.486235  0.670180  0.765559
0.586209  0.742793  0.829592
0.683953  0.809503  0.867085
0.832922  0.881059  0.870527
