LUT/LUT_21.CUBE
TITLE "LUT_21" 
#LUT size 
LUT_3D_SIZE 5 
#data point 
DOMAIN_MIN 0.000000 0.000000 0.000000
DOMAIN_MAX 0.857143 0.857143 0.857143
0.058747  0.057819  0.028226
0.131849  0.122928  0.064635
0.317434  0.236117  0.055826
0.472995  0.318412  0.050551
0.649637  0.385224  0.042550
0.116901  0.109506  0.059742
0.213998  0.181829  0.084976
0.378219  0.286418  0.066052
0.528946  0.366327  0.057386
0.696474  0.446397  0.047225
0.223650  0.195618  0.086776
0.345636  0.281577  0.099166
0.454496  0.351015  0.076164
0.624259  0.472254  0.067767
0.757673  0.530259  0.059733
0.364403  0.302738  0.099181
0.459344  0.375500  0.083478
0.571614  0.471902  0.075656
0.693607  0.572861  0.072108
0.826615  0.662612  0.084712
0.461758  0.384363  0.079999
0.569306  0.479567  0.064698
0.683814  0.583029  0.073917
0.781179  0.662166  0.079318
0.907535  0.750712  0.086030
0.115183  0.117183  0.073927
0.156374  0.161176  0.117107
0.334711  0.258026  0.090120
0.482546  0.337806  0.071121
0.637032  0.404150  0.060672
0.145176  0.177570  0.156812
0.203040  0.225558  0.191935
0.375339  0.318066  0.164011
0.548880  0.416024  0.116805
0.713683  0.488510  0.106747
0.215477  0.259458  0.246387
0.295746  0.305094  0.255131
0.442578  0.391028  0.213174
0.586619  0.459576  0.176018
0.749925  0.555510  0.170415
0.286791  0.320693  0.296917
0.418611  0.385571  0.261947
0.545020  0.471555  0.251116
0.675265  0.566453  0.197347
0.817421  0.658734  0.189129
0.409928  0.395950  0.283457
0.539698  0.479092  0.251275
0.651562  0.571276  0.245200
0.792672  0.667277  0.198918
0.923329  0.755535  0.187700
0.158106  0.192337  0.179186
0.186296  0.231105  0.223338
0.294680  0.302945  0.236433
0.498980  0.383022  0.165591
0.659308  0.456870  0.146767
0.204159  0.262083  0.256914
0.248970  0.307429  0.302333
0.355056  0.374591  0.337051
0.516484  0.447519  0.277081
0.709028  0.541882  0.228920
0.249289  0.326583  0.349093
0.301357  0.389753  0.417401
0.398362  0.438334  0.407148
0.572685  0.528281  0.380218
0.746056  0.611855  0.330517
0.308669  0.399678  0.421206
0.374886  0.458481  0.470421
0.498270  0.523944  0.465060
0.639044  0.604832  0.468462
0.821347  0.691799  0.405917
0.361662  0.468341  0.501430
0.493834  0.528696  0.492954
0.604886  0.595933  0.490345
0.746713  0.690488  0.469576
0.901679  0.769857  0.458060
0.199333  0.264290  0.279273
0.244858  0.323874  0.340437
0.329208  0.372937  0.349451
0.477100  0.439320  0.312920
0.675698  0.513205  0.261171
0.258401  0.344252  0.370815
0.300861  0.401387  0.426960
0.361410  0.449357  0.460696
0.508584  0.513592  0.443300
0.702614  0.593922  0.377920
0.312681  0.411322  0.445715
0.358402  0.466552  0.509292
0.400691  0.515528  0.553077
0.554360  0.592842  0.532544
0.731204  0.676159  0.496725
0.364747  0.481815  0.528021
0.411536  0.539003  0.577992
0.480064  0.603883  0.637074
0.640874  0.681774  0.634356
0.778221  0.741820  0.603240
0.423269  0.540106  0.581844
0.477192  0.604949  0.641670
0.554298  0.679160  0.703240
0.716877  0.747797  0.690714
0.862821  0.811970  0.677839
0.267018  0.356090  0.392235
0.311331  0.408689  0.443016
0.355349  0.469075  0.501285
0.476020  0.510486  0.470731
0.645240  0.584358  0.410455
0.309047  0.420559  0.457797
0.365072  0.481487  0.521251
0.426968  0.548104  0.587639
0.517144  0.586060  0.570339
0.681910  0.670311  0.547257
0.373401  0.487908  0.532409
0.427857  0.555690  0.599081
0.494973  0.623350  0.657577
0.561213  0.679536  0.701148
0.751459  0.747497  0.653715
0.424433  0.544630  0.586880
0.497412  0.623354  0.662928
0.543020  0.680233  0.721404
0.626788  0.756021  0.803127
0.768019  0.803814  0.762947
0.486537  0.621766  0.663125
0.543098  0.685962  0.724386
0.620091  0.757333  0.810034
0.692156  0.816824  0.866044
0.832692  0.890093  0.893987
