LUT/LUT_21.CUBE
TITLE "LUT_21" 
#LUT size 
LUT_3D_SIZE 8 
DOMAIN_MIN 0.0 0.0 0.0 
DOMAIN_MAX 1.0 1.0 1.0 
#data point 
0.058747  0.057819  0.028226
0.094543  0.092640  0.047897
0.185199  0.163583  0.067056
0.317434  0.236117  0.055826
0.427676  0.295089  0.050912
0.538402  0.335058  0.045232
0.649637  0.385224  0.042550
0.779577  0.436539  0.048132
0.103440  0.094385  0.050578
0.133511  0.119607  0.056256
0.241410  0.200653  0.072387
0.363754  0.271606  0.073115
0.461071  0.321661  0.063367
0.562791  0.368485  0.060083
0.686454  0.434736  0.057905
0.811641  0.479938  0.055879
0.146273  0.133831  0.073440
0.217308  0.186022  0.086406
0.295410  0.234848  0.077521
0.402200  0.307696  0.074040
0.517375  0.363558  0.065394
0.606516  0.426553  0.063882
0.724148  0.471880  0.055999
0.846866  0.519780  0.054319
0.223650  0.195618  0.086776
0.309541  0.254143  0.095040
0.383133  0.299247  0.080094
0.454496  0.351015  0.076164
0.550433  0.415025  0.071305
0.663309  0.487252  0.065810
0.757673  0.530259  0.059733
0.888131  0.578290  0.061303
0.303193  0.251725  0.103788
0.387929  0.307321  0.071483
0.470012  0.376897  0.084209
0.527679  0.427275  0.072943
0.607029  0.501934  0.072398
0.692982  0.562886  0.072388
0.817082  0.617438  0.073404
0.932352  0.662948  0.066124
0.381019  0.315055  0.097770
0.456376  0.392385  0.086168
0.549846  0.447352  0.079255
0.604252  0.504999  0.088539
0.703432  0.586045  0.070836
0.773879  0.651720  0.070328
0.865446  0.702616  0.074925
0.958103  0.742812  0.080377
0.461758  0.384363  0.079999
0.535126  0.441478  0.071942
0.609957  0.515821  0.085126
0.683814  0.583029  0.073917
0.758693  0.633213  0.073228
0.829133  0.683909  0.074037
0.907535  0.750712  0.086030
1.023913  0.799498  0.085844
0.539118  0.455063  0.080638
0.601299  0.512658  0.084496
0.682860  0.572207  0.075090
0.739724  0.626069  0.079582
0.808995  0.681282  0.071350
0.887315  0.728471  0.081775
0.971056  0.783958  0.087826
1.072519  0.849041  0.080065
0.092325  0.083817  0.038634
0.116999  0.108537  0.059310
0.193065  0.168175  0.081465
0.306898  0.242375  0.063589
0.430665  0.301492  0.056951
0.530229  0.347229  0.051204
0.643416  0.398091  0.048935
0.780769  0.435630  0.043390
0.123677  0.127390  0.076893
0.155172  0.155354  0.103554
0.228462  0.206058  0.112127
0.343570  0.281026  0.090932
0.465822  0.333241  0.079529
0.564434  0.392686  0.067301
0.693613  0.438430  0.057040
0.801704  0.484337  0.053906
0.150679  0.175986  0.142011
0.204555  0.211966  0.149341
0.291345  0.258131  0.144962
0.391269  0.316786  0.137444
0.497764  0.383233  0.117113
0.609774  0.436023  0.104715
0.723174  0.484655  0.077267
0.840787  0.544619  0.065734
0.206953  0.224560  0.183397
0.277607  0.267116  0.185564
0.353498  0.317495  0.170620
0.457955  0.374297  0.154596
0.540931  0.428358  0.134699
0.645928  0.493552  0.127667
0.762303  0.538484  0.122548
0.880138  0.588435  0.090129
0.278211  0.278166  0.202962
0.355352  0.313037  0.187208
0.428684  0.384781  0.192286
0.536175  0.444666  0.162952
0.628231  0.509826  0.119791
0.719019  0.564635  0.121385
0.810345  0.619123  0.129250
0.930940  0.666871  0.113007
0.364078  0.332960  0.198638
0.429294  0.384331  0.207139
0.516919  0.441842  0.159882
0.590676  0.507645  0.160043
0.680540  0.580679  0.119142
0.761896  0.631398  0.129994
0.860596  0.711705  0.130655
0.982344  0.759576  0.128801
0.440859  0.381197  0.197938
0.513581  0.441593  0.173034
0.585681  0.498952  0.179990
0.670875  0.564174  0.139997
0.750759  0.633180  0.139953
0.815049  0.687065  0.136326
0.912880  0.750007  0.128044
1.007184  0.792305  0.123449
0.503514  0.444591  0.207437
0.589543  0.515244  0.169105
0.679587  0.563213  0.152211
0.745950  0.631935  0.132750
0.800246  0.681937  0.136701
0.899105  0.745127  0.124694
0.963941  0.794311  0.144905
1.071605  0.847461  0.136421
0.124262  0.143067  0.115120
0.147709  0.161795  0.125308
0.192477  0.201276  0.140021
0.320608  0.268782  0.118392
0.439983  0.316158  0.087612
0.540915  0.373432  0.088996
0.661952  0.425546  0.081648
0.768142  0.461043  0.073523
0.154615  0.183182  0.165277
0.184316  0.216937  0.200840
0.234341  0.255970  0.218888
0.339296  0.305167  0.177334
0.474411  0.371401  0.143333
0.559608  0.408042  0.137585
0.674093  0.469613  0.115571
0.805617  0.523488  0.107036
0.198120  0.242884  0.232107
0.212335  0.271942  0.270774
0.246192  0.276190  0.253462
0.377580  0.364607  0.251914
0.499828  0.406118  0.225518
0.606837  0.460922  0.163019
0.726502  0.522928  0.156507
0.836906  0.571793  0.151020
0.210217  0.272467  0.286303
0.258005  0.321344  0.321062
0.317470  0.345881  0.313966
0.414649  0.405670  0.322835
0.532197  0.459225  0.263517
0.640848  0.502112  0.225121
0.758878  0.566686  0.213552
0.865545  0.621650  0.199191
0.255195  0.317148  0.321984
0.338361  0.366695  0.337233
0.401117  0.406058  0.324722
0.491411  0.457695  0.332989
0.581481  0.507938  0.300741
0.700537  0.573999  0.291047
0.819404  0.644454  0.247749
0.928717  0.686725  0.253113
0.320728  0.374053  0.362542
0.395453  0.416636  0.360143
0.476248  0.458216  0.337538
0.571477  0.515344  0.323692
0.663875  0.589675  0.317372
0.760027  0.641798  0.283155
0.867296  0.708645  0.264216
0.969420  0.753539  0.262944
0.375709  0.404119  0.359428
0.460681  0.461200  0.358511
0.560243  0.519806  0.333986
0.634543  0.571759  0.333403
0.729511  0.637976  0.319857
0.812744  0.699123  0.311254
0.916863  0.744108  0.261064
1.021422  0.804016  0.250722
0.448032  0.449122  0.365521
0.563568  0.517914  0.351285
0.633536  0.576842  0.330894
0.711873  0.627640  0.320036
0.782856  0.678215  0.313801
0.891293  0.741844  0.278714
0.969583  0.789262  0.284642
1.072060  0.850238  0.261580
0.158106  0.192337  0.179186
0.174928  0.219062  0.207321
0.215324  0.250907  0.242280
0.294680  0.302945  0.236433
0.446170  0.358523  0.175213
0.548237  0.410607  0.154785
0.659308  0.456870  0.146767
0.772886  0.502622  0.138467
0.177645  0.218584  0.221027
0.213993  0.268572  0.265002
0.256865  0.308970  0.294132
0.338157  0.354713  0.299230
0.464064  0.405738  0.229044
0.573983  0.449552  0.221567
0.683557  0.496019  0.182103
0.803594  0.559569  0.191200
0.221907  0.277136  0.280540
0.252146  0.319100  0.322678
0.281438  0.361805  0.368257
0.392113  0.416296  0.367691
0.470915  0.457389  0.360707
0.611997  0.500992  0.280014
0.722129  0.567588  0.269204
0.846151  0.609484  0.259482
0.249289  0.326583  0.349093
0.288786  0.371500  0.388322
0.308484  0.400451  0.422680
0.398362  0.438334  0.407148
0.503871  0.496475  0.396244
0.643327  0.559506  0.347388
0.746056  0.611855  0.330517
0.878847  0.660702  0.304007
0.291225  0.381127  0.408404
0.337034  0.427142  0.449264
0.371611  0.449023  0.455911
0.476517  0.499453  0.449167
0.551359  0.564873  0.479242
0.662139  0.597352  0.409054
0.791376  0.661257  0.391136
0.913805  0.737131  0.364818
0.324073  0.426452  0.455680
0.366249  0.454009  0.469286
0.452015  0.495595  0.457191
0.523225  0.546857  0.481184
0.613558  0.604360  0.480793
0.722618  0.667446  0.485086
0.855879  0.731190  0.436610
0.940827  0.771022  0.423315
0.361662  0.468341  0.501430
0.432261  0.506935  0.496758
0.520706  0.536752  0.476955
0.604886  0.595933  0.490345
0.698893  0.648633  0.487073
0.797809  0.712732  0.451093
0.901679  0.769857  0.458060
1.013380  0.827540  0.463609
0.399370  0.497900  0.520344
0.497237  0.534725  0.488158
0.576639  0.585208  0.504328
0.672687  0.647318  0.486110
0.795748  0.715536  0.466180
0.863640  0.755455  0.451351
0.964390  0.806250  0.486861
1.064109  0.855726  0.469542
0.176015  0.228578  0.236884
0.211641  0.278964  0.290787
0.241708  0.308078  0.313690
0.315757  0.346847  0.308846
0.421863  0.398087  0.293520
0.556412  0.457560  0.248112
0.680672  0.511545  0.227020
0.792312  0.532026  0.191480
0.214115  0.286592  0.298013
0.244370  0.319609  0.333164
0.268375  0.351904  0.371927
0.339890  0.407843  0.403379
0.431978  0.444053  0.376294
0.560525  0.488427  0.331700
0.681299  0.542124  0.277430
0.798351  0.593164  0.262616
0.261972  0.344748  0.359294
0.285774  0.370843  0.395508
0.310574  0.405981  0.424990
0.380616  0.462597  0.463000
0.471994  0.501924  0.442411
0.578770  0.542678  0.418744
0.718029  0.604287  0.365528
0.837290  0.647465  0.340122
0.288638  0.378768  0.403849
0.323852  0.418432  0.443399
0.351598  0.458011  0.493072
0.380428  0.490472  0.523773
0.508668  0.544026  0.497626
0.613500  0.600790  0.488474
0.740985  0.655534  0.446436
0.860187  0.697981  0.400619
0.327233  0.426540  0.456729
0.361974  0.471832  0.511312
0.400035  0.507426  0.545265
0.449880  0.561172  0.586623
0.544957  0.596015  0.564484
0.653119  0.655168  0.565030
0.785433  0.705755  0.509896
0.910323  0.769940  0.477361
0.354753  0.472368  0.510363
0.394049  0.503481  0.539842
0.437180  0.561450  0.589458
0.486408  0.600003  0.620810
0.595425  0.635818  0.586646
0.702800  0.704324  0.619112
0.820939  0.757766  0.594746
0.947816  0.808579  0.550987
0.394784  0.518689  0.552044
0.430576  0.551018  0.592737
0.478632  0.601874  0.633774
0.566998  0.636416  0.619698
0.681198  0.690326  0.600857
0.768291  0.750832  0.636749
0.887369  0.799695  0.608303
1.004773  0.852948  0.589035
0.442166  0.567115  0.603482
0.472560  0.597826  0.635725
0.546348  0.634661  0.631052
0.652836  0.683257  0.626628
0.746117  0.730239  0.622448
0.843124  0.774552  0.616603
0.949525  0.835225  0.620462
1.052930  0.879865  0.608363
0.228243  0.302392  0.322152
0.240984  0.324607  0.346942
0.278483  0.366891  0.399560
0.315427  0.394887  0.397808
0.427618  0.441128  0.377149
0.525057  0.493177  0.365262
0.659249  0.527122  0.312195
0.795737  0.581877  0.286782
0.260197  0.342638  0.370262
0.282501  0.377777  0.408272
0.311138  0.413769  0.443653
0.357786  0.445339  0.466653
0.463493  0.498930  0.463471
0.553395  0.546710  0.453997
0.684593  0.598921  0.405595
0.817708  0.635350  0.365848
0.296331  0.393635  0.425886
0.328021  0.434841  0.464096
0.370660  0.478319  0.509112
0.399839  0.503805  0.527480
0.460113  0.539990  0.535671
0.598475  0.607337  0.531576
0.703099  0.645217  0.475465
0.840302  0.701222  0.447658
0.318674  0.430631  0.472355
0.365890  0.473328  0.506252
0.410121  0.527894  0.562268
0.433926  0.554712  0.587338
0.485116  0.598821  0.621061
0.618198  0.638176  0.571120
0.735355  0.690612  0.544864
0.858541  0.760815  0.543096
0.369506  0.485193  0.520881
0.395897  0.524701  0.564786
0.440062  0.564828  0.600879
0.474157  0.600303  0.638916
0.533691  0.655656  0.678025
0.637274  0.688089  0.646641
0.757806  0.737982  0.623152
0.907954  0.807247  0.601543
0.403509  0.525815  0.562494
0.437529  0.562370  0.601254
0.481843  0.608419  0.647679
0.515748  0.642318  0.680022
0.583927  0.701657  0.732196
0.693937  0.745277  0.722387
0.819689  0.799911  0.695814
0.941335  0.842331  0.664330
0.445728  0.572963  0.613589
0.487941  0.613942  0.648314
0.543367  0.664657  0.695470
0.563593  0.691596  0.720710
0.631916  0.742071  0.755197
0.734624  0.777664  0.748995
0.874756  0.837205  0.731705
0.981810  0.874303  0.707544
0.487397  0.614866  0.648503
0.515898  0.646531  0.684450
0.558351  0.696699  0.743830
0.606278  0.726447  0.760057
0.700988  0.780647  0.777861
0.829093  0.822549  0.742751
0.917876  0.864048  0.745508
1.024420  0.909088  0.737543
0.267018  0.356090  0.392235
0.296018  0.391009  0.423734
0.325099  0.428488  0.459070
0.355349  0.469075  0.501285
0.418584  0.488515  0.482485
0.524808  0.532347  0.476181
0.645240  0.584358  0.410455
0.780258  0.632040  0.377614
0.310005  0.408052  0.446694
0.326073  0.436302  0.475344
0.359422  0.468827  0.513767
0.402007  0.520029  0.562834
0.442513  0.549245  0.572741
0.559002  0.582930  0.513202
0.669571  0.638734  0.511974
0.812081  0.688417  0.458789
0.334836  0.444463  0.485150
0.370731  0.488057  0.527533
0.406924  0.524536  0.559684
0.438577  0.562176  0.604248
0.482909  0.609077  0.639952
0.595190  0.648289  0.606783
0.704057  0.692673  0.596533
0.819441  0.742449  0.562840
0.373401  0.487908  0.532409
0.396367  0.513558  0.552746
0.452649  0.573493  0.609831
0.494973  0.623350  0.657577
0.537957  0.662707  0.695481
0.599884  0.689995  0.690644
0.751459  0.747497  0.653715
0.867222  0.797842  0.634887
0.404829  0.527022  0.566452
0.450918  0.579115  0.615321
0.483210  0.613641  0.650049
0.532858  0.670641  0.709728
0.571876  0.713864  0.764970
0.640198  0.738815  0.751825
0.776246  0.775781  0.700678
0.903661  0.834007  0.701029
0.441988  0.570482  0.614802
0.488454  0.614608  0.653003
0.532696  0.668752  0.706053
0.582435  0.722853  0.770553
0.618139  0.754360  0.809546
0.677584  0.799699  0.848252
0.794010  0.836887  0.812711
0.936497  0.873856  0.752779
0.486537  0.621766  0.663125
0.521403  0.656764  0.693008
0.559479  0.697512  0.744683
0.620091  0.757333  0.810034
0.669062  0.790261  0.838190
0.733595  0.838637  0.886377
0.832692  0.890093  0.893987
0.970423  0.907730  0.807824
0.523587  0.663525  0.701212
0.557469  0.699722  0.745916
0.595676  0.739310  0.798346
0.655694  0.787379  0.848382
0.709213  0.825414  0.876443
0.784778  0.879043  0.913144
0.873700  0.922487  0.927205
1.005652  0.949092  0.867573
0.305401  0.417627  0.463430
0.325792  0.442418  0.489121
0.366064  0.489890  0.533215
0.404145  0.523819  0.566263
0.441062  0.573943  0.615723
0.520970  0.594894  0.579278
0.651703  0.636563  0.532437
0.796398  0.690587  0.491518
0.336162  0.446516  0.502624
0.369150  0.490887  0.536813
0.413207  0.541310  0.580182
0.448159  0.577119  0.614403
0.491631  0.620545  0.660113
0.544586  0.655003  0.677287
0.656914  0.689539  0.630747
0.804311  0.736855  0.574204
0.370806  0.493393  0.538527
0.410221  0.534389  0.579083
0.449685  0.578795  0.622700
0.504643  0.638130  0.671940
0.539012  0.678517  0.729999
0.594007  0.721397  0.761239
0.703613  0.736875  0.689782
0.843190  0.791423  0.655186
0.415822  0.539548  0.578980
0.441054  0.574305  0.616282
0.495256  0.629458  0.666121
0.546088  0.685264  0.729759
0.571716  0.715914  0.774639
0.622441  0.755467  0.797015
0.703958  0.797424  0.815706
0.854428  0.824104  0.730687
0.438593  0.569648  0.613667
0.488669  0.623199  0.660110
0.528975  0.665640  0.707070
0.565028  0.709323  0.769995
0.608869  0.748061  0.806110
0.670826  0.795093  0.843204
0.748843  0.851441  0.899420
0.876282  0.880242  0.831188
0.477913  0.602831  0.645722
0.519781  0.652701  0.692559
0.562133  0.708787  0.757367
0.607021  0.741815  0.802928
0.642736  0.779376  0.839625
0.723903  0.839713  0.882411
0.801211  0.891569  0.921008
0.879165  0.923438  0.925243
0.526530  0.662041  0.700548
0.556591  0.708566  0.755694
0.586451  0.736550  0.801038
0.641745  0.775896  0.824670
0.695806  0.818459  0.867579
0.774534  0.873726  0.912296
0.839280  0.921226  0.944584
0.928894  0.959191  0.975588
0.555027  0.697207  0.744292
0.574073  0.721596  0.791159
0.629559  0.765137  0.833544
0.691719  0.814401  0.865927
0.749139  0.852355  0.897920
0.829415  0.908263  0.931770
0.892045  0.946242  0.966818
0.967337  0.983303  0.994550
