LUT/LUT_26.CUBE
TITLE "LUT_26" 
#LUT size 
LUT_3D_SIZE 5 
#data point 
DOMAIN_MIN 0.000000 0.000000 0.000000
DOMAIN_MAX 0.857143 0.857143 0.857143
0.071317  0.065470  0.031378
0.123583  0.118921  0.066305
0.311126  0.236805  0.057683
0.463514  0.333253  0.065103
0.633210  0.403657  0.053783
0.113698  0.111882  0.057932
0.207710  0.182083  0.085263
0.376780  0.283280  0.068504
0.512717  0.374734  0.060265
0.680529  0.461157  0.054367
0.228124  0.188973  0.086078
0.346925  0.281066  0.097187
0.450822  0.352009  0.077056
0.620739  0.477757  0.074079
0.750519  0.535727  0.072648
0.369653  0.299549  0.107833
0.461081  0.369301  0.093791
0.579554  0.467139  0.078429
0.700035  0.578660  0.075035
0.824695  0.662768  0.081997
0.466467  0.378457  0.090718
0.582952  0.470583  0.074208
0.695069  0.573662  0.072954
0.785130  0.656594  0.079062
0.911462  0.739763  0.085684
0.118506  0.117407  0.072292
0.157682  0.165908  0.121744
0.320209  0.260304  0.093184
0.474916  0.342778  0.080580
0.618053  0.422709  0.069970
0.152156  0.176503  0.152813
0.202479  0.226555  0.191280
0.365560  0.320129  0.158548
0.542520  0.417815  0.113847
0.696939  0.500019  0.098143
0.217326  0.259349  0.246240
0.291265  0.312430  0.259719
0.429892  0.386275  0.210361
0.580951  0.456285  0.163131
0.741638  0.565859  0.165245
0.284247  0.326054  0.299725
0.416892  0.383757  0.262348
0.537535  0.465746  0.248860
0.676285  0.564725  0.203122
0.811148  0.655391  0.194070
0.410102  0.393525  0.285361
0.542512  0.471673  0.251092
0.653275  0.559988  0.246193
0.799732  0.655713  0.193585
0.927075  0.744554  0.191439
0.160210  0.194212  0.173537
0.185782  0.229317  0.222198
0.295508  0.302517  0.244697
0.491933  0.391071  0.165456
0.652326  0.468678  0.139015
0.207248  0.259987  0.257742
0.253494  0.310604  0.303705
0.356579  0.374759  0.329712
0.509678  0.451560  0.270609
0.699611  0.549551  0.224527
0.255174  0.325873  0.341575
0.301055  0.391468  0.415817
0.390808  0.439429  0.404991
0.571627  0.529968  0.385810
0.743723  0.613933  0.323117
0.311580  0.398995  0.419983
0.377811  0.464036  0.467518
0.494770  0.519864  0.464956
0.634921  0.603034  0.472706
0.826710  0.692805  0.405735
0.357730  0.460958  0.496051
0.487264  0.534640  0.494391
0.593628  0.590357  0.492071
0.743487  0.681989  0.479006
0.904226  0.772812  0.452934
0.207357  0.266273  0.273787
0.247489  0.326381  0.339145
0.327892  0.374824  0.344166
0.470709  0.437276  0.312077
0.662975  0.524448  0.258889
0.262842  0.347104  0.370928
0.307681  0.401716  0.422637
0.361861  0.445888  0.455376
0.500685  0.510765  0.447958
0.698918  0.600610  0.376698
0.314463  0.409705  0.437740
0.369118  0.473096  0.504294
0.406907  0.522935  0.551852
0.550441  0.589805  0.541994
0.727765  0.677383  0.504732
0.367695  0.482147  0.521630
0.414518  0.534067  0.577650
0.488159  0.605251  0.639775
0.635988  0.682967  0.628982
0.777041  0.744546  0.612565
0.426736  0.541804  0.581326
0.478904  0.607556  0.644308
0.554633  0.670577  0.702124
0.709501  0.741821  0.691492
0.856682  0.812917  0.674120
0.275597  0.372230  0.393432
0.314171  0.416902  0.443365
0.364845  0.469112  0.505701
0.463783  0.512966  0.474112
0.634508  0.575714  0.403594
0.320456  0.421163  0.450185
0.371293  0.479231  0.507928
0.431673  0.556138  0.588208
0.516513  0.582938  0.569417
0.673615  0.661419  0.553917
0.374271  0.485867  0.524230
0.434796  0.557592  0.594417
0.495511  0.621260  0.656435
0.563619  0.678120  0.700051
0.747882  0.744125  0.648897
0.426456  0.545035  0.584109
0.502163  0.630115  0.662034
0.545594  0.676492  0.712732
0.629707  0.757328  0.805015
0.761828  0.798697  0.765590
0.488483  0.623082  0.659866
0.555864  0.682832  0.721772
0.624000  0.758452  0.812565
0.702415  0.814724  0.863713
0.831287  0.891527  0.900067
