LUT/LUT_3.CUBE
TITLE "LUT_3" 
#LUT size 
LUT_3D_SIZE 8 
DOMAIN_MIN 0.0 0.0 0.0 
DOMAIN_MAX 1.0 1.0 1.0 
#data point 
0.017568  0.017534  0.005198
0.100582  0.071777  0.016759
0.252846  0.101688  0.008028
0.390348  0.113763  -0.001356
0.524474  0.111333  -0.008638
0.664004  0.119929  -0.010542
0.811338  0.122186  -0.013804
0.952760  0.120560  -0.017993
0.077092  0.078140  0.041605
0.149602  0.118770  0.038920
0.272938  0.169079  0.026939
0.406990  0.188941  0.017811
0.539149  0.210990  0.016161
0.669007  0.219072  0.005712
0.814300  0.237001  0.000772
0.952539  0.245374  -0.003150
0.137683  0.156879  0.049251
0.213829  0.218975  0.048300
0.298344  0.270456  0.032795
0.419991  0.292391  0.031722
0.559721  0.307928  0.034008
0.684957  0.327224  0.026269
0.825634  0.335493  0.019639
0.963290  0.348329  0.014929
0.191170  0.254474  0.054134
0.274458  0.313057  0.041404
0.348173  0.364861  0.036908
0.442617  0.405604  0.034869
0.569329  0.423737  0.035019
0.697998  0.443178  0.032604
0.843285  0.448089  0.035701
0.980016  0.460647  0.032457
0.240144  0.355938  0.057619
0.324196  0.400195  0.042876
0.407660  0.455397  0.035513
0.486242  0.516144  0.037389
0.586686  0.546522  0.033609
0.705403  0.574801  0.026661
0.852533  0.575970  0.033980
0.985702  0.585617  0.043850
0.254717  0.474121  0.046889
0.373062  0.498374  0.041628
0.467669  0.543651  0.038213
0.544046  0.596621  0.040168
0.633624  0.649719  0.029885
0.737476  0.683092  0.030541
0.851364  0.711218  0.030695
0.988982  0.719701  0.040978
0.274216  0.595991  0.044308
0.396540  0.607130  0.036197
0.499335  0.638910  0.033802
0.592105  0.673662  0.034303
0.683689  0.725399  0.035245
0.780349  0.769626  0.035436
0.881098  0.808335  0.037673
1.010291  0.840595  0.034025
0.289059  0.713228  0.029260
0.408858  0.725960  0.025154
0.529841  0.746448  0.025725
0.632585  0.771226  0.031494
0.725091  0.816269  0.034734
0.816394  0.855708  0.032718
0.927121  0.892913  0.036636
1.041035  0.927109  0.036958
0.039119  0.072522  0.078285
0.103369  0.106835  0.076809
0.246247  0.115888  0.063518
0.384179  0.121955  0.074012
0.527221  0.120273  0.079327
0.663997  0.115262  0.075980
0.805641  0.121741  0.079439
0.952076  0.119645  0.072809
0.075344  0.115577  0.135899
0.134313  0.159989  0.132644
0.253609  0.201358  0.108907
0.398858  0.222309  0.093612
0.528203  0.247190  0.090948
0.670140  0.254769  0.083601
0.810358  0.258307  0.079627
0.951014  0.255263  0.077637
0.130835  0.166264  0.176035
0.203431  0.230364  0.159922
0.294818  0.272790  0.140775
0.413985  0.303301  0.136283
0.542517  0.332536  0.121887
0.677527  0.354137  0.118060
0.823004  0.363321  0.110790
0.962366  0.372405  0.101624
0.180530  0.260091  0.178876
0.258896  0.315605  0.168993
0.336600  0.372075  0.145193
0.442011  0.412616  0.144011
0.561057  0.431913  0.134463
0.701495  0.447020  0.140391
0.837637  0.464353  0.132214
0.964161  0.477469  0.114209
0.236260  0.359595  0.177539
0.308376  0.402913  0.169238
0.396013  0.461490  0.164135
0.482440  0.521257  0.148312
0.587735  0.553382  0.139063
0.711578  0.567093  0.140865
0.842511  0.584520  0.139289
0.982040  0.593917  0.136406
0.259493  0.460398  0.179316
0.367798  0.498081  0.169732
0.448081  0.543415  0.165635
0.533274  0.593018  0.161628
0.622287  0.644382  0.138876
0.731340  0.686548  0.145797
0.855857  0.714080  0.140212
0.998459  0.725095  0.137622
0.268573  0.585438  0.161247
0.397864  0.603476  0.155335
0.498399  0.630966  0.163343
0.591194  0.675277  0.157165
0.678601  0.723850  0.149536
0.778206  0.763820  0.143686
0.889742  0.810646  0.138596
1.005998  0.837698  0.134335
0.277466  0.698351  0.157851
0.415966  0.724725  0.153175
0.533325  0.733206  0.149575
0.624645  0.773350  0.147607
0.720257  0.815242  0.145625
0.818347  0.852774  0.145128
0.919120  0.890021  0.145246
1.040792  0.929067  0.146062
0.036255  0.109077  0.175687
0.105281  0.140208  0.187338
0.235928  0.141619  0.193561
0.386591  0.135722  0.188496
0.538771  0.134484  0.180385
0.666768  0.130224  0.194388
0.812622  0.126493  0.200731
0.953883  0.126914  0.204936
0.083026  0.165610  0.215965
0.134676  0.200382  0.233967
0.241278  0.244138  0.231146
0.384218  0.260286  0.209615
0.534944  0.262457  0.197996
0.666551  0.262018  0.211052
0.810221  0.267790  0.210586
0.945400  0.265074  0.214124
0.126218  0.220906  0.276160
0.182991  0.259185  0.286752
0.268951  0.299341  0.269539
0.396687  0.344524  0.255003
0.536639  0.371266  0.234954
0.673060  0.381179  0.224654
0.815514  0.391069  0.220889
0.948788  0.398380  0.219413
0.166121  0.268420  0.330235
0.249346  0.318939  0.311512
0.324633  0.371447  0.305120
0.427465  0.417601  0.294474
0.558970  0.439146  0.272545
0.694880  0.468705  0.263823
0.826271  0.487294  0.246330
0.963956  0.502109  0.246116
0.207405  0.351935  0.337701
0.303708  0.409409  0.312986
0.386255  0.464631  0.308828
0.469745  0.521892  0.298315
0.581521  0.556822  0.288392
0.704395  0.575412  0.279895
0.847800  0.588572  0.279265
0.981492  0.611084  0.265616
0.243537  0.456544  0.338299
0.352643  0.500747  0.318017
0.437264  0.551082  0.309918
0.522077  0.598100  0.294693
0.620987  0.653120  0.293276
0.726454  0.694702  0.284778
0.850795  0.714454  0.283615
0.992209  0.729151  0.289000
0.264314  0.563942  0.319106
0.388941  0.587000  0.312624
0.489569  0.631092  0.307410
0.579418  0.672452  0.297685
0.675332  0.729031  0.301970
0.770019  0.776260  0.295346
0.883938  0.811507  0.274745
1.003938  0.834675  0.279245
0.267373  0.702251  0.313784
0.406165  0.711110  0.299635
0.526393  0.730174  0.292327
0.619919  0.769257  0.292982
0.721160  0.804218  0.293901
0.820111  0.860404  0.293049
0.921389  0.891733  0.293672
1.036940  0.939031  0.285402
0.042452  0.134722  0.277955
0.114454  0.160171  0.290250
0.240616  0.167866  0.297025
0.390440  0.167046  0.306693
0.524552  0.151023  0.306151
0.672659  0.152411  0.300861
0.825086  0.148701  0.310725
0.954057  0.135202  0.333442
0.086909  0.215569  0.305909
0.147647  0.259553  0.317680
0.247001  0.284846  0.331981
0.378440  0.289758  0.328778
0.531630  0.280611  0.325733
0.660265  0.276482  0.336436
0.805716  0.262550  0.327003
0.949165  0.269027  0.344006
0.131542  0.270143  0.357646
0.194428  0.309385  0.361354
0.267301  0.354962  0.383846
0.389009  0.392104  0.362767
0.518933  0.405144  0.353873
0.673939  0.403845  0.337605
0.808935  0.410711  0.339300
0.958681  0.402428  0.352313
0.167334  0.320984  0.405290
0.234740  0.363198  0.430627
0.302855  0.402275  0.438330
0.421488  0.446572  0.413315
0.539676  0.484349  0.392953
0.682778  0.507034  0.369949
0.821222  0.522346  0.364383
0.954688  0.541971  0.360069
0.207917  0.372456  0.459513
0.283781  0.405321  0.467313
0.372980  0.461722  0.459975
0.462127  0.530701  0.435545
0.566386  0.560086  0.447696
0.703502  0.589573  0.423388
0.836569  0.612684  0.402922
0.969599  0.637102  0.396400
0.231114  0.452376  0.480356
0.332951  0.491621  0.472439
0.443517  0.546646  0.449390
0.512376  0.602632  0.448633
0.614617  0.652905  0.441831
0.720480  0.700215  0.437331
0.853293  0.717718  0.430587
0.986818  0.727159  0.424452
0.246392  0.560023  0.478722
0.370373  0.582044  0.467151
0.485514  0.626529  0.457201
0.577865  0.672897  0.442283
0.670738  0.728979  0.442158
0.766175  0.779591  0.433098
0.869340  0.821398  0.435561
1.010993  0.843273  0.437597
0.250810  0.685483  0.475238
0.396675  0.695772  0.458154
0.520381  0.728196  0.445981
0.624436  0.751142  0.445961
0.728158  0.802496  0.439079
0.817646  0.847418  0.433845
0.919112  0.893402  0.445376
1.032210  0.941755  0.431572
0.007792  0.130332  0.461149
0.124948  0.161545  0.444190
0.255767  0.178064  0.426699
0.388864  0.168994  0.433740
0.534226  0.163245  0.440550
0.674263  0.158743  0.433070
0.828429  0.164935  0.439255
0.970767  0.152051  0.428624
0.050260  0.239740  0.454134
0.163129  0.284588  0.431008
0.255998  0.311202  0.423557
0.381488  0.307854  0.443639
0.525929  0.303992  0.444660
0.673671  0.293441  0.451565
0.813145  0.289808  0.443550
0.961689  0.287816  0.447717
0.088166  0.325189  0.489255
0.202787  0.365623  0.444222
0.270103  0.402919  0.461017
0.388942  0.427283  0.467138
0.525641  0.431077  0.461819
0.669808  0.428333  0.467956
0.809350  0.423914  0.467696
0.959216  0.416488  0.467439
0.145356  0.373805  0.516575
0.253209  0.416062  0.496949
0.324029  0.457675  0.515383
0.395327  0.500346  0.519482
0.522459  0.532334  0.504533
0.665228  0.546329  0.500333
0.807990  0.560791  0.488543
0.956752  0.552422  0.477722
0.191421  0.423017  0.568582
0.294863  0.468258  0.543540
0.361088  0.511277  0.574511
0.435000  0.551827  0.585600
0.567387  0.592237  0.552956
0.679051  0.634310  0.537274
0.825667  0.654969  0.513411
0.963081  0.675126  0.501178
0.225532  0.472200  0.609596
0.339549  0.506793  0.596330
0.416034  0.555463  0.606443
0.497142  0.603919  0.602079
0.598213  0.659085  0.584462
0.714693  0.705953  0.586426
0.838964  0.738251  0.563568
0.974887  0.763595  0.539701
0.241786  0.562690  0.631764
0.361520  0.578289  0.627783
0.465926  0.616609  0.609708
0.565474  0.671722  0.598725
0.664279  0.733628  0.586695
0.761750  0.782527  0.590973
0.875906  0.825943  0.574643
1.005699  0.851350  0.580198
0.241783  0.688738  0.638279
0.380622  0.687553  0.630625
0.512830  0.716397  0.600524
0.618124  0.748973  0.597906
0.722594  0.806301  0.584227
0.813350  0.844823  0.579575
0.921293  0.902325  0.584502
1.032928  0.939946  0.583089
0.008284  0.132214  0.602036
0.110471  0.151204  0.606303
0.224175  0.170863  0.606725
0.400366  0.169477  0.574589
0.541766  0.166259  0.568532
0.670788  0.164528  0.582250
0.811661  0.157044  0.580829
0.967092  0.158480  0.572058
0.038211  0.252027  0.603172
0.141290  0.282161  0.607263
0.241383  0.314461  0.606263
0.386605  0.319522  0.569506
0.527983  0.312205  0.581408
0.670543  0.304452  0.588351
0.816629  0.309371  0.586928
0.961801  0.298518  0.579196
0.066954  0.363257  0.609322
0.184911  0.391911  0.596698
0.265038  0.440170  0.607524
0.393894  0.455634  0.569013
0.523748  0.447536  0.582148
0.670126  0.450189  0.586056
0.812048  0.442134  0.590875
0.950314  0.435435  0.588429
0.126105  0.414266  0.632126
0.217885  0.469225  0.628719
0.318963  0.518978  0.626458
0.406828  0.556186  0.604751
0.518210  0.573799  0.611772
0.660251  0.576615  0.602960
0.803368  0.574707  0.605226
0.950722  0.569536  0.616997
0.177508  0.459109  0.671073
0.273091  0.515203  0.661759
0.376350  0.563061  0.654680
0.451119  0.611686  0.664734
0.539127  0.652490  0.660956
0.666733  0.681274  0.647619
0.805607  0.693638  0.632593
0.952452  0.705063  0.633466
0.231044  0.502777  0.709066
0.326214  0.556317  0.702964
0.414985  0.609201  0.695484
0.493126  0.655088  0.715664
0.575814  0.697406  0.724265
0.703167  0.741499  0.703879
0.832095  0.782320  0.678742
0.969483  0.807103  0.662829
0.247025  0.582530  0.741764
0.366262  0.607403  0.743401
0.469905  0.634533  0.754667
0.545319  0.690563  0.740906
0.642235  0.741846  0.746826
0.752136  0.786363  0.730662
0.868741  0.835097  0.722292
0.990055  0.875514  0.706319
0.244527  0.700140  0.763986
0.379068  0.702069  0.766125
0.488189  0.707576  0.777609
0.601102  0.742625  0.763207
0.703572  0.788119  0.749989
0.810283  0.844677  0.733058
0.915683  0.901609  0.727070
1.023703  0.946543  0.723247
0.009468  0.130398  0.741756
0.123636  0.153557  0.740819
0.225995  0.171452  0.761965
0.364304  0.174992  0.755541
0.523167  0.171104  0.737829
0.673595  0.162206  0.713207
0.818204  0.159912  0.717855
0.957814  0.152326  0.726633
0.041993  0.248399  0.744226
0.138103  0.279133  0.741379
0.249215  0.302890  0.747701
0.362827  0.318860  0.757932
0.518697  0.309410  0.739130
0.679563  0.304722  0.715322
0.814729  0.302526  0.729409
0.952002  0.294947  0.731195
0.071598  0.353073  0.735709
0.180206  0.393352  0.737931
0.276467  0.424128  0.741289
0.366030  0.461800  0.765082
0.517271  0.465472  0.747815
0.670954  0.456111  0.719840
0.809462  0.447571  0.730766
0.951606  0.444981  0.731692
0.123817  0.441335  0.739771
0.216325  0.485684  0.728108
0.310662  0.544246  0.740521
0.397352  0.583709  0.749720
0.519469  0.606027  0.764302
0.660355  0.595726  0.727170
0.809457  0.590728  0.731330
0.950999  0.587693  0.730256
0.169977  0.493372  0.780221
0.274680  0.543106  0.761448
0.385989  0.601925  0.741986
0.461696  0.655343  0.766200
0.524298  0.712415  0.793359
0.661624  0.728862  0.752943
0.799764  0.724353  0.744160
0.954370  0.727011  0.745717
0.206955  0.546736  0.819908
0.328754  0.588925  0.799891
0.428539  0.643732  0.789113
0.514261  0.688411  0.798963
0.572933  0.746500  0.833827
0.675051  0.796219  0.828601
0.813378  0.823334  0.791951
0.957786  0.845608  0.766383
0.239047  0.611871  0.855267
0.361658  0.633134  0.839878
0.477645  0.673364  0.834952
0.558419  0.742718  0.836847
0.632702  0.783755  0.863089
0.729302  0.834057  0.874872
0.842333  0.873545  0.856102
0.977796  0.915565  0.824587
0.241835  0.720587  0.866460
0.378501  0.722592  0.875801
0.505720  0.738065  0.866256
0.602861  0.764790  0.882544
0.688502  0.809225  0.894969
0.779770  0.882434  0.907610
0.902666  0.916186  0.879278
1.015177  0.961249  0.862592
0.006604  0.127232  0.878643
0.123745  0.147018  0.889790
0.237769  0.163694  0.895948
0.362025  0.170919  0.894518
0.508118  0.166748  0.901385
0.656051  0.165563  0.889350
0.824903  0.158559  0.871941
0.973109  0.163904  0.855894
0.040218  0.243475  0.885533
0.144804  0.278510  0.880946
0.259167  0.296520  0.886777
0.366430  0.317776  0.902048
0.506037  0.319430  0.901630
0.661448  0.314286  0.897428
0.803027  0.312745  0.884019
0.959546  0.301513  0.863844
0.074108  0.347011  0.875457
0.175759  0.387815  0.882833
0.282065  0.428833  0.888167
0.383801  0.455006  0.897376
0.511287  0.463311  0.907276
0.659188  0.466547  0.897620
0.805107  0.461915  0.886047
0.952060  0.456945  0.875317
0.108432  0.448540  0.881584
0.222234  0.485702  0.874192
0.321003  0.531534  0.879952
0.412755  0.571853  0.879928
0.519654  0.605428  0.899335
0.658893  0.612189  0.901685
0.793991  0.601405  0.906802
0.948251  0.592509  0.889523
0.156829  0.526346  0.898897
0.264106  0.572498  0.874971
0.376485  0.616843  0.870521
0.465374  0.672659  0.874775
0.542346  0.729114  0.887651
0.654736  0.744544  0.904563
0.780147  0.747773  0.926100
0.938779  0.737742  0.903598
0.189909  0.580073  0.927673
0.311037  0.627515  0.907222
0.421980  0.668535  0.887120
0.530917  0.721773  0.880818
0.600551  0.774792  0.888043
0.688718  0.831114  0.920665
0.784236  0.877074  0.942551
0.931774  0.884296  0.922865
0.228978  0.647691  0.976504
0.346487  0.682172  0.956940
0.463536  0.712495  0.935078
0.571497  0.769317  0.913476
0.652139  0.812163  0.921396
0.743799  0.865088  0.950977
0.835620  0.913667  0.962581
0.951826  0.967177  0.962334
0.243336  0.733207  0.997032
0.383701  0.742475  0.987492
0.500243  0.767983  0.975244
0.619120  0.803588  0.967552
0.698611  0.854808  0.967836
0.791079  0.911094  0.980049
0.895446  0.948629  0.984718
0.991280  0.995280  0.998724
