LUT/LUT_30.CUBE
TITLE "LUT_30" 
#LUT size 
LUT_3D_SIZE 15 
DOMAIN_MIN 0.0 0.0 0.0 
DOMAIN_MAX 1.0 1.0 1.0 
#data point 
0.077156  0.064916  0.035075
0.081070  0.078043  0.041183
0.100419  0.097228  0.049355
0.122154  0.119328  0.068261
0.175260  0.158700  0.072468
0.242481  0.196600  0.075599
0.311755  0.235569  0.061072
0.348431  0.265045  0.069940
0.416504  0.305764  0.063072
0.460401  0.336305  0.067949
0.520239  0.365015  0.064084
0.554137  0.391844  0.066354
0.621977  0.414850  0.052607
0.669898  0.458385  0.059228
0.734386  0.478973  0.059840
0.086073  0.082682  0.033864
0.096259  0.092257  0.042753
0.115396  0.113126  0.058287
0.152863  0.138902  0.066043
0.194359  0.175512  0.086526
0.263316  0.215072  0.083748
0.323244  0.256068  0.077122
0.382584  0.285186  0.079414
0.427951  0.324919  0.074513
0.467284  0.342857  0.062322
0.527570  0.381873  0.066982
0.591956  0.410274  0.068389
0.655188  0.457350  0.059576
0.700924  0.477616  0.061294
0.755514  0.485587  0.066856
0.112139  0.103280  0.055024
0.104132  0.099791  0.053624
0.127686  0.118575  0.060263
0.161007  0.152690  0.084924
0.222317  0.195972  0.088467
0.277808  0.226265  0.082004
0.351901  0.274494  0.088889
0.396889  0.299437  0.074553
0.465838  0.330526  0.079594
0.501566  0.366178  0.079508
0.540474  0.395256  0.071400
0.616775  0.438148  0.068991
0.653024  0.459909  0.070386
0.718138  0.480581  0.066054
0.765351  0.517384  0.063797
0.119076  0.111484  0.057173
0.133281  0.121435  0.059924
0.156233  0.137896  0.069823
0.202014  0.177284  0.091321
0.265164  0.219947  0.087036
0.312865  0.248438  0.088769
0.377736  0.290009  0.080025
0.419409  0.319053  0.083615
0.484087  0.356104  0.065247
0.513239  0.378070  0.071580
0.567505  0.409595  0.077111
0.628730  0.438741  0.079764
0.668080  0.471961  0.064896
0.741979  0.503562  0.056437
0.796865  0.546741  0.067396
0.147870  0.142440  0.077604
0.165154  0.158810  0.086345
0.211570  0.190749  0.104468
0.248243  0.212923  0.102326
0.292434  0.245149  0.090269
0.353546  0.277857  0.090652
0.399919  0.311341  0.087490
0.453443  0.338636  0.081121
0.501841  0.369279  0.073422
0.551904  0.412717  0.073899
0.595935  0.437953  0.075750
0.662191  0.483036  0.073975
0.699574  0.496335  0.064895
0.757942  0.534657  0.067548
0.816303  0.558246  0.061980
0.166144  0.162316  0.096415
0.207471  0.184175  0.090876
0.237898  0.208784  0.091392
0.293204  0.243387  0.094121
0.343154  0.261948  0.079965
0.371787  0.286466  0.093992
0.419775  0.323360  0.088420
0.488413  0.363547  0.082203
0.519543  0.381453  0.078547
0.554986  0.408259  0.079409
0.622042  0.460028  0.067940
0.663461  0.489368  0.076832
0.733548  0.520804  0.070376
0.784590  0.558087  0.072918
0.839844  0.574818  0.069668
0.229646  0.192320  0.084096
0.258612  0.225800  0.108229
0.305214  0.252286  0.103899
0.346360  0.281712  0.100625
0.386878  0.302291  0.080231
0.419375  0.341827  0.097662
0.452372  0.342837  0.084598
0.518932  0.397103  0.097315
0.556254  0.418363  0.077024
0.612948  0.478189  0.079749
0.655170  0.481635  0.075946
0.682098  0.514699  0.082255
0.737234  0.547418  0.077512
0.803689  0.580933  0.068155
0.863859  0.608195  0.071679
0.275216  0.238368  0.111939
0.303929  0.255880  0.106838
0.326145  0.270599  0.103201
0.378546  0.296416  0.085611
0.430755  0.338736  0.099835
0.466699  0.366820  0.079649
0.491680  0.381436  0.083578
0.548502  0.419639  0.084035
0.581256  0.454734  0.076435
0.637944  0.490968  0.072340
0.677679  0.526711  0.077000
0.726747  0.562794  0.079648
0.779223  0.591697  0.082792
0.837107  0.621810  0.079970
0.904282  0.649270  0.067178
0.301064  0.257302  0.119270
0.356361  0.287974  0.101055
0.386298  0.297391  0.085787
0.420234  0.319322  0.090916
0.474677  0.365596  0.094118
0.494431  0.389604  0.088510
0.535649  0.407338  0.085336
0.578201  0.450621  0.085890
0.612442  0.497006  0.072288
0.670688  0.541615  0.081482
0.696391  0.561612  0.074012
0.743492  0.587572  0.086496
0.803860  0.612172  0.086331
0.833971  0.655328  0.081300
0.919944  0.687677  0.076219
0.366174  0.299272  0.110328
0.393582  0.316201  0.097926
0.429048  0.327706  0.090197
0.459786  0.368281  0.095961
0.496716  0.390175  0.087251
0.529870  0.421527  0.085896
0.579545  0.457897  0.081463
0.625483  0.495862  0.085005
0.653381  0.533765  0.075614
0.704265  0.578809  0.077777
0.752653  0.609463  0.084132
0.780408  0.628718  0.078091
0.822599  0.668144  0.085121
0.868102  0.681491  0.075522
0.922693  0.717417  0.087276
0.384742  0.313654  0.108310
0.428853  0.346190  0.097520
0.462832  0.379624  0.088293
0.495563  0.391755  0.089250
0.557228  0.438521  0.091051
0.586706  0.464970  0.081175
0.611921  0.489879  0.091167
0.667766  0.538649  0.073081
0.704005  0.573999  0.074575
0.722326  0.588478  0.071689
0.775632  0.648518  0.076845
0.799814  0.651010  0.084511
0.857189  0.699130  0.081598
0.915648  0.725423  0.074997
0.951423  0.753192  0.093131
0.434785  0.337291  0.092548
0.462931  0.371100  0.097780
0.504889  0.402648  0.095663
0.543927  0.425038  0.091659
0.582416  0.458537  0.077499
0.628628  0.503553  0.082326
0.649122  0.531407  0.080362
0.677195  0.555582  0.078291
0.735987  0.615531  0.084878
0.759010  0.633159  0.073490
0.803586  0.666602  0.085872
0.847492  0.690270  0.080947
0.890564  0.713529  0.072955
0.919574  0.756439  0.082453
0.974742  0.771860  0.083347
0.469488  0.372463  0.095814
0.491876  0.401473  0.079255
0.528045  0.420783  0.089434
0.589443  0.469332  0.078213
0.625103  0.497867  0.084348
0.648965  0.527258  0.091224
0.694294  0.570215  0.076855
0.726272  0.584076  0.082695
0.756454  0.618986  0.089474
0.783149  0.655848  0.082622
0.838362  0.676836  0.087361
0.895632  0.718196  0.084658
0.911520  0.740273  0.083638
0.947172  0.764209  0.083827
1.025372  0.791450  0.090789
0.508931  0.409711  0.087281
0.548175  0.453855  0.086128
0.579945  0.473705  0.073091
0.624053  0.501408  0.083348
0.650027  0.531894  0.083701
0.675331  0.551611  0.074432
0.720897  0.588983  0.074539
0.771357  0.621614  0.081094
0.781185  0.647690  0.083490
0.820285  0.666528  0.084679
0.847339  0.695292  0.080638
0.898533  0.731362  0.084611
0.941758  0.758407  0.082531
0.990587  0.789694  0.093350
1.014428  0.796340  0.082995
0.542084  0.434208  0.092330
0.571951  0.455337  0.088805
0.612058  0.508646  0.090478
0.657604  0.537594  0.066972
0.691518  0.562086  0.081782
0.707333  0.585202  0.085793
0.746585  0.612611  0.086520
0.791761  0.654848  0.081117
0.808809  0.664914  0.082074
0.853924  0.696642  0.087452
0.887562  0.716241  0.097205
0.932766  0.754785  0.083559
0.968779  0.774540  0.088246
1.024955  0.796425  0.081987
1.077095  0.839259  0.086399
0.080421  0.079112  0.043404
0.094571  0.090060  0.035360
0.102949  0.093438  0.041208
0.120795  0.109834  0.058019
0.168457  0.151505  0.071401
0.245395  0.194294  0.075447
0.311914  0.251688  0.084168
0.358565  0.276867  0.071080
0.416647  0.302236  0.067161
0.443839  0.314477  0.061316
0.514172  0.360291  0.067152
0.564255  0.397734  0.064142
0.631428  0.433078  0.055686
0.669767  0.455085  0.061270
0.722949  0.484380  0.066162
0.096074  0.092029  0.038094
0.101696  0.091925  0.046012
0.114555  0.105554  0.054294
0.154922  0.138542  0.071750
0.195335  0.171536  0.089075
0.279108  0.229774  0.083448
0.325643  0.253035  0.071930
0.367521  0.280841  0.071962
0.427286  0.315636  0.071204
0.492846  0.354059  0.075912
0.517825  0.375329  0.061401
0.574578  0.403497  0.063475
0.640079  0.454095  0.060099
0.689057  0.466789  0.068044
0.752904  0.502549  0.063876
0.106981  0.094458  0.041319
0.116738  0.114370  0.058384
0.141105  0.133861  0.068484
0.167694  0.159972  0.079318
0.215527  0.193660  0.091323
0.298011  0.238769  0.076866
0.334540  0.256751  0.074554
0.394184  0.299138  0.084358
0.442170  0.335146  0.075141
0.490631  0.359623  0.076933
0.548429  0.392309  0.066696
0.603864  0.432658  0.062538
0.667845  0.455524  0.059259
0.711214  0.500862  0.065563
0.798119  0.526876  0.061742
0.132887  0.128636  0.069644
0.140224  0.137592  0.078174
0.167330  0.161551  0.092657
0.187184  0.175399  0.093920
0.250103  0.222911  0.097852
0.320148  0.261172  0.082736
0.355870  0.284096  0.093192
0.429691  0.330183  0.085807
0.476125  0.357772  0.088234
0.515333  0.378562  0.081513
0.571023  0.421046  0.082792
0.634962  0.448065  0.073318
0.690780  0.473508  0.063814
0.709990  0.502839  0.072525
0.794160  0.543793  0.060890
0.158707  0.155343  0.090690
0.166688  0.161250  0.096620
0.205124  0.192084  0.110516
0.237093  0.210728  0.109080
0.292764  0.254614  0.119350
0.347337  0.272256  0.091080
0.390546  0.307669  0.092404
0.446163  0.334296  0.083205
0.498434  0.377150  0.084544
0.538310  0.406659  0.086104
0.586771  0.430608  0.070617
0.642883  0.468680  0.066430
0.698772  0.510429  0.086751
0.764371  0.528346  0.066112
0.798010  0.563051  0.069931
0.184443  0.172969  0.102382
0.210734  0.194477  0.105867
0.245609  0.222505  0.130348
0.290201  0.250037  0.127233
0.341014  0.280412  0.107443
0.395995  0.311965  0.103640
0.445999  0.341175  0.094271
0.470989  0.356116  0.114379
0.514661  0.391315  0.084832
0.562979  0.428854  0.102291
0.607411  0.460044  0.090069
0.658087  0.490093  0.076820
0.714541  0.514549  0.082158
0.788476  0.559874  0.065194
0.857534  0.602399  0.071125
0.229018  0.222057  0.150880
0.261448  0.230223  0.112509
0.278457  0.251743  0.141547
0.318797  0.274968  0.136188
0.382322  0.303230  0.110862
0.422591  0.338695  0.100803
0.468419  0.353101  0.100346
0.501012  0.394096  0.113078
0.539623  0.425236  0.100513
0.590015  0.453394  0.093914
0.654791  0.502279  0.087695
0.688079  0.531330  0.081075
0.755116  0.555362  0.076674
0.806771  0.585347  0.066429
0.855318  0.613499  0.065217
0.258381  0.237547  0.129425
0.284308  0.261187  0.135075
0.337626  0.296992  0.141324
0.370385  0.311857  0.147312
0.426308  0.343673  0.103168
0.449582  0.357574  0.110179
0.516377  0.405252  0.092455
0.548301  0.421665  0.094140
0.583989  0.456439  0.098914
0.616791  0.483272  0.089489
0.680549  0.525636  0.086875
0.718590  0.552169  0.077113
0.776587  0.583943  0.071092
0.826412  0.607924  0.072038
0.901076  0.634000  0.074752
0.304105  0.265669  0.137419
0.349515  0.296342  0.149426
0.381003  0.313024  0.119487
0.401429  0.331201  0.121975
0.450362  0.360876  0.113408
0.491172  0.395532  0.113454
0.534133  0.425704  0.108940
0.581522  0.465434  0.087125
0.618195  0.487763  0.092518
0.671205  0.545868  0.095390
0.703290  0.563481  0.088931
0.752581  0.596117  0.091209
0.796745  0.619410  0.084800
0.861081  0.660975  0.098290
0.900030  0.679020  0.078227
0.327694  0.280271  0.130273
0.389438  0.320926  0.129351
0.415759  0.336537  0.131991
0.474547  0.375099  0.103744
0.495434  0.401551  0.108614
0.550364  0.435207  0.097881
0.592321  0.478335  0.108472
0.618640  0.496819  0.101856
0.668888  0.535689  0.102439
0.695377  0.572214  0.099482
0.749250  0.607873  0.077815
0.775774  0.629424  0.084034
0.828486  0.652452  0.080026
0.879873  0.686660  0.082097
0.941070  0.723368  0.085763
0.372080  0.319227  0.150802
0.392611  0.331798  0.145773
0.434905  0.351802  0.122632
0.512078  0.401079  0.113625
0.539205  0.428447  0.113142
0.578638  0.466998  0.097982
0.636179  0.515621  0.091295
0.666657  0.544665  0.093803
0.701706  0.573857  0.089740
0.733299  0.604110  0.084915
0.784179  0.631309  0.090371
0.819872  0.669470  0.094842
0.856578  0.685693  0.068466
0.914322  0.721464  0.096107
0.944270  0.728248  0.095661
0.407074  0.338223  0.135114
0.458665  0.367701  0.129652
0.500369  0.411919  0.115162
0.537685  0.427831  0.105191
0.580079  0.481357  0.112719
0.612711  0.492768  0.100043
0.640844  0.510364  0.104621
0.684356  0.562048  0.105685
0.720190  0.587872  0.091462
0.741809  0.625034  0.094964
0.798536  0.655217  0.076032
0.853550  0.690626  0.101008
0.893602  0.723398  0.095547
0.915799  0.747825  0.093184
0.973751  0.773114  0.082726
0.471049  0.381108  0.122579
0.515444  0.424189  0.092235
0.551295  0.439685  0.113645
0.601449  0.482713  0.100055
0.605893  0.495067  0.094415
0.658997  0.536553  0.110390
0.698279  0.578694  0.096980
0.716353  0.579884  0.097405
0.760432  0.620508  0.092873
0.788809  0.651419  0.098532
0.821925  0.687986  0.098620
0.887009  0.710824  0.099343
0.911683  0.748257  0.097740
0.978397  0.775728  0.090334
1.007455  0.781447  0.090004
0.493683  0.401177  0.132899
0.525026  0.421061  0.108923
0.577855  0.462421  0.095090
0.585534  0.472470  0.097630
0.655734  0.534690  0.099217
0.684999  0.555809  0.086043
0.705616  0.590778  0.109578
0.765801  0.638330  0.077356
0.792394  0.644306  0.090457
0.823659  0.681592  0.101891
0.867689  0.707188  0.095716
0.892065  0.724227  0.097610
0.937285  0.754022  0.098588
0.982711  0.779135  0.085875
1.022107  0.806081  0.094101
0.540963  0.435767  0.119048
0.579399  0.468333  0.095891
0.593290  0.478785  0.104601
0.640724  0.510458  0.098278
0.678771  0.554311  0.098478
0.710470  0.583339  0.093909
0.752710  0.611232  0.090738
0.783023  0.645570  0.110909
0.816131  0.671921  0.108758
0.850343  0.699055  0.104148
0.905444  0.732391  0.104850
0.915798  0.754483  0.097319
0.970875  0.783874  0.102319
1.025008  0.807877  0.094210
1.078315  0.831902  0.103262
0.100011  0.093599  0.043102
0.109105  0.104348  0.059270
0.115563  0.110662  0.053370
0.154658  0.149460  0.076657
0.187710  0.165930  0.087386
0.233570  0.194771  0.083093
0.293193  0.238006  0.082336
0.378561  0.285793  0.071791
0.412738  0.306014  0.069636
0.457409  0.341993  0.077890
0.508831  0.368803  0.066396
0.565025  0.399884  0.067505
0.620277  0.435497  0.065629
0.685461  0.466991  0.058053
0.746978  0.479752  0.057036
0.118009  0.113314  0.059699
0.125037  0.125784  0.076788
0.142419  0.135314  0.074631
0.155828  0.148289  0.082547
0.212684  0.188363  0.098664
0.280111  0.235916  0.091703
0.339742  0.263936  0.089359
0.372927  0.288239  0.093581
0.440768  0.336055  0.069250
0.478984  0.348739  0.070765
0.538110  0.392150  0.075898
0.583978  0.420160  0.062993
0.640217  0.453475  0.074096
0.730063  0.483015  0.061234
0.757192  0.503691  0.067537
0.125058  0.126374  0.069390
0.136841  0.145127  0.102072
0.162988  0.161584  0.097103
0.180445  0.174078  0.103937
0.223318  0.201856  0.102504
0.289892  0.250230  0.114197
0.323080  0.267996  0.102938
0.388201  0.306832  0.101422
0.442753  0.338725  0.090292
0.514556  0.380049  0.090367
0.554584  0.401859  0.076422
0.603965  0.440199  0.079053
0.679953  0.466702  0.062006
0.722139  0.489056  0.067126
0.769930  0.511112  0.066571
0.155316  0.156847  0.102043
0.155046  0.164435  0.114282
0.164228  0.178312  0.135635
0.200170  0.198043  0.131818
0.232465  0.221743  0.132477
0.318469  0.273665  0.127783
0.371897  0.304727  0.125482
0.407180  0.319213  0.121727
0.473513  0.368935  0.097026
0.526324  0.386657  0.087364
0.562132  0.420168  0.088252
0.636937  0.456005  0.074640
0.671353  0.486600  0.074094
0.717915  0.506747  0.075311
0.791956  0.541854  0.067598
0.152557  0.166726  0.126001
0.185340  0.205985  0.174044
0.200201  0.209362  0.148173
0.229042  0.220546  0.156786
0.282756  0.257747  0.151726
0.323165  0.287998  0.142388
0.386314  0.327852  0.123981
0.453327  0.360412  0.119396
0.491301  0.384332  0.117668
0.541246  0.412849  0.104921
0.601952  0.441764  0.103813
0.650167  0.475942  0.093560
0.695684  0.503186  0.088094
0.749199  0.550974  0.081879
0.808676  0.577610  0.083155
0.171368  0.194935  0.160052
0.197184  0.209417  0.158864
0.232090  0.237741  0.176270
0.263306  0.244079  0.157252
0.300241  0.276341  0.164115
0.352052  0.313646  0.172609
0.416159  0.344804  0.145843
0.467960  0.372112  0.128006
0.528698  0.406469  0.108132
0.572806  0.445240  0.115034
0.625809  0.467848  0.097190
0.663698  0.501710  0.120625
0.710724  0.520571  0.085579
0.779299  0.575502  0.093598
0.833865  0.591657  0.085684
0.206706  0.222595  0.185098
0.233668  0.239584  0.175643
0.274615  0.269290  0.191215
0.312923  0.290112  0.176765
0.339936  0.303335  0.168873
0.394781  0.340534  0.164495
0.449652  0.372517  0.157051
0.490413  0.399700  0.140052
0.535228  0.414189  0.130904
0.584738  0.457756  0.118817
0.633139  0.490954  0.130056
0.700831  0.536578  0.129037
0.753759  0.559622  0.122001
0.809825  0.599007  0.113779
0.854645  0.622730  0.093193
0.263660  0.266059  0.202211
0.280055  0.284612  0.208991
0.325431  0.302588  0.187704
0.353949  0.317446  0.175773
0.390923  0.341844  0.177906
0.439910  0.364939  0.157639
0.494472  0.407938  0.170761
0.536513  0.431993  0.141826
0.593014  0.466525  0.129487
0.641344  0.498550  0.132078
0.674076  0.516238  0.127620
0.708304  0.550874  0.133834
0.767088  0.589147  0.121264
0.821759  0.625567  0.114489
0.870923  0.644221  0.109811
0.287512  0.282952  0.205192
0.325341  0.298703  0.192509
0.342044  0.306389  0.181825
0.397245  0.344786  0.189245
0.435557  0.375584  0.193041
0.461200  0.388246  0.181887
0.538421  0.436932  0.173525
0.560742  0.466996  0.136301
0.622537  0.496316  0.119719
0.667733  0.532649  0.130025
0.713864  0.569135  0.110120
0.742262  0.598922  0.132860
0.801801  0.620957  0.122707
0.852237  0.652943  0.133845
0.924549  0.678277  0.119908
0.315897  0.302772  0.218815
0.356417  0.334675  0.206449
0.401267  0.343915  0.180330
0.427340  0.374152  0.207325
0.472614  0.396026  0.193629
0.526074  0.427230  0.171947
0.576037  0.470375  0.166954
0.602501  0.488916  0.126887
0.664580  0.523763  0.142550
0.696989  0.572346  0.117552
0.746390  0.609671  0.121814
0.784826  0.636194  0.125339
0.829931  0.653178  0.136213
0.869528  0.692760  0.131917
0.915748  0.708967  0.124775
0.368856  0.333267  0.195444
0.391221  0.349613  0.203846
0.436595  0.387182  0.199247
0.497150  0.409651  0.164100
0.516550  0.429496  0.158196
0.554983  0.453767  0.174867
0.583987  0.485592  0.155332
0.645992  0.536454  0.145308
0.692341  0.565424  0.116964
0.727087  0.598973  0.127797
0.765028  0.631935  0.118811
0.802932  0.659898  0.117192
0.867544  0.703000  0.130267
0.903761  0.713507  0.130837
0.980934  0.756268  0.138711
0.402233  0.353469  0.204220
0.434566  0.378164  0.203217
0.488026  0.409099  0.192261
0.511668  0.433241  0.182786
0.565268  0.468224  0.171562
0.602192  0.493577  0.157065
0.632899  0.509971  0.147245
0.682833  0.552154  0.128356
0.721108  0.592721  0.147513
0.784359  0.637530  0.114489
0.794076  0.657281  0.124125
0.830707  0.692586  0.129788
0.885432  0.725877  0.122324
0.942173  0.755394  0.128147
0.981232  0.779459  0.144724
0.429528  0.379532  0.208604
0.462142  0.396461  0.199257
0.521368  0.431993  0.177897
0.541529  0.445492  0.194120
0.592975  0.490454  0.182348
0.644363  0.534586  0.161041
0.681147  0.557261  0.131381
0.713210  0.585633  0.139707
0.757196  0.619526  0.134636
0.784824  0.654307  0.129068
0.831982  0.687492  0.134528
0.863712  0.704949  0.147478
0.912440  0.744230  0.118352
0.958980  0.769624  0.152310
0.997157  0.780142  0.125110
0.470078  0.403023  0.202386
0.513924  0.432985  0.182900
0.524883  0.434822  0.186656
0.589672  0.494261  0.164507
0.624020  0.518218  0.151506
0.682501  0.569555  0.137682
0.714023  0.580026  0.140691
0.760178  0.635773  0.124987
0.783343  0.644812  0.141488
0.813263  0.667843  0.132207
0.839945  0.693994  0.127311
0.905264  0.738834  0.132188
0.935873  0.754539  0.132580
0.995425  0.783445  0.134420
1.029898  0.813086  0.142135
0.504745  0.434983  0.212372
0.544998  0.468317  0.196510
0.600678  0.497876  0.164788
0.631963  0.530821  0.152233
0.683080  0.555425  0.165297
0.705272  0.586167  0.143944
0.754675  0.629482  0.135362
0.783093  0.638029  0.135403
0.815739  0.682161  0.128329
0.867080  0.710057  0.142554
0.898521  0.738712  0.116462
0.924052  0.746873  0.132488
0.964909  0.776116  0.137762
1.031531  0.802740  0.119509
1.067070  0.831316  0.137792
0.121487  0.116775  0.073776
0.120370  0.116409  0.067308
0.142674  0.148616  0.097150
0.158272  0.168833  0.121579
0.201249  0.179889  0.089380
0.241575  0.208586  0.102903
0.318149  0.263314  0.097029
0.373222  0.292135  0.088566
0.406470  0.307253  0.090855
0.466395  0.340440  0.084338
0.511728  0.377836  0.077775
0.571063  0.406459  0.076345
0.611803  0.435089  0.076960
0.685318  0.458262  0.059038
0.739439  0.483864  0.062063
0.136570  0.139511  0.098552
0.143191  0.144943  0.110308
0.153046  0.162572  0.115531
0.185748  0.185194  0.133616
0.210178  0.198203  0.127180
0.259844  0.227093  0.116881
0.329924  0.282226  0.116930
0.386648  0.312369  0.113953
0.431875  0.333182  0.092876
0.476140  0.361877  0.095261
0.542466  0.392642  0.090305
0.587187  0.420725  0.082188
0.658473  0.466716  0.081071
0.707250  0.483028  0.066596
0.767453  0.517262  0.065925
0.140782  0.149114  0.112947
0.163131  0.176927  0.139101
0.175151  0.199011  0.151686
0.201889  0.216158  0.179667
0.224513  0.224791  0.151156
0.293278  0.259870  0.140349
0.342184  0.294172  0.136632
0.397665  0.322581  0.134276
0.457217  0.349737  0.105393
0.513931  0.389599  0.102470
0.550273  0.420038  0.104658
0.614786  0.444437  0.083142
0.651900  0.464122  0.086220
0.717752  0.509085  0.079251
0.809006  0.546067  0.070456
0.155958  0.177276  0.142321
0.175692  0.201616  0.170872
0.182839  0.215376  0.185858
0.208499  0.225605  0.185249
0.260846  0.260601  0.192114
0.296800  0.285870  0.179616
0.364699  0.316280  0.159209
0.411531  0.330108  0.132956
0.482528  0.377035  0.120702
0.539926  0.419309  0.113528
0.561145  0.420807  0.118101
0.625921  0.467349  0.101453
0.684445  0.502642  0.103200
0.729172  0.516067  0.083283
0.798859  0.543242  0.103408
0.178025  0.211234  0.187866
0.196219  0.231569  0.208567
0.196447  0.232998  0.203130
0.235297  0.250476  0.205826
0.268139  0.270486  0.205372
0.313216  0.298011  0.191710
0.355880  0.322448  0.188150
0.444616  0.366113  0.159445
0.474368  0.378806  0.154335
0.547287  0.416512  0.118252
0.596659  0.459350  0.117761
0.634570  0.480373  0.126725
0.690974  0.527352  0.132679
0.744231  0.555338  0.112267
0.818167  0.574241  0.104013
0.194163  0.224887  0.205515
0.204902  0.240009  0.210442
0.224595  0.267181  0.237363
0.241689  0.272354  0.241135
0.296064  0.307935  0.241921
0.353013  0.329638  0.221194
0.420897  0.367002  0.189260
0.459173  0.387077  0.197645
0.505939  0.406915  0.169009
0.539382  0.424329  0.164445
0.606062  0.479551  0.152743
0.658818  0.521889  0.142812
0.732267  0.546227  0.131465
0.773403  0.583690  0.142729
0.809718  0.598176  0.142642
0.217682  0.261893  0.241974
0.227119  0.257642  0.231158
0.267951  0.289513  0.254533
0.293822  0.312705  0.260489
0.329909  0.321701  0.239033
0.393352  0.367354  0.248295
0.430910  0.378415  0.211811
0.494389  0.406173  0.210008
0.532797  0.441678  0.198507
0.570805  0.452846  0.164810
0.626135  0.486305  0.167417
0.708623  0.541469  0.150560
0.738206  0.566722  0.167194
0.794857  0.605331  0.135140
0.855894  0.641159  0.145716
0.222820  0.263835  0.250360
0.272957  0.303651  0.269664
0.299509  0.320988  0.278983
0.336634  0.334550  0.270333
0.368116  0.345740  0.242338
0.428675  0.383257  0.216080
0.463630  0.404383  0.233455
0.527487  0.438107  0.216355
0.562502  0.461983  0.221102
0.606413  0.489942  0.190215
0.691559  0.545933  0.159165
0.715243  0.566106  0.188294
0.788000  0.602343  0.167606
0.812559  0.619493  0.177077
0.866891  0.639533  0.172309
0.270169  0.298550  0.263624
0.291041  0.314014  0.276138
0.324589  0.341560  0.277505
0.363620  0.357697  0.262751
0.416762  0.387291  0.249677
0.454186  0.412831  0.263279
0.509857  0.436537  0.235402
0.546609  0.470697  0.216523
0.585398  0.497753  0.233392
0.663826  0.542349  0.190545
0.717297  0.586024  0.171562
0.752979  0.599595  0.180249
0.785933  0.619936  0.188039
0.856231  0.662994  0.188544
0.910877  0.689055  0.185068
0.287623  0.321562  0.299186
0.337886  0.347806  0.278570
0.381137  0.370579  0.266117
0.408747  0.375431  0.266826
0.477495  0.417627  0.256253
0.511369  0.451238  0.248666
0.528399  0.460022  0.246138
0.594255  0.504034  0.235218
0.648031  0.529734  0.201512
0.670606  0.564854  0.199471
0.743132  0.605560  0.174166
0.791962  0.643303  0.175564
0.814502  0.654849  0.181357
0.888332  0.703333  0.189719
