LUT/LUT_19.CUBE
TITLE "LUT_19" 
#LUT size 
LUT_3D_SIZE 8 
DOMAIN_MIN 0.0 0.0 0.0 
DOMAIN_MAX 1.0 1.0 1.0 
#data point 
0.055937  0.052876  0.027070
0.092616  0.092938  0.045613
0.190736  0.166926  0.066493
0.320734  0.235193  0.054494
0.429408  0.286681  0.048098
0.538713  0.328614  0.045595
0.659983  0.383426  0.044390
0.792273  0.421355  0.045242
0.102713  0.095445  0.049827
0.133505  0.120929  0.054352
0.245658  0.199154  0.069697
0.365158  0.264605  0.066567
0.464228  0.320294  0.056962
0.565246  0.362904  0.053413
0.692373  0.423384  0.054534
0.817755  0.470265  0.055091
0.146111  0.134414  0.071627
0.217387  0.183507  0.088153
0.303084  0.238140  0.077932
0.401694  0.302517  0.072014
0.519211  0.361549  0.058840
0.611030  0.420187  0.061046
0.732479  0.466850  0.054770
0.857136  0.514746  0.055572
0.226309  0.199726  0.082405
0.305396  0.252366  0.093746
0.385275  0.300322  0.074348
0.453300  0.359870  0.072933
0.552579  0.421110  0.067412
0.661491  0.486766  0.063766
0.765551  0.529252  0.059437
0.901040  0.570861  0.063846
0.305116  0.250884  0.104707
0.379240  0.309516  0.071014
0.464665  0.383104  0.082844
0.526548  0.436124  0.073345
0.607671  0.508518  0.072274
0.696124  0.563815  0.070639
0.818812  0.610149  0.069464
0.936632  0.659997  0.065418
0.378828  0.322661  0.091492
0.456310  0.394012  0.081587
0.547680  0.451882  0.079866
0.605196  0.507381  0.085844
0.696935  0.586355  0.071018
0.767431  0.646864  0.067852
0.866167  0.700959  0.073485
0.959793  0.736185  0.080524
0.459587  0.386851  0.083279
0.533176  0.446772  0.071601
0.609141  0.520158  0.079990
0.683752  0.585775  0.071723
0.756241  0.638256  0.076524
0.829967  0.688459  0.069356
0.912325  0.752708  0.083019
1.022057  0.803902  0.082195
0.533411  0.456516  0.075674
0.598110  0.514631  0.073094
0.679182  0.583178  0.071623
0.739254  0.626912  0.080141
0.810612  0.685874  0.066605
0.885175  0.729405  0.083951
0.971325  0.787764  0.085894
1.072759  0.851896  0.081291
0.087259  0.081663  0.041480
0.116978  0.107054  0.064030
0.191859  0.167446  0.079095
0.312586  0.239885  0.061137
0.436248  0.297016  0.055736
0.533079  0.344621  0.048520
0.646425  0.386807  0.048985
0.789591  0.420402  0.041125
0.121437  0.124788  0.080654
0.155999  0.155097  0.102574
0.228270  0.205008  0.111257
0.350417  0.280838  0.089594
0.467309  0.330225  0.074860
0.569106  0.388453  0.061222
0.703335  0.433717  0.057635
0.805703  0.470209  0.051357
0.149671  0.175660  0.147984
0.201351  0.209183  0.154020
0.291109  0.256472  0.138520
0.394502  0.313821  0.133785
0.503187  0.379427  0.117805
0.614695  0.434866  0.102325
0.729087  0.481030  0.078887
0.850437  0.534350  0.065707
0.209282  0.229202  0.184974
0.279617  0.269944  0.185598
0.357786  0.318690  0.170204
0.455760  0.380080  0.153915
0.541062  0.424425  0.136073
0.652567  0.497309  0.134535
0.769984  0.532500  0.127520
0.889882  0.579601  0.089983
0.273655  0.274501  0.202534
0.353235  0.315987  0.185149
0.431954  0.379860  0.190777
0.529501  0.449196  0.165309
0.631807  0.508495  0.123401
0.716774  0.564294  0.125689
0.814631  0.610929  0.131631
0.930643  0.665554  0.113837
0.365832  0.332691  0.199818
0.430685  0.393098  0.207011
0.516518  0.445674  0.158877
0.589349  0.517633  0.159183
0.679524  0.583575  0.116519
0.761180  0.634535  0.130734
0.858607  0.712209  0.128238
0.979934  0.757248  0.129221
0.438404  0.385538  0.197607
0.512680  0.446213  0.171500
0.585539  0.506920  0.177423
0.665243  0.566867  0.140441
0.752188  0.639774  0.138098
0.814236  0.691518  0.136519
0.915152  0.756489  0.126847
1.006935  0.799852  0.125887
0.497868  0.447279  0.204917
0.588235  0.520867  0.168867
0.677776  0.565880  0.147206
0.738197  0.637979  0.139347
0.805473  0.687383  0.140182
0.898225  0.751876  0.130141
0.963699  0.799132  0.143882
1.068663  0.851340  0.137399
0.123403  0.140142  0.112632
0.146379  0.161963  0.128991
0.194021  0.194606  0.142909
0.322689  0.264526  0.119451
0.441222  0.314955  0.090828
0.545020  0.371758  0.090680
0.665040  0.417504  0.075498
0.775977  0.448267  0.073287
0.152407  0.187679  0.166797
0.177716  0.215096  0.205033
0.231310  0.253906  0.222019
0.347113  0.305123  0.180324
0.481430  0.367713  0.135901
0.563547  0.405757  0.134263
0.682076  0.462837  0.118367
0.808669  0.508912  0.106952
0.195384  0.242738  0.236894
0.211854  0.269889  0.271174
0.246301  0.280404  0.253982
0.379908  0.360461  0.253985
0.504917  0.412959  0.222096
0.609962  0.459657  0.167679
0.735364  0.521373  0.157086
0.844497  0.563723  0.151648
0.208652  0.271351  0.285144
0.258182  0.322240  0.316106
0.319963  0.347262  0.313513
0.415878  0.404790  0.315670
0.531573  0.457884  0.266961
0.648067  0.504110  0.230715
0.759683  0.564866  0.218925
0.867996  0.615227  0.197519
0.253337  0.320324  0.322066
0.332694  0.370747  0.331438
0.406063  0.407024  0.328329
0.494298  0.460690  0.330331
0.581135  0.508581  0.300037
0.696504  0.579763  0.290758
0.821510  0.644612  0.249712
0.936503  0.680708  0.253293
0.317708  0.371300  0.361029
0.395734  0.416576  0.356669
0.479454  0.460695  0.335911
0.567735  0.516769  0.320259
0.662343  0.594927  0.317828
0.758478  0.643156  0.281070
0.864159  0.709334  0.262715
0.973895  0.752978  0.267243
0.378214  0.406861  0.360756
0.463652  0.460983  0.348242
0.559160  0.524039  0.333896
0.631985  0.570903  0.331450
0.729866  0.642480  0.319722
0.810551  0.695834  0.309497
0.917037  0.750852  0.259618
1.020245  0.810378  0.251277
0.448495  0.453998  0.365482
0.561293  0.524257  0.347595
0.629691  0.584576  0.332656
0.713715  0.630888  0.319273
0.780354  0.683022  0.314931
0.889368  0.744409  0.281273
0.967585  0.788424  0.285239
1.067145  0.857449  0.261336
0.154027  0.192307  0.178797
0.176055  0.218653  0.211061
0.209314  0.254183  0.242125
0.300045  0.301072  0.235674
0.445021  0.358246  0.173862
0.552532  0.405815  0.151267
0.661613  0.451333  0.151098
0.781093  0.491623  0.140306
0.178321  0.222775  0.218424
0.211442  0.265269  0.266808
0.258502  0.309599  0.300042
0.337599  0.350461  0.300166
0.466648  0.407432  0.234191
0.575024  0.453513  0.221005
0.688212  0.495331  0.187004
0.808196  0.546952  0.198890
0.221319  0.279784  0.283836
0.246167  0.318002  0.326949
0.282943  0.360371  0.371499
0.392472  0.413261  0.359776
0.472840  0.455255  0.357619
0.614309  0.502227  0.280313
0.725570  0.564959  0.271319
0.851954  0.604111  0.263883
0.248910  0.327494  0.347404
0.286826  0.369997  0.387800
0.304218  0.398939  0.425610
0.401186  0.438450  0.404343
0.507242  0.494101  0.390999
0.647115  0.556939  0.346185
0.750037  0.609555  0.329778
0.883993  0.650482  0.312406
0.289072  0.381158  0.410786
0.333376  0.426534  0.446343
0.372592  0.450163  0.457906
0.473147  0.500157  0.448350
0.555759  0.563646  0.472330
0.666803  0.596280  0.410947
0.790236  0.660633  0.390031
0.914766  0.727857  0.366058
0.317134  0.426608  0.454626
0.365520  0.457409  0.466098
0.458841  0.495492  0.460574
0.528360  0.546674  0.478299
0.613651  0.600984  0.479540
0.725671  0.670572  0.481276
0.856670  0.730876  0.440370
0.944136  0.768083  0.420027
0.356591  0.461340  0.501642
0.426352  0.508170  0.499512
0.525195  0.539000  0.478148
0.608473  0.591999  0.487804
0.700842  0.654218  0.483626
0.799637  0.708712  0.450213
0.898214  0.770971  0.453888
1.014922  0.826279  0.467036
0.400684  0.498730  0.524823
0.499563  0.527853  0.491292
0.582566  0.585915  0.497839
0.673705  0.640768  0.488128
0.796995  0.713651  0.463987
0.864730  0.756288  0.456703
0.965446  0.812856  0.478793
1.063380  0.858257  0.466345
0.173418  0.227965  0.237940
0.209748  0.281339  0.290190
0.236956  0.310106  0.316123
0.316990  0.349699  0.311120
0.423638  0.399509  0.298187
0.556806  0.450013  0.246466
0.684620  0.506011  0.233038
0.798067  0.523646  0.192164
0.211229  0.283674  0.299122
0.239611  0.319367  0.335005
0.266040  0.351975  0.372546
0.342226  0.403730  0.398325
0.437391  0.445351  0.373747
0.560041  0.490236  0.330422
0.684720  0.543916  0.278698
0.805003  0.584302  0.266467
0.258073  0.340362  0.362191
0.283380  0.370625  0.394593
0.309911  0.405433  0.430972
0.379315  0.462863  0.462198
0.474683  0.499211  0.444779
0.578694  0.542400  0.416113
0.721841  0.600024  0.367392
0.840038  0.642214  0.338696
0.287615  0.375751  0.404159
0.321069  0.410255  0.442278
0.347797  0.456577  0.492699
0.381693  0.489927  0.522439
0.509603  0.544766  0.498715
0.619910  0.598742  0.488410
0.748362  0.647877  0.442898
0.869208  0.692708  0.406710
0.326678  0.429687  0.457035
0.357427  0.472789  0.512138
0.395134  0.508817  0.542522
0.448634  0.559954  0.583657
0.547445  0.597449  0.562177
0.658350  0.657573  0.563469
0.787149  0.706542  0.504599
0.913773  0.766206  0.477087
0.357166  0.471355  0.510243
0.391488  0.505407  0.540296
0.435542  0.561444  0.596464
0.485231  0.596314  0.623882
0.595473  0.637223  0.588681
0.703805  0.701719  0.616002
0.825107  0.756503  0.597503
0.948936  0.805981  0.548015
0.394442  0.515264  0.553768
0.428976  0.552804  0.595656
0.478552  0.598887  0.628724
0.564789  0.636466  0.618828
0.686113  0.688874  0.597155
0.772578  0.744922  0.629602
0.886986  0.797063  0.605632
1.003176  0.850489  0.586424
0.440223  0.567542  0.606159
0.474978  0.597774  0.637300
0.545511  0.635741  0.634109
0.648290  0.679623  0.625027
0.746270  0.732879  0.620840
0.846024  0.771430  0.617491
0.949975  0.835515  0.615744
1.055651  0.880650  0.606223
0.224887  0.302664  0.323100
0.240507  0.325058  0.348593
0.269549  0.367685  0.402642
0.319670  0.395639  0.399644
0.433187  0.444732  0.375788
0.528989  0.489194  0.363192
0.661183  0.526283  0.312312
0.803763  0.574599  0.290692
0.256758  0.343952  0.375290
0.280981  0.378632  0.412689
0.312333  0.413513  0.447520
0.357644  0.445241  0.467797
0.462731  0.495886  0.463599
0.560315  0.544205  0.453477
0.684760  0.601133  0.406324
0.823925  0.635984  0.363334
0.291447  0.393389  0.428733
0.327801  0.432636  0.466460
0.371148  0.476097  0.512842
0.399328  0.507160  0.528992
0.466741  0.541380  0.531872
0.595016  0.608265  0.528566
0.711009  0.641844  0.476815
0.846538  0.694305  0.449099
0.321325  0.433506  0.472111
0.359460  0.475388  0.512021
0.408340  0.527781  0.560457
0.433357  0.554790  0.591471
0.488702  0.599214  0.619341
0.620372  0.638927  0.569657
0.736962  0.692314  0.540154
0.862836  0.760414  0.545221
0.362619  0.486834  0.522323
0.397143  0.518827  0.567261
0.439812  0.565741  0.598941
0.467936  0.600889  0.636118
0.530541  0.653871  0.681110
0.638479  0.689109  0.643329
0.762079  0.741488  0.622264
0.916174  0.807718  0.601016
0.401813  0.519139  0.562070
0.433398  0.561872  0.604457
0.479652  0.607943  0.648605
0.518422  0.643826  0.675298
0.577253  0.704425  0.739599
0.696684  0.749627  0.719104
0.812680  0.802566  0.695002
0.943867  0.844570  0.662911
0.444587  0.573584  0.614511
0.487418  0.612863  0.648237
0.538421  0.665896  0.697891
0.558920  0.691848  0.722909
0.637318  0.745323  0.756719
0.740006  0.780912  0.750269
0.871933  0.839102  0.728859
0.975391  0.871783  0.704782
0.482712  0.612084  0.650912
0.512213  0.649704  0.686471
0.556467  0.691821  0.744591
0.609189  0.724295  0.758864
0.702005  0.782105  0.773959
0.829398  0.821460  0.739833
0.916101  0.862818  0.747718
1.024700  0.909497  0.736976
0.262229  0.356705  0.394173
0.287817  0.391583  0.432069
0.318636  0.431217  0.467860
0.349296  0.468104  0.508398
0.417054  0.492265  0.487035
0.525634  0.532238  0.469403
0.648234  0.579249  0.411660
0.790931  0.623321  0.389566
0.302602  0.409092  0.446816
0.323326  0.435833  0.477897
0.359814  0.475295  0.515704
0.396497  0.522071  0.561154
0.440585  0.548801  0.570858
0.563239  0.587212  0.513877
0.670554  0.639883  0.505026
0.811530  0.683973  0.460467
0.330188  0.443544  0.488472
0.368111  0.486347  0.526934
0.407995  0.526701  0.560057
0.438631  0.564422  0.607607
0.481901  0.605899  0.639544
0.590251  0.649764  0.603442
0.706122  0.689237  0.592680
0.823648  0.743795  0.561185
0.367646  0.488589  0.532837
0.396978  0.518874  0.555388
0.445814  0.572932  0.610769
0.490954  0.626477  0.662750
0.535707  0.665550  0.696799
0.605602  0.688448  0.684388
0.749891  0.748071  0.652581
0.870428  0.797880  0.629829
0.399157  0.524207  0.565303
0.447976  0.577567  0.614676
0.483256  0.614447  0.649114
0.531771  0.674324  0.715368
0.573960  0.714269  0.767089
0.636719  0.740637  0.754520
0.776860  0.776774  0.699848
0.901507  0.837082  0.701497
0.437444  0.571194  0.620130
0.487748  0.613352  0.657069
0.532006  0.666948  0.707070
0.586474  0.721395  0.767845
0.613496  0.748438  0.812177
0.677076  0.797380  0.845344
0.799415  0.836680  0.808425
0.930551  0.869295  0.753465
0.487264  0.623981  0.664175
0.519784  0.655369  0.697196
0.555558  0.701220  0.749299
0.614034  0.753120  0.815227
0.663459  0.791592  0.837721
0.731740  0.841727  0.886499
0.829166  0.891935  0.896008
0.970639  0.909548  0.810381
0.520381  0.660014  0.704381
0.552374  0.696462  0.749878
0.592428  0.736145  0.800269
0.656264  0.785212  0.848432
0.704664  0.826672  0.875452
0.782519  0.876599  0.913577
0.879600  0.924079  0.925433
1.006081  0.949548  0.866864
0.295114  0.415002  0.465388
0.322314  0.444859  0.493194
0.363054  0.487169  0.535027
0.400819  0.524278  0.566499
0.439158  0.573569  0.616343
0.518165  0.594075  0.579374
0.653004  0.634502  0.529881
0.799634  0.684434  0.497916
0.327296  0.448885  0.504241
0.364526  0.489382  0.539422
0.409558  0.536200  0.578749
0.445396  0.575036  0.620252
0.491067  0.621804  0.662875
0.545064  0.656075  0.675351
0.657674  0.690398  0.627435
0.802849  0.733025  0.570610
0.365625  0.492826  0.542106
0.406069  0.533998  0.582720
0.452346  0.580064  0.623353
0.501695  0.634987  0.674646
0.533093  0.676673  0.732104
0.589970  0.716230  0.766130
0.698191  0.735305  0.689247
0.842981  0.790231  0.658389
0.407452  0.538577  0.586811
0.440679  0.577334  0.623188
0.490441  0.627542  0.668000
0.544167  0.681899  0.729743
0.566342  0.720426  0.775111
0.616218  0.755203  0.804528
0.704187  0.800613  0.818036
0.853477  0.827801  0.725063
0.437875  0.570546  0.612465
0.485197  0.618987  0.656049
0.526998  0.665103  0.708202
0.562490  0.707168  0.772347
0.605679  0.746209  0.811152
0.665167  0.786237  0.847809
0.747935  0.847145  0.898252
0.878547  0.881912  0.832460
0.470561  0.604794  0.646541
0.518842  0.654521  0.694085
0.560068  0.708216  0.763559
0.599546  0.745530  0.803201
0.650562  0.781792  0.842490
0.720063  0.836540  0.884126
0.799583  0.886986  0.924441
0.881609  0.923642  0.924374
0.518880  0.658525  0.704984
0.552071  0.705810  0.763038
0.585784  0.735823  0.801905
0.636992  0.776235  0.830907
0.695944  0.817180  0.866440
0.775715  0.869778  0.913968
0.844446  0.915879  0.945393
0.927069  0.961535  0.973517
0.541545  0.689653  0.744226
0.573276  0.720891  0.793913
0.624447  0.767876  0.836778
0.691872  0.812056  0.865338
0.746697  0.854907  0.896241
0.829995  0.909949  0.936204
0.898264  0.948103  0.968602
0.969409  0.987144  0.995779
