LUT/LUT_25.CUBE
TITLE "LUT_25" 
#LUT size 
LUT_3D_SIZE 5 
#data point 
DOMAIN_MIN 0.000000 0.000000 0.000000
DOMAIN_MAX 0.857143 0.857143 0.857143
0.069140  0.064335  0.030638
0.125291  0.118860  0.069527
0.314077  0.238109  0.055867
0.465299  0.332094  0.061274
0.639789  0.397904  0.051606
0.114470  0.111434  0.055510
0.207413  0.180849  0.087180
0.374319  0.280574  0.069866
0.513422  0.373211  0.059439
0.680927  0.457296  0.053340
0.227056  0.191511  0.088072
0.347141  0.281764  0.098996
0.452705  0.352090  0.077176
0.620031  0.478194  0.072814
0.752042  0.533334  0.068509
0.369626  0.301132  0.106938
0.463894  0.372071  0.091549
0.579852  0.470250  0.080540
0.697312  0.575591  0.074116
0.819799  0.661381  0.082552
0.463890  0.381148  0.088142
0.577348  0.471415  0.068679
0.693791  0.573347  0.075255
0.787099  0.656821  0.077231
0.906531  0.742121  0.084610
0.120005  0.117808  0.073405
0.156115  0.164383  0.122007
0.324123  0.259134  0.092214
0.474863  0.343427  0.078420
0.617162  0.419145  0.068023
0.150345  0.175832  0.155585
0.204287  0.224571  0.190542
0.367770  0.322196  0.159209
0.544192  0.412741  0.115379
0.701335  0.498193  0.098818
0.213853  0.257660  0.244858
0.290175  0.310345  0.255201
0.432981  0.385273  0.212237
0.579313  0.457327  0.165538
0.741843  0.561007  0.168351
0.285337  0.325823  0.296548
0.412182  0.384813  0.261108
0.539863  0.468645  0.246860
0.678814  0.565617  0.203010
0.806996  0.657206  0.192589
0.405973  0.397544  0.285694
0.540567  0.471755  0.252503
0.652156  0.562092  0.247161
0.799024  0.654923  0.196001
0.927611  0.745025  0.191189
0.159343  0.196408  0.172526
0.187103  0.228875  0.222892
0.293465  0.304200  0.243720
0.491701  0.393238  0.165532
0.654167  0.466479  0.137263
0.205033  0.257382  0.258374
0.253833  0.309450  0.301740
0.355226  0.377251  0.328392
0.509167  0.448439  0.270752
0.701696  0.545199  0.228028
0.253235  0.325209  0.344494
0.300239  0.391671  0.415508
0.393126  0.437774  0.406437
0.573388  0.526433  0.386298
0.744268  0.608365  0.321332
0.311770  0.397737  0.420816
0.374253  0.461268  0.471475
0.494166  0.517837  0.463530
0.637300  0.601111  0.473157
0.824196  0.694214  0.407544
0.359567  0.463468  0.496084
0.485073  0.534951  0.493481
0.590992  0.591441  0.490037
0.743025  0.682580  0.478318
0.906281  0.771824  0.454693
0.206007  0.267833  0.273813
0.249931  0.323613  0.340716
0.330580  0.371994  0.346192
0.473958  0.437460  0.314530
0.666429  0.523052  0.261942
0.259743  0.350154  0.371013
0.307475  0.401697  0.426681
0.359448  0.444871  0.456592
0.504556  0.511190  0.450754
0.700015  0.601350  0.378698
0.314244  0.411157  0.437058
0.367380  0.474273  0.504887
0.403367  0.520567  0.558355
0.547941  0.587818  0.539174
0.725270  0.672313  0.504671
0.364218  0.481171  0.521795
0.411749  0.532656  0.577380
0.483373  0.607625  0.637850
0.636752  0.681077  0.630139
0.774912  0.743677  0.609133
0.424813  0.544586  0.580349
0.478035  0.605673  0.643380
0.552866  0.675815  0.701569
0.711389  0.740121  0.693153
0.855614  0.812389  0.674880
0.276248  0.362346  0.395629
0.314180  0.414339  0.445181
0.360852  0.469911  0.503542
0.462768  0.511314  0.472660
0.639546  0.577807  0.404072
0.322680  0.421593  0.449429
0.369352  0.474128  0.515456
0.430247  0.552472  0.589789
0.519136  0.587662  0.573294
0.677555  0.662625  0.549703
0.372969  0.488576  0.521721
0.433789  0.557173  0.595397
0.495094  0.621805  0.655739
0.563116  0.678470  0.702978
0.751588  0.744387  0.649554
0.428939  0.543986  0.584786
0.501919  0.627976  0.665653
0.549508  0.672877  0.712562
0.628754  0.758918  0.802042
0.759881  0.802327  0.764920
0.488792  0.621529  0.658151
0.550656  0.688215  0.721990
0.623015  0.760031  0.809279
0.701313  0.818607  0.863626
0.831048  0.895895  0.897576
