LUT/LUT_13.CUBE
TITLE "LUT_13" 
#LUT size 
LUT_3D_SIZE 8 
DOMAIN_MIN 0.0 0.0 0.0 
DOMAIN_MAX 1.0 1.0 1.0 
#data point 
0.045592  0.040748  0.023044
0.091868  0.089074  0.041304
0.208446  0.166882  0.051708
0.335669  0.217926  0.037923
0.445741  0.264058  0.037600
0.568714  0.299166  0.032633
0.695743  0.335590  0.032648
0.825134  0.359301  0.023600
0.093221  0.089842  0.040885
0.135913  0.119751  0.059686
0.254888  0.197570  0.054545
0.368162  0.255898  0.051516
0.476857  0.303458  0.057687
0.590166  0.338907  0.037295
0.725489  0.388360  0.038829
0.849759  0.421035  0.045261
0.146292  0.132723  0.071693
0.222457  0.190927  0.085836
0.310703  0.242383  0.064654
0.408007  0.300016  0.061225
0.531057  0.343935  0.059836
0.627689  0.402607  0.051973
0.760248  0.437535  0.047490
0.892332  0.477956  0.052157
0.230396  0.200286  0.084278
0.310919  0.255366  0.076175
0.378569  0.311310  0.064864
0.459016  0.371644  0.060650
0.561241  0.413625  0.059196
0.671109  0.471945  0.050036
0.788427  0.503690  0.043994
0.923596  0.532403  0.054078
0.304625  0.264619  0.095606
0.378690  0.326333  0.064564
0.458056  0.400610  0.073345
0.530054  0.452977  0.063593
0.611105  0.513936  0.062852
0.707146  0.568761  0.062292
0.828083  0.597817  0.059164
0.943777  0.641926  0.060335
0.380232  0.334198  0.079293
0.450931  0.405420  0.069085
0.537390  0.472315  0.058639
0.595088  0.528107  0.081746
0.688104  0.596159  0.058562
0.765234  0.656494  0.067923
0.859217  0.701870  0.066903
0.969427  0.737810  0.073206
0.440829  0.411558  0.074173
0.517783  0.466799  0.065583
0.590763  0.540305  0.062713
0.659744  0.591605  0.059759
0.748961  0.647249  0.071267
0.817821  0.705901  0.065642
0.910249  0.757296  0.073421
1.017502  0.811968  0.069071
0.514772  0.479362  0.073976
0.583640  0.536469  0.065871
0.658872  0.601244  0.066827
0.723037  0.653527  0.075640
0.793841  0.697321  0.062150
0.884192  0.746454  0.069396
0.971800  0.804007  0.070193
1.076367  0.855147  0.071440
0.083492  0.082714  0.045829
0.116378  0.111093  0.054725
0.202481  0.169500  0.072705
0.321201  0.226001  0.053905
0.457604  0.277884  0.045798
0.558840  0.303650  0.039860
0.680621  0.348795  0.032910
0.825738  0.375473  0.032780
0.111035  0.124259  0.096834
0.153214  0.155919  0.112892
0.234785  0.211453  0.112641
0.363504  0.275213  0.087050
0.477219  0.323749  0.073597
0.591290  0.365776  0.057643
0.733044  0.398090  0.048759
0.839707  0.432994  0.042579
0.144079  0.171090  0.158093
0.209597  0.210832  0.155105
0.289520  0.260038  0.141629
0.400642  0.311311  0.135138
0.511262  0.370645  0.108722
0.629094  0.416121  0.103858
0.751845  0.460242  0.084556
0.885558  0.502883  0.067306
0.206643  0.230075  0.191402
0.286866  0.272648  0.187150
0.360805  0.326724  0.165402
0.458822  0.383117  0.146202
0.542509  0.419646  0.125846
0.666547  0.480785  0.133298
0.788599  0.512391  0.123055
0.914266  0.564318  0.091062
0.280151  0.281881  0.202571
0.358605  0.329353  0.178718
0.434962  0.392383  0.186870
0.523124  0.464531  0.161724
0.615424  0.520157  0.121915
0.717525  0.566157  0.134111
0.823449  0.604997  0.133974
0.953517  0.643408  0.120408
0.361360  0.342338  0.196971
0.426203  0.408959  0.192023
0.508555  0.461371  0.167057
0.578937  0.525647  0.157514
0.679243  0.596695  0.127754
0.760232  0.646655  0.135003
0.855958  0.706502  0.129246
0.994825  0.745520  0.129047
0.434946  0.406107  0.194885
0.504123  0.463073  0.169968
0.569593  0.522522  0.168237
0.647463  0.589346  0.144463
0.736915  0.653360  0.138749
0.815053  0.703215  0.148840
0.913087  0.770055  0.135606
1.010849  0.812146  0.127373
0.490057  0.468829  0.196310
0.572200  0.548181  0.169408
0.648754  0.596482  0.152205
0.718992  0.652010  0.141345
0.801821  0.712267  0.148307
0.887903  0.763290  0.136949
0.960688  0.810316  0.149060
1.067486  0.863935  0.141216
0.107647  0.137208  0.120974
0.137578  0.166028  0.147598
0.200436  0.202120  0.146536
0.332330  0.261067  0.123431
0.457297  0.303376  0.096429
0.568946  0.342774  0.091515
0.691436  0.373799  0.077585
0.819503  0.404571  0.073593
0.143008  0.185196  0.174982
0.165289  0.218177  0.212848
0.228944  0.261252  0.222927
0.348538  0.303795  0.178181
0.489768  0.358880  0.146448
0.585301  0.390427  0.142461
0.705754  0.439649  0.124644
0.838956  0.472594  0.110586
0.176205  0.237814  0.245571
0.208794  0.263325  0.270983
0.247985  0.285815  0.251488
0.387594  0.365505  0.253381
0.504099  0.407568  0.218794
0.625275  0.442756  0.184219
0.750577  0.506776  0.169509
0.871190  0.531359  0.162681
0.201174  0.275698  0.295191
0.257809  0.317201  0.321416
0.324543  0.353181  0.306757
0.415266  0.408716  0.308534
0.539706  0.456842  0.265499
0.652396  0.502891  0.236076
0.775613  0.550341  0.219864
0.888215  0.588446  0.208101
0.242044  0.318577  0.338088
0.332554  0.368671  0.335171
0.412652  0.413477  0.327552
0.489504  0.471569  0.319084
0.589931  0.523546  0.294747
0.697818  0.575092  0.284528
0.820824  0.626991  0.252058
0.953885  0.655408  0.255139
0.317324  0.376397  0.366934
0.402908  0.414157  0.351692
0.481703  0.475136  0.333450
0.562486  0.531233  0.315582
0.661294  0.612158  0.312742
0.756141  0.658983  0.286010
0.863196  0.705631  0.269364
0.984009  0.751041  0.276555
0.378458  0.409449  0.361068
0.465765  0.468745  0.341106
0.557057  0.535535  0.331596
0.624003  0.586997  0.322710
0.720024  0.656329  0.315249
0.815696  0.710618  0.302504
0.907881  0.763716  0.264851
1.011653  0.819882  0.258276
0.453508  0.459954  0.356078
0.551176  0.536655  0.331118
0.625644  0.599103  0.318972
0.704353  0.648245  0.317043
0.773394  0.700030  0.309270
0.884779  0.764600  0.296855
0.961975  0.810867  0.293512
1.064717  0.872829  0.271626
0.140930  0.187844  0.186139
0.162586  0.210099  0.217527
0.212516  0.256223  0.243256
0.314091  0.307512  0.236801
0.454943  0.347642  0.178608
0.568075  0.379311  0.161387
0.696522  0.414623  0.153254
0.807628  0.441435  0.154861
0.166170  0.218609  0.229845
0.201044  0.262425  0.278866
0.247150  0.309940  0.314158
0.340942  0.348973  0.295834
0.479060  0.401227  0.239584
0.581995  0.433513  0.231408
0.701671  0.464492  0.200529
0.834867  0.509852  0.202247
0.213060  0.276343  0.295019
0.235337  0.313657  0.333999
0.275786  0.353628  0.378861
0.388427  0.408189  0.361100
0.471157  0.454460  0.344553
0.621288  0.494199  0.284046
0.738975  0.543799  0.265409
0.871039  0.587166  0.276702
0.238123  0.327870  0.351179
0.279075  0.365540  0.391751
0.308115  0.402761  0.433384
0.406834  0.442247  0.403995
0.516016  0.501876  0.387317
0.656851  0.546954  0.341441
0.767499  0.590887  0.339303
0.895895  0.631847  0.320425
0.288074  0.376689  0.412253
0.313844  0.418412  0.451370
0.373045  0.452945  0.459783
0.470088  0.502084  0.448875
0.560529  0.559262  0.470653
0.679921  0.598778  0.411066
0.800977  0.657242  0.392827
0.923842  0.709395  0.372827
0.310275  0.418913  0.461950
0.355945  0.454649  0.468068
0.465352  0.496639  0.458125
0.534469  0.545556  0.472740
0.627699  0.605489  0.467542
0.730168  0.674259  0.463543
0.857566  0.729304  0.436020
0.953721  0.764537  0.426890
0.345646  0.463403  0.500559
0.429246  0.500011  0.497878
0.522066  0.548478  0.483911
0.607925  0.601813  0.479759
0.698562  0.668401  0.468784
0.796498  0.720336  0.447095
0.899339  0.781075  0.455500
1.016094  0.828884  0.461592
0.395390  0.500121  0.522251
0.498049  0.538913  0.488554
0.595166  0.599523  0.481741
0.667544  0.658008  0.473366
0.794288  0.719636  0.448660
0.861239  0.767591  0.442527
0.963065  0.824479  0.475526
1.057938  0.874568  0.457365
0.160498  0.231669  0.254987
0.201399  0.273431  0.295696
0.231824  0.308467  0.325974
0.326699  0.350603  0.311466
0.429439  0.399010  0.295590
0.573108  0.432728  0.251695
0.709449  0.475458  0.241866
0.828735  0.479010  0.216134
0.208110  0.285670  0.314406
0.232469  0.316818  0.343899
0.258856  0.348185  0.367699
0.349929  0.406244  0.387188
0.447794  0.449548  0.378409
0.577035  0.486987  0.327183
0.702604  0.522033  0.296530
0.839656  0.551080  0.280509
0.239782  0.335965  0.376715
0.270261  0.368644  0.402089
0.301736  0.403895  0.440273
0.380621  0.456722  0.456650
0.480011  0.500649  0.436706
0.590687  0.544661  0.412268
0.732857  0.584002  0.359836
0.863123  0.617401  0.346668
0.272929  0.376214  0.416461
0.315302  0.418385  0.447952
0.346098  0.456345  0.495829
0.390416  0.492219  0.516214
0.514312  0.548307  0.503173
0.625288  0.596828  0.484126
0.761173  0.639140  0.443344
0.882277  0.684775  0.411133
0.317883  0.424330  0.469830
0.349549  0.468301  0.511263
0.392676  0.511267  0.550586
0.440820  0.555653  0.587215
0.563604  0.604911  0.561972
0.664853  0.651907  0.553347
0.794700  0.699473  0.495654
0.924429  0.750306  0.477744
0.354459  0.467963  0.514860
0.386364  0.505652  0.545431
0.436647  0.562406  0.593213
0.488424  0.602222  0.624302
0.601320  0.636979  0.591167
0.714485  0.707087  0.606296
0.826778  0.755383  0.584336
0.949972  0.793703  0.539391
0.383877  0.510148  0.555453
0.419542  0.551111  0.594777
0.478496  0.597258  0.630117
0.566098  0.635819  0.615575
0.682349  0.694538  0.603063
0.771455  0.742570  0.613328
0.887864  0.800319  0.600982
0.999686  0.852565  0.583779
0.431043  0.561116  0.605692
0.459516  0.598035  0.634262
0.547349  0.633725  0.628783
0.658615  0.678592  0.620405
0.753584  0.735837  0.619715
0.842784  0.781882  0.606613
0.953597  0.838225  0.608996
1.056394  0.884312  0.596372
0.201326  0.299612  0.346705
0.225755  0.327485  0.367612
0.261437  0.365399  0.409741
0.329355  0.399210  0.399417
0.441609  0.440493  0.370595
0.547798  0.476581  0.358885
0.682002  0.500736  0.324778
0.828470  0.523330  0.315340
0.234612  0.339743  0.394971
0.273970  0.377300  0.427772
0.307668  0.414687  0.457244
0.351249  0.449121  0.474381
0.456987  0.495223  0.452360
0.570080  0.539957  0.441333
0.700575  0.586411  0.416148
0.847780  0.612996  0.376246
0.278729  0.384243  0.432182
0.314441  0.429548  0.473140
0.348335  0.466933  0.513455
0.392793  0.502980  0.539470
0.476756  0.540627  0.527300
0.605979  0.602816  0.518808
0.720292  0.640086  0.480734
0.857905  0.671566  0.445331
0.313088  0.430234  0.477195
0.358113  0.474483  0.521334
0.389462  0.519441  0.564206
0.431377  0.551054  0.585948
0.489473  0.593640  0.614066
0.622550  0.638468  0.561459
0.746639  0.689437  0.539836
0.877401  0.747995  0.537785
0.354717  0.479462  0.531746
0.389616  0.521612  0.565802
0.432966  0.561294  0.604224
0.471967  0.596577  0.640998
0.534600  0.652661  0.679837
0.649402  0.689746  0.641073
0.773528  0.740928  0.617889
0.916872  0.800059  0.587951
0.385778  0.520206  0.571087
0.424808  0.558416  0.609537
0.475739  0.605313  0.648742
0.518639  0.651866  0.693647
0.571246  0.698695  0.736121
0.696737  0.746720  0.708261
0.825806  0.791663  0.687626
0.947262  0.839666  0.659594
0.432282  0.569164  0.620283
0.476501  0.618495  0.657314
0.521314  0.662665  0.702822
0.559312  0.689906  0.724594
0.633580  0.738621  0.753698
0.747768  0.782884  0.742671
0.875502  0.835218  0.726491
0.970040  0.869140  0.709643
0.467623  0.611341  0.662549
0.496295  0.646593  0.703382
0.538350  0.696686  0.751587
0.606690  0.734644  0.764078
0.709065  0.785304  0.778395
0.834915  0.825833  0.741614
0.924337  0.870679  0.741653
1.032916  0.910464  0.730154
0.216589  0.346097  0.421635
0.262036  0.388227  0.456220
0.298496  0.427577  0.482057
0.341278  0.464961  0.516349
0.422383  0.494397  0.483647
0.541340  0.530578  0.458004
0.672556  0.556396  0.417651
0.815369  0.570470  0.405913
0.269910  0.403188  0.469016
0.307261  0.433108  0.488460
0.349757  0.473712  0.521343
0.386050  0.523028  0.572378
0.434752  0.540333  0.564887
0.573102  0.584857  0.513284
0.688662  0.621632  0.497904
0.819209  0.656446  0.469761
0.309254  0.440754  0.503219
0.348577  0.479634  0.537396
0.396693  0.520835  0.569806
0.435871  0.568222  0.610697
0.484662  0.605704  0.641185
0.593654  0.640903  0.594281
0.708788  0.685920  0.582300
0.840915  0.727800  0.559729
0.347669  0.483250  0.542033
0.387163  0.518212  0.569214
0.439467  0.575483  0.621253
0.484338  0.623568  0.668602
0.538115  0.668192  0.704530
0.610810  0.693868  0.679132
0.752876  0.741465  0.646508
0.876105  0.786275  0.623782
0.383649  0.523733  0.577983
0.435603  0.574628  0.624004
0.476140  0.611194  0.658828
0.521269  0.672606  0.723415
0.560300  0.716339  0.772253
0.641264  0.740922  0.753279
0.781752  0.785357  0.705346
0.906309  0.834525  0.700697
0.424716  0.574440  0.628744
0.474330  0.615286  0.663740
0.518885  0.670277  0.722751
0.560641  0.713888  0.777938
0.603770  0.748237  0.815295
0.674933  0.795206  0.835650
0.798181  0.831070  0.798219
0.940041  0.876283  0.755782
0.463434  0.620812  0.673382
0.500978  0.655430  0.712607
0.545275  0.702831  0.771349
0.604310  0.748010  0.826932
0.653984  0.784839  0.843926
0.727716  0.834732  0.881392
0.828156  0.881690  0.885254
0.976839  0.911422  0.809065
0.497732  0.652928  0.722105
0.532832  0.698550  0.769406
0.578877  0.737203  0.808341
0.635461  0.778570  0.852014
0.699127  0.817904  0.872410
0.783461  0.879263  0.919589
0.892676  0.920820  0.915236
1.009939  0.953311  0.867187
0.196047  0.399824  0.531062
0.259022  0.444085  0.541828
0.329803  0.489003  0.565312
0.362317  0.522880  0.592795
0.418445  0.571352  0.624154
0.521822  0.593280  0.581646
0.679461  0.612391  0.532594
0.824833  0.627941  0.508614
0.251364  0.448618  0.561518
0.336668  0.495489  0.561782
0.384878  0.538207  0.602255
0.417489  0.576909  0.638527
0.464670  0.621211  0.678051
0.544909  0.657408  0.676487
0.669392  0.684696  0.617528
0.820332  0.709819  0.569466
0.327299  0.490840  0.570119
0.380195  0.539110  0.598114
0.436793  0.584162  0.646364
0.477366  0.631565  0.691646
0.510166  0.672336  0.741311
0.580517  0.716348  0.763114
0.699275  0.733569  0.688744
0.853932  0.782569  0.655130
0.377463  0.530516  0.595339
0.420828  0.574279  0.635711
0.474115  0.631977  0.685970
0.511674  0.677229  0.749772
0.548175  0.707870  0.788924
0.613189  0.755149  0.814073
0.703119  0.797140  0.808751
0.858790  0.825658  0.726183
0.416645  0.574919  0.634645
0.465542  0.616812  0.668120
0.501917  0.660225  0.725540
0.547469  0.704672  0.776108
0.591593  0.745042  0.817041
0.655401  0.789216  0.854851
0.743536  0.853181  0.891858
0.884616  0.879070  0.824470
0.443491  0.605589  0.668011
0.499824  0.656183  0.711877
0.539203  0.703653  0.771637
0.586296  0.742498  0.815772
0.641936  0.778890  0.848606
0.716791  0.829222  0.877052
0.796730  0.888873  0.928785
0.888408  0.926595  0.919826
0.488569  0.656288  0.728964
0.527689  0.698665  0.776531
0.575724  0.732008  0.809940
0.629932  0.766644  0.841181
0.684983  0.815406  0.863205
0.764584  0.869468  0.912149
0.846708  0.917009  0.946461
0.936150  0.966101  0.979812
0.507837  0.685509  0.773748
0.554989  0.718856  0.808547
0.611283  0.765025  0.841082
0.687744  0.809218  0.874679
0.742526  0.851368  0.901172
0.824570  0.908279  0.937642
0.901918  0.948919  0.965550
0.977799  0.983625  0.997445
