LUT/LUT_27.CUBE
TITLE "LUT_27" 
#LUT size 
LUT_3D_SIZE 15 
DOMAIN_MIN 0.0 0.0 0.0 
DOMAIN_MAX 1.0 1.0 1.0 
#data point 
0.069120  0.070713  0.030719
0.084800  0.078801  0.034773
0.098854  0.098070  0.048236
0.124863  0.119482  0.063950
0.186227  0.159831  0.070381
0.246885  0.201579  0.078141
0.313662  0.235730  0.061841
0.349633  0.265958  0.067050
0.422203  0.305627  0.060917
0.463483  0.331694  0.067639
0.526778  0.356722  0.059468
0.557796  0.388004  0.057897
0.628241  0.407110  0.050273
0.683693  0.443154  0.059965
0.750721  0.468673  0.054516
0.085236  0.081390  0.037014
0.092715  0.082440  0.037190
0.114515  0.110283  0.057286
0.152220  0.138986  0.067261
0.200723  0.175926  0.081675
0.265619  0.218584  0.083564
0.326702  0.254596  0.077075
0.387878  0.282758  0.068104
0.428973  0.318085  0.068297
0.470691  0.336242  0.055635
0.536747  0.368984  0.058883
0.595319  0.409367  0.064867
0.663249  0.443605  0.055900
0.702630  0.471309  0.053538
0.765557  0.479767  0.061055
0.108471  0.101851  0.050117
0.099209  0.093251  0.048319
0.128428  0.117968  0.056651
0.163714  0.157455  0.082394
0.229998  0.195954  0.088698
0.284024  0.225403  0.078837
0.355248  0.269878  0.089765
0.396807  0.295730  0.068271
0.462405  0.328259  0.070831
0.500649  0.365061  0.069282
0.545168  0.386710  0.066765
0.623460  0.433615  0.067177
0.660462  0.449785  0.065449
0.728479  0.472379  0.063316
0.781523  0.504912  0.058029
0.117130  0.110033  0.059223
0.135872  0.121499  0.065372
0.160359  0.145980  0.070838
0.208257  0.179215  0.086283
0.267613  0.223628  0.084565
0.313704  0.254705  0.090164
0.374108  0.286030  0.069459
0.428314  0.319710  0.079187
0.481717  0.351850  0.063790
0.514965  0.373873  0.060072
0.571165  0.404736  0.069247
0.632764  0.436694  0.076639
0.675644  0.465039  0.054702
0.754144  0.493050  0.057462
0.807374  0.536503  0.056840
0.150417  0.141102  0.082348
0.169199  0.157037  0.083483
0.217356  0.191337  0.095279
0.248113  0.208832  0.097265
0.295431  0.240149  0.084555
0.357750  0.275791  0.088203
0.395443  0.312384  0.085621
0.452627  0.334337  0.079379
0.503740  0.373376  0.075980
0.555499  0.403220  0.064370
0.592942  0.434718  0.072422
0.668727  0.477668  0.067257
0.705003  0.487134  0.065133
0.763382  0.522033  0.064522
0.828998  0.549777  0.060342
0.167537  0.165159  0.099560
0.211885  0.187186  0.088990
0.248110  0.207729  0.092117
0.299955  0.243809  0.086437
0.342682  0.269866  0.074373
0.370711  0.286618  0.091879
0.417221  0.327364  0.077909
0.490637  0.363013  0.082883
0.523142  0.380293  0.073210
0.556616  0.415038  0.072656
0.628510  0.460004  0.063998
0.667612  0.488750  0.073719
0.740768  0.516139  0.069760
0.791830  0.548466  0.070993
0.841311  0.563761  0.066768
0.227089  0.195899  0.085472
0.257179  0.221510  0.107009
0.308513  0.250457  0.106556
0.344705  0.283541  0.094359
0.384258  0.299670  0.085308
0.422479  0.336277  0.090997
0.451398  0.346652  0.081114
0.513628  0.401652  0.090739
0.551466  0.413385  0.077489
0.618883  0.475898  0.075295
0.658352  0.480536  0.070985
0.688384  0.508994  0.075139
0.748818  0.538419  0.076725
0.811124  0.573450  0.069430
0.873787  0.600789  0.068326
0.278886  0.238278  0.109343
0.307689  0.253411  0.104197
0.334245  0.267653  0.101680
0.382735  0.297606  0.087811
0.431057  0.337865  0.093342
0.466759  0.368606  0.075559
0.485895  0.383409  0.081037
0.543945  0.415349  0.075987
0.586221  0.455699  0.079391
0.637892  0.492435  0.070285
0.677948  0.526051  0.077643
0.728874  0.559179  0.078521
0.778449  0.585662  0.079949
0.845071  0.611322  0.076328
0.905405  0.640505  0.066546
0.300387  0.253644  0.111331
0.359642  0.287150  0.103219
0.385445  0.294708  0.083202
0.418658  0.322693  0.084347
0.471941  0.373800  0.090657
0.496045  0.392057  0.086328
0.530209  0.415393  0.083471
0.578795  0.454714  0.082593
0.614971  0.501179  0.069949
0.670778  0.539872  0.074470
0.694823  0.562417  0.074995
0.743110  0.593412  0.089505
0.809963  0.613399  0.080523
0.844190  0.661041  0.083071
0.918792  0.680516  0.075227
0.367151  0.299269  0.108748
0.396806  0.314112  0.093753
0.427267  0.336468  0.087866
0.460089  0.366313  0.094838
0.496753  0.391072  0.079784
0.534490  0.423599  0.085657
0.580856  0.464420  0.078395
0.628788  0.498654  0.081916
0.658226  0.536259  0.071873
0.700610  0.582907  0.075920
0.748620  0.606519  0.077590
0.775214  0.630729  0.071863
0.824916  0.665035  0.079703
0.871918  0.677418  0.080544
0.925013  0.716090  0.084856
0.384874  0.314607  0.110175
0.426741  0.343268  0.091765
0.461548  0.384751  0.088097
0.497375  0.396837  0.084617
0.561413  0.440612  0.090466
0.582316  0.469038  0.079722
0.611129  0.488434  0.086403
0.662230  0.543067  0.072253
0.700271  0.581820  0.073627
0.726023  0.594417  0.068179
0.781335  0.651381  0.073815
0.800729  0.656313  0.080794
0.856810  0.704250  0.072069
0.915306  0.721491  0.077072
0.948469  0.751375  0.090878
0.435241  0.344318  0.086699
0.463999  0.373544  0.094383
0.501024  0.402713  0.089825
0.541663  0.426491  0.086855
0.577398  0.471429  0.073345
0.626814  0.506304  0.077613
0.648440  0.538078  0.076283
0.675411  0.563963  0.073963
0.735084  0.619211  0.084043
0.758065  0.634835  0.072094
0.798293  0.670320  0.087023
0.846401  0.698621  0.079254
0.889566  0.710637  0.071265
0.921802  0.753331  0.081258
0.984006  0.773371  0.076600
0.469153  0.378037  0.091288
0.496607  0.404377  0.075966
0.528378  0.425585  0.086132
0.584312  0.471179  0.075294
0.623065  0.504124  0.087663
0.649167  0.536815  0.087511
0.696670  0.572153  0.074644
0.725324  0.582961  0.080881
0.759380  0.628133  0.084178
0.784004  0.654402  0.081247
0.832334  0.683729  0.080624
0.892857  0.717911  0.083885
0.910337  0.742656  0.086090
0.950949  0.770253  0.074933
1.023880  0.791003  0.086596
0.506618  0.411524  0.086078
0.544626  0.456694  0.084020
0.580453  0.479975  0.073544
0.620580  0.507439  0.085830
0.650169  0.540839  0.082639
0.674411  0.555035  0.069034
0.722486  0.599647  0.070535
0.764363  0.624549  0.078450
0.781031  0.648463  0.083185
0.813731  0.669269  0.082292
0.858973  0.695379  0.075111
0.893646  0.731080  0.083926
0.941880  0.759877  0.085755
0.986246  0.792232  0.088280
1.020116  0.802161  0.083334
0.540874  0.433619  0.090939
0.572239  0.462436  0.093325
0.607831  0.506582  0.086480
0.652393  0.538695  0.066355
0.690548  0.563762  0.074811
0.705712  0.587625  0.085950
0.749134  0.617030  0.088497
0.788324  0.658691  0.085413
0.805002  0.668257  0.081484
0.851885  0.703532  0.080792
0.885623  0.722630  0.091131
0.924631  0.755934  0.081983
0.971727  0.775222  0.087114
1.016308  0.804365  0.078613
1.077251  0.842011  0.084418
0.078019  0.073465  0.039782
0.091925  0.084785  0.041662
0.102949  0.095082  0.043526
0.124358  0.112080  0.057009
0.171064  0.149346  0.066571
0.241346  0.194796  0.069042
0.314851  0.250726  0.077335
0.363355  0.273888  0.065793
0.418778  0.300635  0.063213
0.448414  0.311646  0.060071
0.519158  0.353685  0.061652
0.569901  0.386600  0.059460
0.636241  0.417667  0.055905
0.682102  0.446612  0.056549
0.732642  0.469854  0.053991
0.096300  0.082226  0.039670
0.098887  0.089906  0.041839
0.117255  0.108259  0.055248
0.154965  0.138469  0.068857
0.201949  0.176507  0.085214
0.280068  0.230548  0.077432
0.328032  0.250215  0.072151
0.369978  0.284659  0.075643
0.430855  0.315955  0.069649
0.497794  0.351458  0.066822
0.522865  0.370495  0.056979
0.582105  0.398808  0.055328
0.650231  0.443227  0.057079
0.703434  0.457196  0.064098
0.765189  0.495807  0.056887
0.102783  0.096902  0.043934
0.115689  0.109255  0.060301
0.146660  0.132843  0.070655
0.173383  0.159962  0.077864
0.213868  0.195145  0.091658
0.301887  0.242977  0.075032
0.331632  0.256171  0.069022
0.396913  0.298356  0.079571
0.449466  0.327972  0.073491
0.493852  0.353152  0.067133
0.552744  0.388639  0.065536
0.609497  0.429825  0.061232
0.678096  0.450920  0.055729
0.720330  0.488928  0.061663
0.802567  0.513086  0.057815
0.127611  0.126423  0.069469
0.145343  0.135484  0.075902
0.165649  0.156391  0.092802
0.193323  0.178562  0.096462
0.253963  0.222117  0.095230
0.326344  0.260541  0.085065
0.358040  0.285738  0.090617
0.430584  0.330493  0.085159
0.474887  0.355611  0.086206
0.514218  0.374082  0.074567
0.577487  0.412712  0.078814
0.633669  0.447104  0.070401
0.683623  0.470264  0.057680
0.720961  0.492304  0.069884
0.808487  0.536232  0.060554
0.162057  0.154733  0.089034
0.166328  0.163092  0.098622
0.203531  0.191873  0.112935
0.241523  0.209114  0.107552
0.295543  0.251887  0.117967
0.346038  0.277581  0.090187
0.391279  0.309934  0.092848
0.440199  0.335513  0.078932
0.496804  0.377889  0.086212
0.541312  0.411660  0.090250
0.585805  0.427933  0.069453
0.649649  0.465158  0.065639
0.713834  0.499275  0.082895
0.774295  0.520096  0.065350
0.807819  0.550298  0.065878
0.182010  0.176182  0.099797
0.210517  0.191930  0.108124
0.246023  0.226298  0.130138
0.291794  0.247489  0.126539
0.343660  0.274682  0.103535
0.397690  0.307475  0.098831
0.449141  0.338890  0.086042
0.466986  0.357227  0.108858
0.512881  0.391642  0.084352
0.563425  0.424382  0.100774
0.608355  0.457456  0.080050
0.665627  0.490346  0.073251
0.719582  0.512916  0.078937
0.798526  0.551362  0.063066
0.862089  0.592348  0.065093
0.230592  0.221466  0.147332
0.265306  0.230580  0.116140
0.282177  0.251386  0.141605
0.321429  0.272342  0.130094
0.386357  0.307229  0.107330
0.420431  0.338169  0.100476
0.468039  0.359904  0.093465
0.506801  0.395403  0.103804
0.541853  0.424034  0.104632
0.592700  0.451134  0.093048
0.656694  0.492378  0.086562
0.692147  0.526624  0.077784
0.758507  0.548594  0.070868
0.812744  0.580004  0.066267
0.867647  0.610995  0.063227
0.261404  0.240713  0.125849
0.287181  0.262584  0.131908
0.337073  0.294015  0.145160
0.369544  0.314296  0.142085
0.423687  0.340451  0.098850
0.455234  0.363576  0.103545
0.513118  0.403966  0.096217
0.548001  0.424505  0.088652
0.587420  0.454438  0.090948
0.615105  0.483498  0.085152
0.675638  0.528984  0.081271
0.722013  0.550318  0.078367
0.783904  0.580960  0.066657
0.832926  0.599787  0.073565
0.912067  0.627460  0.077504
0.309449  0.262373  0.134626
0.347643  0.296329  0.146814
0.379760  0.313514  0.118658
0.400653  0.327070  0.121861
0.450241  0.361717  0.112479
0.501352  0.396739  0.109051
0.534061  0.426149  0.112683
0.584564  0.464918  0.081721
0.614493  0.490663  0.086923
0.672458  0.543588  0.094115
0.704778  0.565373  0.089645
0.753866  0.594877  0.088176
0.798477  0.619009  0.081247
0.865377  0.660507  0.096479
0.907672  0.672133  0.083509
0.326463  0.285169  0.126357
0.390886  0.321308  0.126459
0.418775  0.343906  0.136202
0.471852  0.370844  0.105407
0.496348  0.403420  0.105452
0.554513  0.437616  0.091700
0.589747  0.480711  0.106018
0.617770  0.504598  0.097503
0.663876  0.542567  0.094776
0.689793  0.572072  0.095010
0.750096  0.613068  0.073568
0.777530  0.630326  0.079420
0.831280  0.650068  0.073538
0.881873  0.689172  0.080177
0.943765  0.719318  0.083902
0.370754  0.323978  0.149857
0.394715  0.331989  0.142111
0.434217  0.362102  0.125409
0.502056  0.404360  0.110054
0.541647  0.430858  0.114754
0.585803  0.474017  0.096496
0.633708  0.517435  0.084566
0.665723  0.546207  0.092556
0.699828  0.579580  0.089737
0.732177  0.610510  0.084308
0.781430  0.630824  0.083277
0.822813  0.667561  0.092925
0.855356  0.683147  0.068008
0.918378  0.719494  0.092917
0.951195  0.728212  0.095903
0.407342  0.341822  0.132160
0.450887  0.372400  0.132847
0.502787  0.423102  0.114103
0.532361  0.428229  0.105538
0.576104  0.481430  0.112212
0.614592  0.501685  0.097085
0.636510  0.519046  0.108896
0.681230  0.563736  0.104316
0.719857  0.588262  0.087263
0.738152  0.621653  0.089883
0.797395  0.654081  0.075719
0.854060  0.683241  0.100009
0.895169  0.726006  0.092828
0.919104  0.747626  0.087130
0.972126  0.772261  0.081203
0.470016  0.382837  0.124585
0.516982  0.426797  0.083838
0.547081  0.440965  0.114285
0.600557  0.480582  0.094283
0.613182  0.495250  0.090619
0.657108  0.540635  0.108490
0.700397  0.577904  0.094855
0.714880  0.584118  0.094757
0.762431  0.625515  0.095628
0.790918  0.657771  0.095051
0.825406  0.681938  0.096796
0.884182  0.716006  0.100031
0.909765  0.748823  0.092308
0.982413  0.771684  0.085597
1.005251  0.783587  0.088350
0.490007  0.400711  0.127927
0.523082  0.419575  0.112463
0.573761  0.466577  0.090729
0.592839  0.481562  0.096046
0.654816  0.540581  0.096424
0.678070  0.556950  0.082373
0.702782  0.590676  0.108260
0.764958  0.635497  0.083155
0.790222  0.648645  0.090473
0.821745  0.683350  0.102503
0.863913  0.712766  0.095047
0.884742  0.727757  0.098799
0.936841  0.757799  0.097590
0.985537  0.785527  0.084442
1.024376  0.813584  0.093468
0.545319  0.436604  0.122233
0.580195  0.476126  0.095411
0.596192  0.482259  0.105113
0.638581  0.516962  0.101716
0.671000  0.557083  0.094864
0.714360  0.590216  0.094008
0.750268  0.616440  0.091496
0.779367  0.645977  0.106224
0.813327  0.676330  0.104787
0.855350  0.704268  0.099578
0.897188  0.731039  0.110286
0.918601  0.752214  0.098454
0.974024  0.787510  0.095757
1.031128  0.812996  0.091091
1.078616  0.838509  0.101458
0.098696  0.090461  0.045980
0.111632  0.103915  0.063022
0.115171  0.114454  0.057652
0.157151  0.146639  0.073122
0.187027  0.165191  0.083991
0.242835  0.198559  0.079309
0.300458  0.241056  0.081152
0.373226  0.281145  0.066786
0.420382  0.302803  0.067860
0.464296  0.332679  0.075298
0.514692  0.360140  0.060792
0.571534  0.393026  0.066652
0.625938  0.423100  0.061705
0.695468  0.460428  0.054619
0.755510  0.470093  0.054690
0.114557  0.111675  0.062095
0.123300  0.121161  0.075992
0.140227  0.135399  0.078235
0.156365  0.145861  0.083403
0.219872  0.193761  0.095168
0.280725  0.241290  0.084906
0.344464  0.263472  0.090041
0.377380  0.285366  0.082412
0.445612  0.331253  0.065079
0.485988  0.347959  0.067479
0.541539  0.385454  0.071035
0.589162  0.411821  0.060371
0.649400  0.445670  0.070171
0.732431  0.477210  0.061754
0.764943  0.495911  0.065300
0.125629  0.123472  0.069666
0.138092  0.144398  0.104419
0.160590  0.162719  0.097537
0.182313  0.175019  0.108877
0.224533  0.200104  0.100863
0.294436  0.255481  0.116592
0.328668  0.271207  0.100297
0.389792  0.311537  0.095563
0.453352  0.340586  0.088516
0.516990  0.376926  0.092023
0.556173  0.403697  0.070174
0.609274  0.431124  0.075258
0.679280  0.455709  0.058911
0.726902  0.483494  0.064920
0.784096  0.508290  0.059616
0.150937  0.160514  0.109912
0.152441  0.161263  0.115758
0.165262  0.178249  0.139196
0.201346  0.196235  0.130843
0.234203  0.216387  0.127779
0.320558  0.278193  0.123045
0.372895  0.300759  0.126602
0.408717  0.318037  0.119209
0.481828  0.371667  0.092689
0.529538  0.388874  0.092158
0.569397  0.420501  0.083951
0.637976  0.450552  0.072440
0.682387  0.481858  0.077646
0.726968  0.496570  0.072485
0.800492  0.533397  0.068202
0.157724  0.169119  0.132457
0.188475  0.208812  0.174186
0.203487  0.208468  0.147029
0.228114  0.224936  0.154847
0.286552  0.260527  0.154096
0.333558  0.286168  0.142026
0.384685  0.322315  0.124124
0.449013  0.355909  0.120115
0.492333  0.386077  0.112904
0.544911  0.413425  0.104911
0.604132  0.443423  0.103717
0.661859  0.473000  0.092555
0.701575  0.499908  0.081362
0.764387  0.545271  0.081546
0.822591  0.566444  0.079346
0.169257  0.196089  0.164728
0.193868  0.207747  0.161694
0.231218  0.239275  0.168249
0.266891  0.248219  0.157370
0.311598  0.274543  0.165353
0.358367  0.315820  0.169905
0.416813  0.341304  0.146357
0.471135  0.369029  0.127982
0.532775  0.411903  0.102418
0.574561  0.438038  0.115346
0.630931  0.466617  0.096712
0.667291  0.501139  0.117273
0.718901  0.516501  0.088084
0.784470  0.570650  0.088960
0.836621  0.586151  0.078799
0.207545  0.225540  0.182435
0.234821  0.237822  0.179096
0.277998  0.268180  0.187308
0.318664  0.293686  0.177553
0.343142  0.307622  0.165736
0.395502  0.338782  0.161856
0.452332  0.367286  0.156944
0.495289  0.397847  0.138585
0.535383  0.415313  0.136579
0.583603  0.457312  0.122858
0.635611  0.491179  0.131701
0.703658  0.533067  0.130860
0.748205  0.558543  0.123454
0.817908  0.590725  0.107956
0.859431  0.614860  0.088427
0.265628  0.268670  0.206799
0.281508  0.284432  0.210668
0.330636  0.301659  0.187908
0.355057  0.321820  0.178822
0.393284  0.341674  0.178675
0.440522  0.371500  0.154379
0.494109  0.409518  0.169554
0.541727  0.437423  0.144327
0.597041  0.468097  0.126588
0.644682  0.500803  0.126965
0.679477  0.518935  0.126000
0.713802  0.547179  0.136745
0.770628  0.588090  0.116661
0.833342  0.620860  0.111378
0.883711  0.642799  0.107980
0.286453  0.279504  0.207750
0.330153  0.305396  0.189236
0.347426  0.311567  0.183500
0.402111  0.353384  0.188847
0.434053  0.372383  0.192320
0.463560  0.389122  0.181768
0.537843  0.438241  0.169926
0.563444  0.466244  0.134374
0.621939  0.501853  0.120211
0.666184  0.525219  0.124715
0.715400  0.564259  0.112878
0.746579  0.599856  0.129747
0.806141  0.625962  0.125902
0.854858  0.653803  0.129270
0.923389  0.680351  0.122076
0.317425  0.303689  0.219761
0.356523  0.331877  0.202295
0.397185  0.345757  0.177247
0.425553  0.374258  0.203690
0.464508  0.395465  0.191582
0.525639  0.430063  0.170093
0.572699  0.467094  0.168724
0.599564  0.491813  0.126984
0.664091  0.530628  0.140431
0.700154  0.578451  0.116471
0.744854  0.614149  0.129241
0.789442  0.633548  0.123995
0.837877  0.656594  0.145677
0.868765  0.696793  0.131959
0.920411  0.701837  0.122580
0.367363  0.336009  0.195359
0.392018  0.353827  0.200264
0.436906  0.384041  0.198514
0.497903  0.411276  0.167391
0.515380  0.435293  0.163292
0.552119  0.455579  0.175933
0.580412  0.492047  0.150562
0.647415  0.540361  0.145413
0.687414  0.569543  0.116451
0.725165  0.601913  0.125674
0.764100  0.631727  0.114903
0.798848  0.660167  0.122638
0.865676  0.705528  0.133233
0.906316  0.714092  0.129450
0.979997  0.757479  0.138915
0.405302  0.357497  0.201875
0.434300  0.380674  0.201450
0.494207  0.409821  0.184804
0.517645  0.432908  0.183104
0.565620  0.467056  0.176554
0.601721  0.499394  0.153052
0.628164  0.516566  0.150987
0.676599  0.558860  0.134403
0.722082  0.596461  0.150956
0.780495  0.637034  0.117931
0.794464  0.657645  0.124742
0.831248  0.692234  0.131136
0.886767  0.724782  0.123277
0.939644  0.759742  0.134850
0.983700  0.777066  0.143381
0.432217  0.379862  0.205987
0.458943  0.402653  0.197287
0.522555  0.432262  0.170244
0.545242  0.451985  0.193910
0.591174  0.493430  0.175365
0.643387  0.536725  0.167076
0.682727  0.561480  0.130111
0.709392  0.590416  0.139959
0.754905  0.627130  0.134918
0.785581  0.655372  0.133204
0.825338  0.692216  0.138253
0.863951  0.711520  0.142275
0.912748  0.744261  0.119213
0.962573  0.777811  0.149488
1.002574  0.782100  0.131768
0.466493  0.403825  0.206826
0.514739  0.437803  0.182653
0.530152  0.444886  0.189251
0.587565  0.495940  0.158593
0.621681  0.525485  0.151986
0.682028  0.571285  0.135015
0.712898  0.588006  0.139241
0.752132  0.637108  0.122731
0.781524  0.643196  0.138652
0.810984  0.674506  0.130924
0.842708  0.696991  0.131000
0.903802  0.741789  0.135478
0.932791  0.755989  0.132341
0.991038  0.789544  0.132234
1.031424  0.814939  0.146765
0.504620  0.439555  0.208682
0.554614  0.468253  0.200588
0.591704  0.503264  0.164189
0.629304  0.531963  0.156840
0.680034  0.552177  0.159986
0.698885  0.589894  0.147998
0.753276  0.629054  0.138912
0.780813  0.641982  0.134155
0.808758  0.679907  0.133612
0.864547  0.715879  0.141376
0.896608  0.736501  0.118820
0.920199  0.750159  0.141775
0.965197  0.782975  0.141197
1.027208  0.802432  0.123408
1.065628  0.834452  0.135378
0.117129  0.119217  0.073998
0.123772  0.118551  0.066605
0.147282  0.148538  0.099739
0.157037  0.164962  0.119041
0.197542  0.183154  0.091663
0.243666  0.209459  0.095752
0.317481  0.260746  0.095399
0.383464  0.292890  0.091306
0.402690  0.306764  0.082423
0.472943  0.341030  0.082190
0.512921  0.375983  0.079912
0.578347  0.400859  0.073153
0.616177  0.426328  0.070803
0.696891  0.451824  0.049793
0.747194  0.474100  0.057665
0.130976  0.138668  0.098706
0.137816  0.148880  0.112410
0.155533  0.162886  0.116770
0.181418  0.186755  0.130298
0.209773  0.203863  0.130690
0.262358  0.234889  0.117762
0.330431  0.284189  0.115430
0.385808  0.313607  0.109990
0.429608  0.329048  0.090280
0.480842  0.361030  0.087408
0.543692  0.391661  0.082802
0.594189  0.415698  0.079334
0.665550  0.456104  0.079553
0.710806  0.472580  0.061915
0.780365  0.506829  0.064152
0.140285  0.150190  0.112934
0.159384  0.169659  0.141808
0.176340  0.191547  0.153042
0.198540  0.209412  0.174862
0.224241  0.226879  0.158599
0.292061  0.256817  0.141950
0.350295  0.292354  0.134846
0.397951  0.325409  0.128126
0.457743  0.353795  0.105040
0.510488  0.382814  0.101336
0.553113  0.415806  0.099784
0.621678  0.440183  0.084616
0.653363  0.461535  0.086645
0.729657  0.499938  0.076346
0.811542  0.537454  0.064690
0.155697  0.176239  0.150324
0.172008  0.201891  0.176612
0.185077  0.214967  0.191452
0.202616  0.227456  0.189053
0.263199  0.256808  0.188659
0.301039  0.284068  0.173439
0.368924  0.318051  0.156318
0.413358  0.336718  0.130594
0.485094  0.380401  0.116415
0.538924  0.418595  0.110353
0.564968  0.418075  0.116477
0.627085  0.461254  0.102733
0.690892  0.498394  0.100531
0.736724  0.510048  0.083903
0.805215  0.539200  0.102371
0.175845  0.210569  0.197596
0.192791  0.232766  0.207398
0.195462  0.231184  0.211815
0.237636  0.251473  0.205348
0.267008  0.274405  0.205921
0.316278  0.303881  0.196116
0.357804  0.327398  0.188026
0.446832  0.365941  0.160988
0.480567  0.376109  0.155529
0.552307  0.420342  0.122066
0.598317  0.460111  0.125688
0.639025  0.482828  0.127169
0.697787  0.519049  0.132075
0.751543  0.550060  0.110125
0.824932  0.573734  0.101932
0.194162  0.223569  0.209988
0.204460  0.239370  0.212920
0.233661  0.263050  0.238368
0.245783  0.274487  0.241216
0.293565  0.310160  0.244009
0.352181  0.330819  0.216853
0.420440  0.365502  0.183001
0.462666  0.386196  0.201282
0.508185  0.408089  0.171261
0.543401  0.425758  0.168959
0.610650  0.477608  0.152491
0.659038  0.516573  0.145787
0.734980  0.544425  0.129156
0.774254  0.583165  0.139343
0.823084  0.591372  0.135473
0.220626  0.256350  0.246781
0.226340  0.260293  0.236312
0.261137  0.288916  0.255097
0.296310  0.312911  0.260516
0.332433  0.325020  0.236043
0.389940  0.366109  0.249195
0.427427  0.383469  0.210388
0.490782  0.407555  0.215872
0.536374  0.441832  0.197043
0.579384  0.457317  0.162501
0.628921  0.479607  0.170183
0.709602  0.535768  0.152314
0.738992  0.566898  0.163707
0.794639  0.606363  0.135565
0.865558  0.638878  0.152059
0.223266  0.268384  0.251666
0.271275  0.300217  0.266153
0.299776  0.320836  0.276136
0.337222  0.340938  0.264791
0.370129  0.350909  0.241493
0.432041  0.382631  0.214555
0.466837  0.403583  0.232309
0.528550  0.441279  0.217479
0.560334  0.461403  0.218298
0.615687  0.497404  0.191428
0.687161  0.545488  0.164323
0.720522  0.569767  0.185600
0.791348  0.599182  0.163181
0.814682  0.619896  0.178229
0.873168  0.636455  0.178023
0.270487  0.299990  0.264559
0.289973  0.314110  0.277686
0.323629  0.339407  0.273257
0.361668  0.354654  0.263161
0.414504  0.389521  0.252984
0.451714  0.417039  0.263777
0.506482  0.436868  0.234899
0.551304  0.471019  0.218798
0.591498  0.497537  0.230875
0.663363  0.540734  0.193067
0.713802  0.586933  0.169092
0.758651  0.599823  0.184836
0.786433  0.623480  0.185355
0.862908  0.666012  0.192366
0.907646  0.687442  0.193855
0.282942  0.325344  0.297227
0.333423  0.342922  0.276934
0.385252  0.374328  0.267010
0.413201  0.381815  0.265471
0.477374  0.416192  0.251644
0.507634  0.452767  0.248056
0.533603  0.464020  0.249092
0.592928  0.506054  0.238365
0.647315  0.532283  0.206121
0.673384  0.565366  0.199381
0.743842  0.609300  0.180347
0.788664  0.641895  0.175283
0.812265  0.653507  0.193450
0.894911  0.704560  0.196562
