LUT/LUT_36.CUBE
TITLE "LUT_36" 
#LUT size 
LUT_3D_SIZE 5 
#data point 
DOMAIN_MIN 0.000000 0.000000 0.000000
DOMAIN_MAX 0.857143 0.857143 0.857143
0.074258  0.072850  0.037229
0.127565  0.115140  0.063087
0.310329  0.238318  0.068999
0.455232  0.344534  0.074332
0.613583  0.424811  0.062321
0.119237  0.112082  0.063120
0.194851  0.185564  0.097556
0.380051  0.292346  0.090182
0.517851  0.384911  0.082146
0.658936  0.479497  0.074515
0.217802  0.193318  0.089001
0.343254  0.281432  0.103419
0.451286  0.341228  0.088233
0.609635  0.474830  0.081901
0.739972  0.553316  0.086069
0.360389  0.291132  0.115527
0.462935  0.371435  0.103055
0.579482  0.458636  0.090980
0.704364  0.573379  0.081666
0.824602  0.673001  0.084399
0.470264  0.364550  0.097588
0.590418  0.460195  0.090464
0.697483  0.566010  0.084104
0.785662  0.653073  0.089608
0.911551  0.735175  0.083846
0.128486  0.128096  0.075851
0.162786  0.167302  0.117147
0.316530  0.266948  0.103928
0.459645  0.337440  0.091844
0.601191  0.444916  0.078572
0.155898  0.181331  0.142868
0.211304  0.222727  0.176586
0.363139  0.314985  0.162760
0.532757  0.414190  0.110824
0.673502  0.511193  0.102400
0.215124  0.255927  0.229613
0.287736  0.311999  0.267313
0.429960  0.377328  0.213501
0.566188  0.452280  0.164808
0.731282  0.575398  0.160128
0.285047  0.325729  0.300773
0.392708  0.380057  0.267089
0.525852  0.448184  0.247304
0.667662  0.547523  0.199109
0.814572  0.656716  0.174573
0.404296  0.395062  0.291678
0.538410  0.462678  0.254301
0.650370  0.551516  0.246714
0.790901  0.649920  0.183855
0.927137  0.730024  0.180866
0.167231  0.189842  0.164777
0.198835  0.227191  0.202302
0.274904  0.295284  0.247452
0.486716  0.394418  0.159479
0.645896  0.480915  0.135545
0.212231  0.260427  0.251033
0.257253  0.313228  0.304529
0.357348  0.381825  0.342473
0.502612  0.448646  0.272756
0.690333  0.555808  0.225176
0.269235  0.332986  0.328606
0.309581  0.389492  0.411805
0.394346  0.441903  0.410750
0.561005  0.520096  0.395944
0.732994  0.620940  0.319941
0.328142  0.412284  0.426851
0.380254  0.460662  0.471531
0.480480  0.517252  0.471063
0.623384  0.601097  0.478668
0.823885  0.702441  0.410383
0.365328  0.468352  0.493245
0.477966  0.526336  0.493583
0.576695  0.586067  0.504193
0.742467  0.678709  0.493419
0.904656  0.764999  0.464463
0.218175  0.271355  0.265893
0.269478  0.333748  0.334168
0.322256  0.370850  0.347848
0.459717  0.438198  0.321512
0.651412  0.534990  0.251298
0.263992  0.343274  0.359875
0.313660  0.396707  0.411890
0.353242  0.440664  0.455027
0.498519  0.522336  0.449595
0.689676  0.599418  0.389721
0.330093  0.420173  0.437350
0.366657  0.473577  0.496857
0.412418  0.521329  0.547460
0.547725  0.592634  0.545453
0.724257  0.676644  0.500987
0.384317  0.489619  0.514480
0.417530  0.533014  0.571171
0.488234  0.611546  0.646370
0.633270  0.680656  0.635484
0.764402  0.739108  0.618756
0.428887  0.545359  0.577565
0.481671  0.609776  0.639835
0.562026  0.682190  0.704415
0.693796  0.745721  0.707008
0.853885  0.801078  0.689164
0.291327  0.374245  0.389699
0.326014  0.410927  0.433043
0.366579  0.476203  0.503743
0.463329  0.514889  0.477006
0.618577  0.570082  0.419994
0.326766  0.422757  0.447215
0.369202  0.474311  0.510023
0.440185  0.555120  0.586125
0.507719  0.583442  0.577959
0.665521  0.659876  0.564289
0.379549  0.489119  0.518644
0.444356  0.565888  0.597471
0.492105  0.614391  0.650949
0.557272  0.673713  0.703975
0.750848  0.748042  0.649241
0.428084  0.548698  0.583759
0.500450  0.626738  0.659885
0.554776  0.684238  0.713932
0.636768  0.754941  0.788309
0.761711  0.802745  0.772683
0.497270  0.624363  0.655814
0.567156  0.687755  0.724026
0.633331  0.757247  0.806424
0.704552  0.818509  0.868226
0.832911  0.891118  0.897594
