LUT/LUT_39.CUBE
TITLE "LUT_39" 
#LUT size 
LUT_3D_SIZE 5 
#data point 
DOMAIN_MIN 0.000000 0.000000 0.000000
DOMAIN_MAX 0.857143 0.857143 0.857143
0.079270  0.076824  0.036862
0.128851  0.122296  0.062804
0.305533  0.237710  0.076941
0.452429  0.343681  0.073507
0.609285  0.430232  0.065438
0.123475  0.113627  0.058305
0.200161  0.182205  0.094654
0.378562  0.295498  0.092848
0.514996  0.385898  0.087312
0.647694  0.481214  0.072397
0.218217  0.191843  0.092496
0.337883  0.274363  0.106858
0.453774  0.347512  0.087567
0.607000  0.468725  0.083842
0.733265  0.557008  0.093510
0.355661  0.290088  0.124549
0.459760  0.368830  0.107053
0.580457  0.458850  0.094194
0.702525  0.572806  0.082057
0.827219  0.670817  0.087654
0.466545  0.361075  0.097021
0.593475  0.463493  0.087189
0.695534  0.564258  0.081349
0.786169  0.648690  0.092473
0.908599  0.736209  0.086486
0.125226  0.121796  0.075729
0.162353  0.165124  0.117061
0.311380  0.264213  0.107970
0.456054  0.344967  0.094579
0.593498  0.451374  0.083179
0.160179  0.175998  0.142728
0.205601  0.221179  0.177094
0.363007  0.317862  0.162183
0.526434  0.415838  0.114873
0.673707  0.512913  0.101705
0.217375  0.261437  0.227682
0.289838  0.319165  0.260785
0.432766  0.375793  0.214244
0.563412  0.451514  0.165689
0.730895  0.577741  0.151900
0.286539  0.322498  0.296594
0.389873  0.377208  0.267930
0.521853  0.448137  0.249562
0.665491  0.546339  0.202008
0.813090  0.656695  0.169216
0.403347  0.397051  0.296802
0.539728  0.461146  0.256486
0.649873  0.552005  0.242445
0.790529  0.649571  0.187905
0.935119  0.733442  0.184467
0.162550  0.190334  0.163569
0.198397  0.227936  0.203442
0.271638  0.294978  0.245566
0.484550  0.392810  0.158573
0.643888  0.485569  0.134906
0.218260  0.257164  0.242595
0.266171  0.312372  0.297410
0.352175  0.381234  0.345219
0.499183  0.448589  0.273998
0.687161  0.555859  0.228576
0.269361  0.327537  0.324351
0.311553  0.394363  0.411529
0.392044  0.444158  0.412203
0.552504  0.522585  0.393295
0.727550  0.620291  0.315553
0.330402  0.413608  0.423291
0.383207  0.465332  0.466411
0.482783  0.516239  0.468727
0.618100  0.602337  0.482301
0.821402  0.695731  0.414589
0.369446  0.470707  0.487720
0.472521  0.523619  0.497226
0.579703  0.586853  0.503615
0.743372  0.680582  0.497679
0.904734  0.765055  0.459634
0.217875  0.273850  0.263252
0.274016  0.337143  0.332926
0.325364  0.369512  0.341066
0.455873  0.436237  0.328651
0.650317  0.540292  0.253139
0.265272  0.341611  0.355817
0.313068  0.399802  0.416231
0.353926  0.439453  0.451784
0.500579  0.525693  0.446607
0.686172  0.596299  0.393110
0.328789  0.418582  0.439154
0.374587  0.472621  0.498619
0.409475  0.520805  0.548741
0.543596  0.588895  0.553613
0.720784  0.676747  0.506160
0.386476  0.490207  0.513898
0.409390  0.536111  0.571731
0.485717  0.610049  0.644208
0.629415  0.680894  0.636369
0.763203  0.740258  0.616222
0.430033  0.543553  0.577660
0.482538  0.606545  0.637855
0.564303  0.679061  0.705306
0.692934  0.747189  0.708234
0.846931  0.803670  0.687388
0.292534  0.375858  0.391161
0.329022  0.415339  0.436081
0.373522  0.478905  0.509138
0.464206  0.508402  0.475554
0.613318  0.571572  0.424789
0.332013  0.423707  0.451564
0.369244  0.474735  0.505763
0.443512  0.557057  0.585141
0.507693  0.584547  0.577980
0.655374  0.658943  0.562563
0.386310  0.491355  0.516894
0.447581  0.563885  0.593052
0.492353  0.618607  0.651721
0.558635  0.679288  0.702408
0.744132  0.743529  0.655689
0.424934  0.542894  0.578990
0.499977  0.622234  0.656760
0.554471  0.683699  0.721592
0.639472  0.757293  0.788718
0.755779  0.802072  0.772821
0.502070  0.622569  0.652542
0.565572  0.693086  0.715716
0.634003  0.761793  0.805365
0.705800  0.820471  0.871001
0.831942  0.889354  0.902058
