LUT/LUT_31.CUBE
TITLE "LUT_31" 
#LUT size 
LUT_3D_SIZE 8 
DOMAIN_MIN 0.0 0.0 0.0 
DOMAIN_MAX 1.0 1.0 1.0 
#data point 
0.077440  0.067791  0.031313
0.101704  0.094582  0.045101
0.170630  0.154796  0.074901
0.312314  0.236592  0.063012
0.414219  0.303052  0.064605
0.515483  0.364933  0.064228
0.620158  0.417095  0.053996
0.730240  0.482111  0.062492
0.111428  0.108256  0.054706
0.123822  0.119211  0.060191
0.219422  0.193925  0.089531
0.350722  0.273914  0.090067
0.461703  0.330362  0.082497
0.536419  0.397119  0.071844
0.650566  0.461075  0.067447
0.763997  0.522428  0.064039
0.147452  0.145445  0.079054
0.210145  0.194521  0.102648
0.290658  0.247458  0.089507
0.398318  0.312660  0.086415
0.495402  0.367876  0.074227
0.593386  0.439399  0.076161
0.697210  0.500065  0.064093
0.814408  0.559182  0.063451
0.228170  0.192128  0.084560
0.307235  0.254779  0.103108
0.384066  0.299772  0.084019
0.457133  0.342256  0.081305
0.552956  0.419567  0.079947
0.652971  0.482796  0.078237
0.737157  0.548359  0.079118
0.862776  0.612724  0.073212
0.301092  0.254096  0.120682
0.387317  0.300204  0.087944
0.470197  0.363705  0.095573
0.533567  0.404099  0.087208
0.615367  0.490664  0.074631
0.696234  0.562279  0.077651
0.803850  0.617045  0.087797
0.919442  0.689634  0.076812
0.385011  0.313113  0.112196
0.461271  0.377711  0.091144
0.556187  0.440112  0.092094
0.617327  0.485430  0.096123
0.703206  0.574564  0.073848
0.777849  0.644268  0.078228
0.858003  0.698821  0.082251
0.950737  0.751305  0.097560
0.471297  0.373220  0.097252
0.526871  0.418745  0.091204
0.626141  0.494301  0.083845
0.694234  0.572473  0.082705
0.760076  0.622822  0.089675
0.833905  0.677763  0.088618
0.912007  0.738877  0.081993
1.026064  0.789008  0.088667
0.539355  0.434057  0.095074
0.616719  0.508836  0.092636
0.691889  0.561770  0.082658
0.747590  0.613965  0.085282
0.809810  0.664767  0.081825
0.885342  0.711977  0.101015
0.969095  0.769476  0.089184
1.074358  0.834090  0.088373
0.101776  0.093002  0.044970
0.115526  0.112890  0.054656
0.186298  0.166457  0.088682
0.292626  0.235148  0.082277
0.409618  0.304824  0.072288
0.509772  0.369205  0.068605
0.618996  0.438794  0.070073
0.744306  0.483348  0.060694
0.129541  0.126206  0.068873
0.162420  0.157411  0.099928
0.224550  0.199676  0.110105
0.320389  0.269006  0.102081
0.439438  0.339823  0.092006
0.552500  0.405099  0.076352
0.683426  0.469334  0.066183
0.767629  0.513846  0.067641
0.156378  0.163762  0.126882
0.196987  0.207907  0.150711
0.283998  0.261033  0.149810
0.388214  0.327029  0.125900
0.489573  0.384014  0.121459
0.597876  0.443765  0.108348
0.691660  0.503454  0.092403
0.810090  0.580688  0.085281
0.204519  0.224805  0.182773
0.272616  0.271049  0.191506
0.338432  0.298121  0.169101
0.448422  0.370046  0.160060
0.533223  0.411824  0.131816
0.630910  0.494427  0.134238
0.752172  0.556443  0.123465
0.850038  0.626446  0.093871
0.289968  0.281278  0.206089
0.339158  0.307643  0.180629
0.438491  0.376469  0.192286
0.535707  0.439396  0.171680
0.622746  0.496470  0.118739
0.714679  0.570367  0.105930
0.800433  0.619548  0.122803
0.921282  0.683626  0.120143
0.367367  0.330304  0.196801
0.439411  0.386441  0.201922
0.513321  0.428492  0.157228
0.583281  0.485268  0.152070
0.692524  0.566903  0.116995
0.766267  0.627931  0.115604
0.867532  0.702577  0.133051
0.980178  0.756185  0.138176
0.427074  0.382602  0.207259
0.523596  0.431953  0.174534
0.594129  0.489785  0.182958
0.684821  0.553815  0.129437
0.757572  0.620697  0.132121
0.834055  0.687421  0.131354
0.909649  0.740169  0.120243
0.995035  0.782297  0.124966
0.505244  0.433406  0.213848
0.599042  0.494393  0.164132
0.680412  0.557478  0.163617
0.759530  0.628026  0.136310
0.815736  0.680498  0.130440
0.896802  0.738006  0.117226
0.967709  0.772263  0.136828
1.070769  0.831185  0.138792
0.130946  0.141486  0.102242
0.146807  0.162072  0.124078
0.183530  0.196585  0.139419
0.314990  0.263370  0.124848
0.428959  0.328982  0.092046
0.530111  0.388124  0.091638
0.635955  0.455444  0.079812
0.719875  0.503207  0.079589
0.159560  0.178779  0.150474
0.187521  0.218675  0.194931
0.230165  0.255390  0.215781
0.338302  0.306068  0.178973
0.473730  0.375236  0.143896
0.544076  0.411433  0.138229
0.660222  0.483907  0.108199
0.777240  0.552245  0.104543
0.204526  0.242831  0.227782
0.222638  0.267602  0.257092
0.245217  0.274347  0.241846
0.367259  0.355367  0.257095
0.486628  0.419948  0.228840
0.592784  0.464176  0.151802
0.701363  0.536270  0.142990
0.811809  0.605333  0.141239
0.222772  0.278829  0.273937
0.260928  0.323150  0.319849
0.318380  0.350096  0.315432
0.413749  0.400777  0.315679
0.524222  0.449705  0.259612
0.624696  0.502856  0.223286
0.757805  0.586324  0.201472
0.843661  0.630526  0.194452
0.254663  0.322074  0.321333
0.326369  0.370083  0.341224
0.398405  0.401933  0.336550
0.478636  0.455088  0.333450
0.577351  0.501794  0.293840
0.696769  0.576931  0.283797
0.823501  0.644905  0.236710
0.919149  0.699361  0.240592
0.310234  0.363542  0.354691
0.396885  0.421373  0.373740
0.475508  0.452571  0.335691
0.558252  0.507649  0.331941
0.660830  0.573273  0.324168
0.761798  0.638095  0.272642
0.856143  0.703085  0.262711
0.962821  0.751536  0.261821
0.353283  0.396700  0.367010
0.454376  0.452261  0.366181
0.561093  0.508711  0.332343
0.634764  0.560008  0.345027
0.735324  0.626101  0.319351
0.812573  0.676440  0.302276
0.914375  0.735519  0.264952
1.012982  0.802591  0.240827
0.436977  0.457794  0.382855
0.552191  0.515626  0.350022
0.631293  0.557454  0.331017
0.719631  0.614616  0.316798
0.792449  0.668348  0.301026
0.907225  0.736409  0.278581
0.962295  0.776528  0.275469
1.082925  0.837328  0.251052
0.159073  0.186869  0.166875
0.179277  0.221042  0.202339
0.224049  0.260468  0.227739
0.281679  0.304222  0.246312
0.448022  0.364492  0.168266
0.539001  0.430322  0.145806
0.647019  0.475087  0.135976
0.735471  0.540700  0.140101
0.189348  0.229463  0.214049
0.224637  0.264029  0.254574
0.251943  0.307749  0.290914
0.329193  0.351229  0.301892
0.466499  0.403662  0.227461
0.557232  0.452182  0.199280
0.676232  0.522101  0.182939
0.785946  0.584169  0.185471
0.231893  0.281199  0.267776
0.260784  0.314943  0.319317
0.284964  0.356409  0.359539
0.390848  0.419328  0.372326
0.459645  0.459646  0.363439
0.590408  0.510610  0.269191
0.709471  0.577587  0.261261
0.828903  0.645469  0.247369
0.260621  0.329279  0.336251
0.289357  0.371477  0.381951
0.318902  0.398738  0.420221
0.388979  0.437066  0.406999
0.495906  0.497038  0.407142
0.637296  0.561743  0.344990
0.735540  0.618746  0.321437
0.862447  0.681557  0.296515
0.308966  0.390422  0.401002
0.343409  0.433816  0.453867
0.366645  0.450202  0.458269
0.470570  0.502718  0.451825
0.557254  0.563560  0.478073
0.647914  0.590905  0.423576
0.779230  0.668190  0.397107
0.908194  0.737254  0.361906
0.332106  0.429705  0.453443
0.365711  0.459534  0.479555
0.438519  0.487868  0.456056
0.517723  0.543221  0.483992
0.603034  0.592194  0.491570
0.712724  0.662099  0.483617
0.864036  0.734709  0.438471
0.936191  0.780088  0.431068
0.362996  0.465998  0.493074
0.429875  0.510379  0.503450
0.517278  0.539958  0.476468
0.584171  0.588527  0.498671
0.690308  0.652179  0.494348
0.802215  0.711369  0.466425
0.900423  0.767621  0.462675
0.997454  0.816211  0.482117
0.401438  0.504637  0.530641
0.484540  0.532861  0.491789
0.561605  0.579937  0.512808
0.666573  0.640134  0.488647
0.787609  0.706923  0.480251
0.867490  0.745248  0.465023
0.965292  0.810392  0.488511
1.051377  0.853572  0.492130
0.188845  0.231211  0.219903
0.227247  0.277032  0.274319
0.250317  0.300469  0.299924
0.301758  0.337933  0.315352
0.408919  0.399762  0.298058
0.543906  0.462290  0.243573
0.664815  0.525612  0.210714
0.762792  0.562137  0.178154
0.232458  0.291708  0.286843
0.249507  0.311095  0.319299
0.283550  0.359434  0.367599
0.343985  0.407641  0.401142
0.418213  0.441708  0.385291
0.550381  0.491439  0.331359
0.676448  0.549627  0.273333
0.782663  0.614008  0.254095
0.266672  0.337909  0.349611
0.298666  0.377882  0.390876
0.316877  0.404267  0.424477
0.380105  0.460070  0.458643
0.463050  0.497796  0.453596
0.564227  0.548205  0.431025
0.710176  0.615491  0.372569
0.823872  0.667762  0.333446
0.295188  0.383965  0.402424
0.332258  0.421906  0.439667
0.359767  0.460011  0.486316
0.380016  0.491395  0.520317
0.499928  0.540945  0.488024
0.598926  0.595817  0.502312
0.731256  0.662846  0.451989
0.855920  0.707918  0.398111
0.331266  0.430220  0.457679
0.367513  0.469274  0.505228
0.401667  0.508302  0.540595
0.452419  0.557679  0.585767
0.534188  0.592664  0.570861
0.635941  0.654377  0.573727
0.779747  0.708647  0.523952
0.916683  0.772055  0.483880
0.366740  0.473522  0.502990
0.396062  0.506968  0.538974
0.445101  0.557682  0.585067
0.484401  0.595747  0.620005
0.579257  0.631192  0.590563
0.697016  0.711587  0.629737
0.818960  0.756750  0.599488
0.941265  0.804690  0.546515
0.409801  0.523062  0.554871
0.440396  0.554331  0.582844
0.477374  0.601905  0.630724
0.554150  0.627971  0.615175
0.679253  0.690664  0.614782
0.776146  0.748132  0.636118
0.883985  0.803131  0.621130
1.001163  0.846406  0.599262
0.447084  0.568234  0.603450
0.478547  0.602280  0.639337
0.536777  0.629896  0.630775
0.650770  0.689537  0.631959
0.736633  0.723799  0.631122
0.847134  0.778580  0.622710
0.944008  0.838960  0.631688
1.046789  0.875806  0.610426
0.244977  0.305456  0.307170
0.266521  0.327505  0.338268
0.291013  0.363793  0.378809
0.322132  0.394375  0.397644
0.419518  0.442253  0.383074
0.514453  0.497950  0.371931
0.641182  0.530163  0.298014
0.768659  0.598160  0.270022
0.265480  0.346104  0.370570
0.302609  0.387267  0.411599
0.315235  0.406511  0.432029
0.363248  0.453305  0.465168
0.454912  0.505173  0.474853
0.556864  0.556144  0.464314
0.676775  0.598926  0.402168
0.802849  0.655474  0.365229
0.307104  0.398848  0.418256
0.339097  0.431548  0.453630
0.378943  0.483730  0.509742
0.400967  0.506053  0.530085
0.462466  0.540434  0.536935
0.582050  0.608769  0.539427
0.684171  0.637459  0.474628
0.830429  0.713599  0.454335
0.330323  0.433057  0.469357
0.379516  0.469831  0.489119
0.415994  0.529473  0.558362
0.424910  0.545100  0.589762
0.485113  0.599548  0.620711
0.611126  0.642755  0.585598
0.728993  0.693998  0.548263
0.845513  0.758610  0.556157
0.381722  0.488755  0.523850
0.413756  0.528850  0.567609
0.450377  0.572372  0.604590
0.479351  0.601106  0.630994
0.530723  0.654584  0.686426
0.646592  0.692421  0.652675
0.745613  0.735437  0.626677
0.912047  0.805753  0.600634
0.408230  0.525061  0.559298
0.447475  0.570878  0.599599
0.481843  0.613778  0.652332
0.513708  0.642860  0.678983
0.571119  0.701033  0.730893
0.690502  0.749460  0.725018
0.821966  0.801342  0.694239
0.934094  0.841699  0.672656
0.454499  0.575544  0.609807
0.496664  0.617583  0.651291
0.543315  0.662729  0.693680
0.571238  0.691222  0.722792
0.632067  0.743692  0.763792
0.734314  0.785409  0.761441
0.865946  0.833965  0.741610
0.976504  0.870447  0.707402
0.493247  0.614138  0.644793
0.524302  0.642366  0.676600
0.566610  0.697375  0.735441
0.600356  0.722438  0.753016
0.694196  0.784513  0.795452
0.820656  0.818528  0.752142
0.911615  0.861970  0.751467
1.027822  0.910342  0.738811
0.281030  0.370640  0.393577
0.311495  0.395555  0.409717
0.339551  0.433663  0.461987
0.362788  0.468863  0.503565
0.419407  0.491512  0.475987
0.511894  0.528186  0.467555
0.626646  0.576020  0.413192
0.768606  0.647401  0.380995
0.312304  0.410934  0.440244
0.336879  0.440810  0.477538
0.359585  0.465675  0.497072
0.404423  0.521228  0.554748
0.448000  0.547055  0.570834
0.546938  0.584230  0.529077
0.654974  0.638123  0.523031
0.801235  0.708314  0.465641
0.346138  0.449223  0.482205
0.379204  0.485495  0.523673
0.405230  0.520393  0.553669
0.449355  0.564096  0.598816
0.486498  0.609082  0.635594
0.592349  0.647068  0.611410
0.690148  0.701191  0.610250
0.811861  0.750815  0.570927
0.380448  0.485211  0.524364
0.399037  0.517727  0.546292
0.459895  0.580625  0.615769
0.494799  0.619419  0.653857
0.535081  0.662606  0.701800
0.595422  0.694005  0.690698
0.744476  0.739118  0.648990
0.860277  0.791471  0.641663
0.411876  0.528117  0.557926
0.463336  0.585789  0.608601
0.494879  0.616467  0.645756
0.540350  0.666240  0.698954
0.590203  0.725220  0.766751
0.631688  0.735830  0.756761
0.765019  0.778035  0.713740
0.897269  0.839027  0.702869
0.454511  0.575996  0.610086
0.493272  0.622316  0.661632
0.538079  0.661591  0.701360
0.599907  0.729064  0.774172
0.630387  0.759275  0.802656
0.688193  0.804342  0.846558
0.795441  0.840826  0.812522
0.928586  0.872201  0.757658
0.490727  0.622706  0.656702
0.533110  0.657663  0.689049
0.569031  0.706392  0.743739
0.629246  0.762217  0.811019
0.675513  0.795954  0.841674
0.735565  0.840832  0.887616
0.835239  0.892122  0.896689
0.961271  0.909435  0.796785
0.527402  0.658931  0.694412
0.570013  0.700529  0.736350
0.603606  0.745143  0.791280
0.675413  0.798086  0.846210
0.721264  0.832838  0.880776
0.796097  0.884007  0.918028
0.870772  0.923635  0.930323
1.005358  0.950935  0.861201
0.316684  0.416395  0.450323
0.335825  0.448221  0.485785
0.383815  0.495036  0.528857
0.412756  0.532326  0.572814
0.455822  0.575967  0.613463
0.507834  0.588332  0.580407
0.637194  0.642712  0.551470
0.789643  0.698988  0.493051
0.344883  0.453675  0.482738
0.369241  0.488940  0.532338
0.421774  0.544904  0.583420
0.460946  0.582830  0.620475
0.496277  0.622181  0.655972
0.546779  0.665791  0.677103
0.640817  0.681512  0.630266
0.791644  0.737990  0.575813
0.375084  0.494698  0.536278
0.416157  0.529422  0.571407
0.460954  0.586638  0.624017
0.512101  0.638058  0.676087
0.547799  0.680104  0.722644
0.598245  0.721670  0.755580
0.699217  0.743584  0.696655
0.829261  0.792982  0.670588
0.424027  0.540866  0.570208
0.454684  0.576960  0.611587
0.501489  0.632565  0.669654
0.562780  0.687919  0.722457
0.583635  0.718789  0.762587
0.627373  0.762938  0.809333
0.691139  0.799908  0.813256
0.853018  0.835388  0.738645
0.448246  0.571517  0.611440
0.495631  0.621392  0.655434
0.542346  0.666943  0.707270
0.583275  0.716445  0.766483
0.630641  0.751864  0.797775
0.673896  0.801810  0.850619
0.751448  0.861173  0.897583
0.861928  0.879273  0.840217
0.479077  0.601658  0.642319
0.523252  0.647820  0.682810
0.578342  0.706457  0.747037
0.618252  0.755809  0.799203
0.650107  0.780889  0.827116
0.735044  0.845968  0.884270
0.807420  0.899250  0.928192
0.884316  0.929821  0.933445
0.526604  0.659053  0.696189
0.574637  0.706457  0.746719
0.607805  0.737378  0.788875
0.653437  0.775271  0.821213
0.711346  0.824144  0.872026
0.777609  0.879407  0.914176
0.846571  0.923270  0.950545
0.912546  0.950662  0.971683
0.573116  0.695681  0.726075
0.581262  0.722235  0.775942
0.637468  0.768879  0.817139
0.705247  0.816513  0.863069
0.751233  0.859844  0.902916
0.834044  0.906152  0.939326
0.890277  0.944777  0.963243
0.946556  0.972921  0.985186
