LUT/LUT_32.CUBE
TITLE "LUT_32" 
#LUT size 
LUT_3D_SIZE 15 
DOMAIN_MIN 0.0 0.0 0.0 
DOMAIN_MAX 1.0 1.0 1.0 
#data point 
0.077574  0.074029  0.029170
0.082551  0.082053  0.041074
0.099038  0.093197  0.045249
0.120172  0.118193  0.069708
0.173035  0.154416  0.076089
0.237966  0.200016  0.073864
0.314149  0.237746  0.067409
0.344219  0.267881  0.072633
0.413548  0.303673  0.063087
0.459826  0.340034  0.067218
0.512539  0.368383  0.069423
0.548209  0.393665  0.067852
0.615977  0.421354  0.053909
0.671852  0.464293  0.059825
0.733259  0.483441  0.063635
0.087873  0.085490  0.037946
0.096508  0.094880  0.045617
0.116460  0.115955  0.060865
0.148770  0.136349  0.067771
0.196571  0.177190  0.091668
0.260771  0.216253  0.087172
0.323012  0.257242  0.075424
0.385361  0.290106  0.081833
0.427588  0.325811  0.072614
0.464307  0.345657  0.065513
0.522959  0.377420  0.068463
0.592370  0.413424  0.066903
0.652969  0.457673  0.057550
0.700896  0.481915  0.062932
0.747214  0.493825  0.067035
0.110024  0.106106  0.054652
0.107695  0.102407  0.052981
0.125178  0.118363  0.061785
0.160963  0.151431  0.086711
0.222760  0.196601  0.089291
0.276987  0.223633  0.083955
0.347992  0.278235  0.090775
0.394962  0.297652  0.075978
0.461244  0.337055  0.084339
0.498418  0.368046  0.079164
0.533799  0.396459  0.070217
0.609233  0.443779  0.068483
0.648255  0.458570  0.069259
0.712384  0.483895  0.067649
0.756605  0.524595  0.062868
0.120350  0.113825  0.056641
0.134532  0.118772  0.061121
0.153389  0.138012  0.071175
0.197652  0.177869  0.092946
0.262157  0.223767  0.083392
0.308834  0.250855  0.091543
0.378299  0.294915  0.085437
0.421562  0.317634  0.084670
0.481293  0.352968  0.064403
0.517035  0.380473  0.072301
0.566740  0.417295  0.077740
0.622862  0.444051  0.082537
0.665245  0.476853  0.069659
0.740994  0.512943  0.061828
0.795229  0.551990  0.066962
0.147836  0.143286  0.079281
0.162442  0.152429  0.086932
0.209528  0.192815  0.106446
0.240487  0.212394  0.104045
0.292570  0.247913  0.094058
0.354722  0.277638  0.100768
0.397466  0.313790  0.086721
0.447856  0.339421  0.079792
0.492856  0.361909  0.073475
0.549754  0.413699  0.074088
0.591979  0.443915  0.079841
0.656758  0.490040  0.075253
0.690074  0.502218  0.069772
0.753760  0.541145  0.071165
0.818736  0.562179  0.069274
0.165332  0.158416  0.094192
0.210779  0.183665  0.088809
0.234951  0.207285  0.098742
0.289077  0.243897  0.098400
0.340178  0.261077  0.082186
0.371561  0.289673  0.095492
0.417915  0.323195  0.098382
0.488371  0.363699  0.086864
0.513704  0.384977  0.081147
0.553832  0.408007  0.075687
0.620541  0.462864  0.067287
0.661013  0.490471  0.081870
0.733110  0.529444  0.076057
0.781982  0.564025  0.078979
0.831594  0.582903  0.070644
0.224811  0.193367  0.085411
0.255519  0.229482  0.115077
0.306610  0.257751  0.100462
0.342312  0.282919  0.106163
0.385836  0.298402  0.086542
0.425917  0.336357  0.097884
0.456982  0.342672  0.078183
0.517916  0.395027  0.098770
0.555139  0.420312  0.079686
0.610451  0.472323  0.080264
0.649138  0.482059  0.079557
0.677181  0.511398  0.081982
0.734895  0.549920  0.081087
0.805769  0.583208  0.069902
0.861742  0.614483  0.071512
0.269696  0.236238  0.111480
0.303571  0.251997  0.105390
0.323021  0.263049  0.104646
0.376011  0.294989  0.087123
0.425151  0.337206  0.104574
0.463979  0.362414  0.081957
0.489103  0.378826  0.084426
0.548661  0.419556  0.084632
0.585474  0.452808  0.084446
0.636484  0.491355  0.075176
0.673838  0.529522  0.079582
0.728956  0.565175  0.080169
0.773475  0.594765  0.083344
0.831377  0.623849  0.080727
0.904768  0.654914  0.066369
0.300794  0.258908  0.120696
0.352592  0.288863  0.101910
0.386515  0.298072  0.091518
0.417194  0.322592  0.089739
0.471843  0.362348  0.095372
0.492431  0.388252  0.090886
0.529368  0.404896  0.085779
0.581048  0.451258  0.088064
0.617303  0.489452  0.078390
0.668272  0.538562  0.087199
0.691345  0.561687  0.079798
0.746882  0.589538  0.089790
0.800027  0.618552  0.086757
0.834218  0.658418  0.082080
0.912013  0.691433  0.078134
0.360478  0.292672  0.112073
0.387236  0.314925  0.103976
0.431686  0.326018  0.094070
0.463534  0.369499  0.095478
0.499995  0.393388  0.093552
0.530126  0.423126  0.086854
0.579258  0.458905  0.085819
0.625682  0.494741  0.089621
0.654095  0.527536  0.079748
0.700869  0.576240  0.081357
0.754518  0.607194  0.088024
0.783289  0.634448  0.079335
0.821254  0.669190  0.082846
0.865321  0.676473  0.079415
0.921678  0.723379  0.087633
0.384635  0.310306  0.113004
0.432062  0.343450  0.105129
0.463171  0.377646  0.088209
0.497854  0.390924  0.088624
0.558803  0.436142  0.092699
0.586139  0.464784  0.084759
0.615373  0.489931  0.095921
0.669880  0.532332  0.076844
0.703802  0.574371  0.073858
0.722160  0.589443  0.073025
0.778188  0.640056  0.079481
0.794511  0.652172  0.088579
0.857083  0.703508  0.082734
0.909088  0.726042  0.074971
0.952088  0.754165  0.095192
0.427607  0.337638  0.095348
0.464813  0.370060  0.103829
0.506999  0.406281  0.097379
0.544740  0.423996  0.092673
0.589351  0.452987  0.079431
0.629811  0.502962  0.087461
0.651666  0.528370  0.081982
0.680877  0.552502  0.077859
0.736446  0.615362  0.087202
0.759753  0.628626  0.077508
0.802012  0.663450  0.089736
0.849728  0.686632  0.085822
0.885358  0.706813  0.071933
0.921643  0.753508  0.081283
0.975574  0.769410  0.086035
0.470452  0.373867  0.094056
0.488665  0.396574  0.085526
0.525414  0.419106  0.091558
0.590355  0.468634  0.084045
0.626224  0.493545  0.083951
0.650167  0.525778  0.090681
0.692081  0.571562  0.083524
0.723229  0.580523  0.086130
0.759738  0.619941  0.092283
0.783207  0.657569  0.085359
0.834295  0.675639  0.087979
0.893239  0.715160  0.084673
0.910844  0.738024  0.084671
0.949837  0.755726  0.088889
1.023571  0.790153  0.089081
0.514389  0.411061  0.090772
0.548272  0.453498  0.090287
0.580151  0.469057  0.080179
0.626018  0.500325  0.086697
0.651027  0.529941  0.085760
0.677078  0.551518  0.077798
0.720143  0.589051  0.075289
0.769345  0.619711  0.080624
0.791313  0.649426  0.088078
0.815850  0.665996  0.087053
0.850963  0.693559  0.080733
0.899937  0.728967  0.087504
0.941138  0.762863  0.089716
0.989440  0.788272  0.091144
1.016046  0.799163  0.086938
0.540063  0.433938  0.095336
0.568832  0.453096  0.083550
0.616063  0.507742  0.096996
0.663452  0.539399  0.070121
0.694489  0.563815  0.083605
0.709360  0.583192  0.088424
0.745666  0.609986  0.085489
0.789958  0.655285  0.081325
0.810974  0.665392  0.080748
0.855357  0.696866  0.094590
0.883552  0.707451  0.104227
0.931899  0.760979  0.089976
0.967535  0.770475  0.090164
1.026435  0.794919  0.083263
1.074792  0.830691  0.090516
0.085850  0.083304  0.041778
0.099384  0.091811  0.036615
0.105468  0.096302  0.045514
0.120245  0.111099  0.058335
0.164243  0.148860  0.071098
0.241896  0.193524  0.080258
0.315712  0.251993  0.084129
0.359423  0.277109  0.079472
0.416231  0.307405  0.065323
0.445590  0.316671  0.062099
0.512351  0.365715  0.070365
0.566695  0.400676  0.065758
0.629827  0.433557  0.057435
0.663534  0.465826  0.061151
0.718931  0.492805  0.068115
0.098343  0.088806  0.040486
0.100908  0.095172  0.048800
0.113633  0.106829  0.050788
0.152330  0.136110  0.068535
0.193573  0.173344  0.093105
0.274466  0.226523  0.086338
0.322585  0.251730  0.076214
0.369672  0.278029  0.071926
0.423725  0.317233  0.075232
0.492353  0.355509  0.079240
0.516866  0.377162  0.066609
0.572210  0.406173  0.064823
0.635688  0.454909  0.065527
0.685508  0.476414  0.069435
0.746197  0.508378  0.067043
0.105257  0.094656  0.046979
0.117325  0.112761  0.056988
0.142398  0.130413  0.075309
0.173987  0.159143  0.083854
0.215981  0.193549  0.095898
0.301551  0.239253  0.078192
0.330016  0.257637  0.076634
0.389504  0.294500  0.083313
0.443811  0.336209  0.076210
0.484753  0.361834  0.081946
0.546039  0.391706  0.066069
0.601153  0.433453  0.069076
0.660509  0.459627  0.058478
0.705836  0.507539  0.066605
0.789009  0.530703  0.061497
0.129504  0.127366  0.067822
0.136648  0.132862  0.078132
0.169524  0.155736  0.088924
0.186818  0.168112  0.093435
0.247343  0.219148  0.100989
0.316989  0.260045  0.083277
0.352674  0.287606  0.096957
0.425440  0.330569  0.087252
0.476187  0.355454  0.087518
0.515945  0.377245  0.084935
0.560773  0.420163  0.081706
0.628435  0.449173  0.075523
0.685737  0.482370  0.068088
0.709820  0.508266  0.073633
0.787761  0.553400  0.060723
0.158237  0.160264  0.089686
0.167315  0.159910  0.090963
0.200217  0.191692  0.112984
0.234840  0.212116  0.110147
0.290413  0.254354  0.118548
0.343431  0.272915  0.092319
0.385369  0.308344  0.096770
0.444945  0.339785  0.083964
0.498418  0.382081  0.084927
0.535378  0.405439  0.089397
0.589792  0.431552  0.071673
0.642022  0.474190  0.073524
0.692689  0.518550  0.087282
0.751421  0.534644  0.072245
0.798062  0.565994  0.073203
0.187070  0.172698  0.103206
0.210388  0.196278  0.109051
0.243630  0.221281  0.127317
0.283794  0.246977  0.130410
0.340418  0.273712  0.106719
0.397001  0.313781  0.106135
0.442873  0.338250  0.095426
0.471121  0.361786  0.115074
0.509852  0.390734  0.090218
0.565320  0.433836  0.102018
0.603160  0.460871  0.089444
0.652654  0.488186  0.082635
0.706428  0.518631  0.081806
0.779350  0.560325  0.068488
0.847273  0.610993  0.068324
0.234443  0.223752  0.152506
0.261359  0.227899  0.117670
0.276944  0.253033  0.142176
0.316643  0.273369  0.135535
0.382368  0.302413  0.114823
0.422779  0.336452  0.097835
0.470089  0.350326  0.102334
0.500911  0.398167  0.113503
0.535740  0.428246  0.101539
0.586814  0.449462  0.093432
0.654177  0.505388  0.091127
0.683856  0.527724  0.082452
0.753643  0.558396  0.075652
0.799790  0.590332  0.068150
0.849111  0.616451  0.069245
0.257419  0.233433  0.132341
0.288488  0.258961  0.135417
0.336722  0.300087  0.141747
0.370629  0.314516  0.147715
0.427678  0.337991  0.106080
0.449657  0.359536  0.112882
0.520518  0.404350  0.092896
0.548723  0.420367  0.096580
0.579322  0.458373  0.100426
0.618811  0.487570  0.090469
0.674890  0.526262  0.090384
0.712027  0.548675  0.079839
0.773622  0.589677  0.069127
0.817167  0.614432  0.077379
0.895639  0.641128  0.072186
0.301788  0.265403  0.134870
0.346933  0.292397  0.153615
0.379167  0.309008  0.118872
0.404070  0.329716  0.122399
0.453358  0.357015  0.113397
0.495406  0.395458  0.113583
0.531913  0.425080  0.108883
0.578892  0.463145  0.091455
0.616054  0.484214  0.092440
0.665928  0.544845  0.093394
0.701451  0.562237  0.090690
0.752178  0.598760  0.092317
0.799981  0.621063  0.085670
0.861485  0.662618  0.099441
0.896853  0.686733  0.082972
0.325218  0.278957  0.134326
0.387819  0.320892  0.129462
0.411268  0.340011  0.131558
0.476627  0.374215  0.110099
0.500884  0.400628  0.113340
0.552652  0.434698  0.103773
0.589892  0.472030  0.107074
0.617764  0.495117  0.105148
0.665620  0.530330  0.107783
0.701736  0.570575  0.099713
0.750378  0.605837  0.079876
0.773243  0.626752  0.084158
0.827078  0.651255  0.080468
0.878526  0.686589  0.082828
0.941239  0.727023  0.085432
0.373415  0.319082  0.152613
0.391570  0.332126  0.142360
0.429931  0.348311  0.119751
0.510273  0.400640  0.118534
0.539620  0.429328  0.110818
0.584229  0.465888  0.101493
0.633924  0.516507  0.095423
0.666286  0.544980  0.091474
0.703213  0.570561  0.089814
0.735891  0.601292  0.084499
0.783366  0.631924  0.091147
0.823943  0.660335  0.095179
0.854226  0.689238  0.074266
0.913041  0.718584  0.099864
0.942419  0.727218  0.098212
0.403329  0.339770  0.137474
0.460412  0.362933  0.129585
0.503218  0.408711  0.120280
0.538781  0.427928  0.109071
0.581113  0.480433  0.110664
0.611753  0.492213  0.094619
0.642422  0.505493  0.109092
0.688085  0.558042  0.107809
0.720006  0.586824  0.094311
0.742653  0.621976  0.092144
0.800820  0.655042  0.076823
0.856691  0.685541  0.102403
0.894593  0.721416  0.096456
0.914165  0.747768  0.092832
0.975327  0.767545  0.083356
0.470590  0.379899  0.121491
0.519487  0.425794  0.092995
0.550378  0.438537  0.115204
0.599005  0.480950  0.105467
0.611747  0.494306  0.098562
0.659304  0.534920  0.114472
0.698033  0.574648  0.097186
0.715803  0.583390  0.101194
0.764904  0.621399  0.093332
0.789799  0.650269  0.094499
0.823750  0.681892  0.102604
0.887691  0.710326  0.103468
0.908456  0.744310  0.091165
0.978302  0.775196  0.093201
1.003466  0.782721  0.089326
0.492363  0.400281  0.134873
0.524848  0.420063  0.107274
0.575721  0.459554  0.095404
0.584051  0.468792  0.099865
0.657939  0.533736  0.100705
0.681788  0.549015  0.088413
0.702374  0.587499  0.107572
0.766433  0.637551  0.079830
0.793351  0.634091  0.092096
0.822650  0.681845  0.106546
0.869902  0.701373  0.091868
0.887172  0.722872  0.103304
0.937709  0.753995  0.098670
0.978759  0.777174  0.087367
1.016579  0.799391  0.097326
0.543045  0.438073  0.125320
0.584248  0.462551  0.100501
0.588897  0.477383  0.102238
0.646546  0.510201  0.099163
0.678146  0.554493  0.100347
0.715299  0.582280  0.091202
0.754960  0.606614  0.095005
0.783108  0.642229  0.114559
0.817056  0.670901  0.110932
0.847296  0.693559  0.100013
0.903087  0.736561  0.106192
0.915625  0.750702  0.105403
0.972721  0.774251  0.099716
1.028144  0.804618  0.097990
1.070335  0.825666  0.104071
0.099872  0.095908  0.046921
0.110692  0.105377  0.064386
0.116330  0.112694  0.056719
0.159158  0.145920  0.076948
0.185259  0.167935  0.087240
0.231627  0.194943  0.085470
0.289373  0.232865  0.082315
0.377914  0.287737  0.074656
0.408809  0.306756  0.072919
0.453016  0.347074  0.075781
0.507688  0.371191  0.069615
0.561430  0.402490  0.067894
0.615008  0.439302  0.072432
0.676140  0.468297  0.063506
0.741165  0.486160  0.057579
0.121199  0.116799  0.062005
0.132112  0.127524  0.078030
0.144005  0.136911  0.075234
0.157822  0.146374  0.076655
0.212331  0.188838  0.093493
0.280449  0.240023  0.096480
0.335240  0.263237  0.096477
0.366674  0.289819  0.096517
0.437194  0.335567  0.071444
0.479077  0.349542  0.075766
0.534056  0.392290  0.078161
0.583579  0.420332  0.063139
0.638439  0.456308  0.071531
0.724461  0.489310  0.063654
0.751918  0.511610  0.068751
0.135925  0.127025  0.069074
0.141556  0.142742  0.099542
0.163955  0.160154  0.094899
0.179760  0.178312  0.109167
0.221599  0.202110  0.110409
0.286540  0.249309  0.113337
0.320968  0.268876  0.101827
0.389948  0.305931  0.101136
0.435575  0.341261  0.089005
0.510890  0.381444  0.091730
0.554208  0.405305  0.073753
0.604047  0.440446  0.077941
0.677860  0.473384  0.067166
0.717865  0.494707  0.069774
0.763863  0.516126  0.064581
0.158478  0.157772  0.104691
0.155942  0.161607  0.114799
0.169717  0.176823  0.135343
0.205307  0.198487  0.135134
0.232630  0.218279  0.132667
0.315898  0.271780  0.127335
0.371154  0.305843  0.128550
0.404226  0.321501  0.125031
0.471777  0.368601  0.098507
0.527383  0.386219  0.082671
0.562856  0.419431  0.091015
0.635636  0.458235  0.078059
0.666483  0.485204  0.076706
0.710298  0.511149  0.077313
0.784175  0.543676  0.067950
0.150070  0.165448  0.125930
0.187593  0.206745  0.171678
0.194785  0.207248  0.148057
0.229165  0.225984  0.152813
0.282515  0.258893  0.152857
0.323686  0.281289  0.152513
0.389495  0.324688  0.122345
0.452793  0.354877  0.116289
0.490142  0.383110  0.118326
0.541393  0.406029  0.103952
0.597970  0.443286  0.109901
0.647835  0.474408  0.096590
0.689039  0.506052  0.091864
0.743706  0.550962  0.082094
0.808397  0.581745  0.088562
0.171353  0.195783  0.164470
0.197157  0.207052  0.160076
0.232708  0.234311  0.177285
0.261633  0.250385  0.160738
0.301620  0.276425  0.167684
0.353175  0.309176  0.172696
0.412358  0.343612  0.141422
0.465438  0.368182  0.122705
0.531542  0.406779  0.112091
0.571429  0.440122  0.114185
0.622194  0.470681  0.097956
0.662689  0.500790  0.119542
0.705927  0.521717  0.089757
0.777161  0.580591  0.093198
0.828432  0.598182  0.086497
0.208089  0.222728  0.183175
0.233024  0.240572  0.180714
0.269828  0.271914  0.191555
0.312204  0.285615  0.179622
0.338093  0.299472  0.168028
0.394790  0.337855  0.167761
0.451796  0.370622  0.158105
0.486573  0.398742  0.142990
0.533313  0.412310  0.130375
0.588577  0.457471  0.117767
0.632424  0.493266  0.132899
0.693690  0.535198  0.128462
0.748929  0.557856  0.128126
0.807639  0.600564  0.113917
0.848689  0.630315  0.094657
0.266157  0.266881  0.204245
0.278937  0.283774  0.214812
0.321950  0.301564  0.186889
0.356072  0.317074  0.178700
0.391420  0.338547  0.176254
0.434991  0.366376  0.157772
0.493171  0.407818  0.176400
0.534837  0.431812  0.142261
0.587239  0.461159  0.130414
0.640634  0.499747  0.131972
0.671746  0.515621  0.127802
0.706893  0.550946  0.130696
0.761151  0.585575  0.117183
0.824194  0.628729  0.113149
0.870915  0.650322  0.108653
0.288768  0.280961  0.205175
0.325299  0.300108  0.192331
0.340748  0.307522  0.184192
0.393921  0.346349  0.187359
0.437058  0.373018  0.195889
0.455391  0.381868  0.176555
0.533467  0.440580  0.168756
0.561159  0.462475  0.135077
0.624105  0.494752  0.117161
0.664045  0.531280  0.131662
0.713439  0.572104  0.101625
0.741774  0.597450  0.132227
0.801840  0.621664  0.119520
0.847763  0.655403  0.131183
0.915540  0.685689  0.121066
0.310186  0.300989  0.213897
0.351391  0.335779  0.208760
0.401192  0.344342  0.177466
0.425291  0.372663  0.205539
0.468544  0.395703  0.194750
0.529143  0.431195  0.171478
0.573127  0.469025  0.168885
0.600471  0.491490  0.127044
0.663919  0.524884  0.145585
0.694104  0.570597  0.119447
0.742466  0.613207  0.115241
0.781028  0.636204  0.127194
0.825129  0.655459  0.135176
0.869276  0.693187  0.128590
0.915280  0.706871  0.125415
0.365569  0.331992  0.195694
0.388448  0.349075  0.206656
0.437291  0.384199  0.201958
0.499951  0.409350  0.161039
0.509702  0.427028  0.160373
0.556316  0.452122  0.173054
0.582593  0.482679  0.151791
0.651478  0.536916  0.140669
0.691622  0.570913  0.118389
0.727906  0.602004  0.125253
0.767000  0.627014  0.112852
0.808396  0.659420  0.115246
0.867174  0.703692  0.130138
0.903846  0.707372  0.128280
0.979210  0.755687  0.137821
0.392768  0.349457  0.205510
0.434580  0.377643  0.201966
0.485495  0.408487  0.197742
0.511235  0.424977  0.182715
0.567558  0.468579  0.171565
0.605086  0.492148  0.156487
0.633739  0.503188  0.143138
0.687091  0.549235  0.129409
0.724810  0.586899  0.149357
0.785812  0.634079  0.113002
0.792116  0.656574  0.128064
0.833429  0.695279  0.128836
0.885513  0.729073  0.125749
0.934340  0.750570  0.130838
0.983257  0.777064  0.138300
0.429562  0.380249  0.207606
0.462158  0.394681  0.200591
0.522009  0.429989  0.173932
0.540096  0.443255  0.190949
0.592302  0.488280  0.182388
0.648772  0.535788  0.161178
0.683721  0.553239  0.126156
0.715096  0.578845  0.137413
0.755248  0.617455  0.129453
0.786580  0.657460  0.129296
0.834299  0.686753  0.129403
0.865609  0.701911  0.146763
0.910190  0.741241  0.118201
0.958098  0.766415  0.153354
0.994245  0.780788  0.125505
0.473856  0.402057  0.201080
0.515331  0.427997  0.179543
0.529952  0.434549  0.184271
0.591301  0.485637  0.166675
0.625233  0.514457  0.154096
0.680625  0.572627  0.137058
0.720069  0.582232  0.139738
0.764021  0.632265  0.124336
0.785984  0.642032  0.134527
0.810214  0.668531  0.131510
0.842841  0.691568  0.133388
0.905035  0.739368  0.136383
0.932321  0.754177  0.129120
0.990288  0.780771  0.137775
1.032898  0.810340  0.141486
0.504382  0.429712  0.212554
0.543808  0.463660  0.192102
0.598964  0.492778  0.164574
0.633742  0.526252  0.152683
0.679456  0.557287  0.163753
0.709071  0.583768  0.141614
0.761140  0.624398  0.134481
0.784911  0.632919  0.134053
0.815634  0.680465  0.130682
0.867103  0.702975  0.140364
0.896206  0.739133  0.116798
0.921030  0.744398  0.134001
0.968291  0.772107  0.137419
1.028084  0.801215  0.123486
1.068305  0.831395  0.137918
0.120384  0.123750  0.072712
0.125264  0.117553  0.062884
0.146864  0.147621  0.098152
0.160631  0.166523  0.120954
0.202218  0.177855  0.087140
0.237203  0.207388  0.105613
0.319400  0.261544  0.098326
0.373397  0.289223  0.096563
0.406154  0.311743  0.095310
0.462606  0.338746  0.089591
0.512537  0.382098  0.080630
0.566502  0.412142  0.079489
0.606733  0.439141  0.075232
0.682161  0.466305  0.059740
0.736456  0.492743  0.068036
0.135597  0.139516  0.094221
0.144682  0.152003  0.110610
0.158163  0.164673  0.120461
0.187214  0.186022  0.134262
0.208298  0.201319  0.126542
0.255732  0.222988  0.117735
0.327053  0.279936  0.113742
0.383366  0.308792  0.114347
0.431830  0.331444  0.095998
0.473132  0.365186  0.092739
0.544089  0.397206  0.089764
0.585937  0.423745  0.082706
0.657759  0.470935  0.079964
0.700256  0.488072  0.061894
0.764516  0.523526  0.068455
0.140556  0.149430  0.112266
0.162591  0.180505  0.137160
0.180949  0.194204  0.151968
0.200470  0.216659  0.176829
0.223923  0.225798  0.154698
0.288426  0.261900  0.139710
0.338344  0.296644  0.140242
0.396454  0.321120  0.140238
0.451450  0.351088  0.105802
0.512428  0.389148  0.104714
0.550379  0.418723  0.106029
0.612841  0.445146  0.081731
0.649365  0.469937  0.081639
0.708265  0.505831  0.084241
0.796858  0.553162  0.068449
0.160192  0.176057  0.139966
0.174174  0.199744  0.173521
0.186485  0.212613  0.182840
0.210285  0.228295  0.181990
0.260943  0.262774  0.192624
0.293323  0.283962  0.180379
0.362335  0.313764  0.161827
0.407698  0.334433  0.135157
0.481265  0.379941  0.117430
0.538312  0.414332  0.115775
0.552044  0.422721  0.118845
0.623171  0.476244  0.109431
0.679483  0.504205  0.099078
0.723498  0.523345  0.089797
0.793684  0.547374  0.101071
0.179485  0.208762  0.193998
0.203332  0.231420  0.208283
0.201820  0.233003  0.202475
0.232525  0.251071  0.205521
0.269684  0.268717  0.205161
0.312122  0.294113  0.190959
0.356733  0.320584  0.188892
0.442552  0.364473  0.160105
0.470213  0.379114  0.158863
0.545480  0.415410  0.118513
0.599588  0.460759  0.122894
0.630106  0.478222  0.123160
0.693084  0.530190  0.133006
0.736153  0.552638  0.110817
0.812053  0.579918  0.106287
0.192867  0.224981  0.202240
0.207333  0.241194  0.212959
0.227242  0.262895  0.233987
0.246129  0.276213  0.242277
0.298652  0.304511  0.243514
0.353556  0.332941  0.216745
0.416995  0.366623  0.187142
0.459578  0.387979  0.194879
0.502603  0.398019  0.171674
0.540198  0.429492  0.158315
0.607109  0.482480  0.154238
0.659710  0.515793  0.142119
0.730956  0.552723  0.128933
0.772372  0.582708  0.144663
0.805443  0.603631  0.136281
0.221350  0.260200  0.240747
0.231128  0.258628  0.232368
0.263490  0.292496  0.257024
0.290931  0.313073  0.262683
0.331093  0.322912  0.240822
0.392179  0.365888  0.243685
0.432514  0.376197  0.207174
0.485038  0.403854  0.212636
0.535847  0.442675  0.197923
0.573258  0.449726  0.162013
0.621177  0.489423  0.169780
0.710953  0.545606  0.151493
0.738115  0.572330  0.166296
0.791196  0.610101  0.128006
0.853251  0.645743  0.147659
0.219990  0.266456  0.254308
0.272604  0.306359  0.269370
0.301091  0.325782  0.276027
0.330653  0.337158  0.268312
0.363822  0.348030  0.241428
0.432296  0.381975  0.214639
0.465459  0.402648  0.231760
0.523612  0.435122  0.214550
0.561815  0.461090  0.222043
0.608182  0.486968  0.185211
0.690196  0.545954  0.161345
0.713907  0.567969  0.183755
0.780964  0.603713  0.167896
0.811481  0.617519  0.169019
0.862471  0.641978  0.166979
0.271131  0.301790  0.262151
0.291877  0.316100  0.280746
0.322119  0.340234  0.279112
0.364915  0.358767  0.264759
0.412226  0.384747  0.250523
0.451775  0.410050  0.264498
0.505040  0.437280  0.235505
0.544956  0.468911  0.214787
0.582323  0.495229  0.234551
0.661654  0.539930  0.184525
0.727592  0.583022  0.168630
0.752011  0.598458  0.180484
0.780801  0.625281  0.188785
0.851351  0.661897  0.190238
0.911046  0.694737  0.183912
0.284238  0.325670  0.301721
0.335403  0.345150  0.279115
0.382262  0.373601  0.269543
0.400115  0.383104  0.258737
0.476572  0.416616  0.256555
0.512011  0.446439  0.247829
0.531727  0.454175  0.244694
0.598335  0.500430  0.235528
0.644642  0.533011  0.197298
0.665996  0.557632  0.197724
0.744651  0.602077  0.167782
0.791568  0.639753  0.167985
0.815106  0.654190  0.179513
0.888825  0.701163  0.188061
