LUT/LUT_25.CUBE
TITLE "LUT_25" 
#LUT size 
LUT_3D_SIZE 15 
DOMAIN_MIN 0.0 0.0 0.0 
DOMAIN_MAX 1.0 1.0 1.0 
#data point 
0.069140  0.064335  0.030638
0.080315  0.078237  0.032317
0.099042  0.094571  0.047076
0.125291  0.118860  0.069527
0.187059  0.164459  0.068674
0.245647  0.203730  0.070082
0.314077  0.238109  0.055867
0.356454  0.261825  0.061286
0.423534  0.301828  0.059532
0.465299  0.332094  0.061274
0.531725  0.348763  0.054846
0.559580  0.378080  0.055870
0.639789  0.397904  0.051606
0.689283  0.430908  0.054000
0.762731  0.458264  0.054789
0.081857  0.080006  0.038076
0.092367  0.086371  0.038376
0.113279  0.104313  0.054882
0.155330  0.139969  0.066752
0.207726  0.174461  0.077559
0.265423  0.217261  0.078549
0.333073  0.251776  0.071215
0.385776  0.284438  0.058184
0.431321  0.316558  0.065666
0.471534  0.334062  0.061063
0.539686  0.363375  0.058862
0.597964  0.403828  0.062250
0.661418  0.439870  0.053989
0.712067  0.461710  0.050862
0.774324  0.476070  0.056253
0.106019  0.102048  0.046365
0.098085  0.096268  0.048337
0.129807  0.118286  0.057560
0.168858  0.154785  0.082759
0.232749  0.197081  0.082536
0.279059  0.226269  0.073465
0.359438  0.269193  0.089961
0.398072  0.293184  0.065421
0.460976  0.329054  0.069856
0.502071  0.352709  0.069755
0.548615  0.384935  0.062881
0.623152  0.425883  0.064996
0.666050  0.445287  0.062084
0.740548  0.468151  0.064195
0.793279  0.495491  0.060045
0.114470  0.111434  0.055510
0.131245  0.121904  0.061630
0.163335  0.147880  0.068200
0.207413  0.180849  0.087180
0.271615  0.225348  0.081256
0.315483  0.254939  0.083340
0.374319  0.280574  0.069866
0.429213  0.317601  0.068622
0.479586  0.345157  0.063932
0.513422  0.373211  0.059439
0.577085  0.401894  0.065699
0.639383  0.433280  0.070268
0.680927  0.457296  0.053340
0.758970  0.483530  0.057772
0.816371  0.528276  0.056634
0.150798  0.143744  0.079074
0.172288  0.157015  0.085565
0.222673  0.188672  0.092576
0.246237  0.212508  0.095475
0.292972  0.238060  0.083102
0.355670  0.278614  0.091480
0.395949  0.307772  0.083614
0.455579  0.331383  0.073822
0.506004  0.372346  0.072882
0.558142  0.396684  0.065988
0.594356  0.436651  0.069510
0.675194  0.471917  0.065175
0.710329  0.482758  0.061797
0.769115  0.514866  0.060751
0.835474  0.540155  0.057850
0.172130  0.164323  0.100639
0.209884  0.186687  0.089493
0.253017  0.209906  0.091323
0.302477  0.243062  0.087143
0.344391  0.271425  0.071616
0.371014  0.290535  0.092598
0.426983  0.325304  0.076553
0.487179  0.366133  0.086692
0.522665  0.381693  0.067084
0.560930  0.417510  0.061697
0.629520  0.453908  0.062369
0.675410  0.483597  0.063495
0.748300  0.508317  0.066998
0.798502  0.541324  0.065164
0.847211  0.562997  0.072039
0.227056  0.191511  0.088072
0.260725  0.219097  0.100575
0.309260  0.251256  0.104229
0.347141  0.281764  0.098996
0.378600  0.299215  0.081192
0.425721  0.335248  0.087025
0.452705  0.352090  0.077176
0.520335  0.399148  0.088326
0.551058  0.415117  0.071423
0.620031  0.478194  0.072814
0.649676  0.482364  0.070347
0.693624  0.504398  0.073618
0.752042  0.533334  0.068509
0.815232  0.566431  0.065507
0.877519  0.594713  0.063542
0.284442  0.238162  0.106498
0.307821  0.256995  0.097928
0.331979  0.269594  0.097500
0.382275  0.293843  0.085410
0.427482  0.342170  0.092759
0.467535  0.368648  0.074828
0.489357  0.389932  0.081665
0.539034  0.414589  0.074691
0.585099  0.461297  0.082433
0.639853  0.487830  0.071022
0.676605  0.527316  0.074754
0.732252  0.556358  0.074258
0.782483  0.581043  0.075096
0.847955  0.606719  0.077635
0.908922  0.632340  0.069956
0.301305  0.257241  0.110361
0.355915  0.290877  0.096918
0.388314  0.302145  0.080261
0.415605  0.326000  0.087909
0.475197  0.374350  0.088813
0.497384  0.391546  0.087885
0.526465  0.420621  0.077961
0.580606  0.459734  0.080285
0.612019  0.498389  0.065559
0.671394  0.540321  0.067215
0.693596  0.561115  0.075615
0.743678  0.591779  0.086209
0.812367  0.611067  0.078253
0.843727  0.661187  0.079742
0.920142  0.675312  0.071611
0.369626  0.301132  0.106938
0.391712  0.316749  0.093660
0.421878  0.336414  0.086013
0.463894  0.372071  0.091549
0.495462  0.397775  0.082288
0.536001  0.425318  0.082786
0.579852  0.470250  0.080540
0.626165  0.500457  0.082974
0.657426  0.539122  0.068039
0.697312  0.575591  0.074116
0.748941  0.611676  0.078211
0.778901  0.629430  0.074958
0.819799  0.661381  0.082552
0.875681  0.676501  0.077936
0.929550  0.711157  0.079197
0.385467  0.316857  0.109155
0.427353  0.337972  0.093038
0.460568  0.386300  0.088349
0.495871  0.396263  0.087506
0.556793  0.439821  0.091807
0.577816  0.473834  0.078808
0.606865  0.496374  0.087833
0.661149  0.544461  0.074195
0.698749  0.584145  0.071560
0.726465  0.599502  0.069758
0.781557  0.653015  0.074756
0.804191  0.659117  0.080331
0.856499  0.699958  0.070923
0.916627  0.720209  0.075118
0.949588  0.751180  0.086068
0.434082  0.348659  0.088858
0.462626  0.377799  0.090895
0.501909  0.405432  0.088283
0.536851  0.428779  0.082432
0.575594  0.477321  0.070096
0.626107  0.504664  0.077913
0.645993  0.539029  0.072292
0.679311  0.568839  0.071829
0.733618  0.618337  0.081251
0.759370  0.638000  0.071717
0.797932  0.669043  0.080305
0.847330  0.696706  0.075531
0.889791  0.713579  0.075138
0.920530  0.753958  0.083147
0.986125  0.772733  0.077352
0.463890  0.381148  0.088142
0.496350  0.400991  0.076875
0.529859  0.432332  0.079663
0.577348  0.471415  0.068679
0.620250  0.504914  0.085927
0.648974  0.543361  0.084524
0.693791  0.573347  0.075255
0.719244  0.586777  0.078692
0.761137  0.629354  0.083257
0.787099  0.656821  0.077231
0.830280  0.684853  0.080258
0.889539  0.718948  0.080965
0.906531  0.742121  0.084610
0.950392  0.772596  0.077446
1.025229  0.793189  0.087956
0.507354  0.415580  0.083717
0.546755  0.459160  0.084387
0.576880  0.484342  0.075146
0.619553  0.510992  0.085686
0.650581  0.545211  0.080742
0.679367  0.556133  0.067138
0.724665  0.599097  0.074868
0.756352  0.629109  0.076459
0.779139  0.651690  0.078125
0.814867  0.672016  0.083171
0.861004  0.696515  0.075083
0.896158  0.731446  0.084380
0.940860  0.764848  0.081920
0.985563  0.790604  0.086444
1.027845  0.807056  0.085695
0.534982  0.441259  0.082988
0.565251  0.470556  0.089535
0.605290  0.505762  0.088882
0.652367  0.540562  0.062666
0.686349  0.562287  0.072249
0.704226  0.587898  0.082213
0.748495  0.617162  0.088263
0.790992  0.659386  0.084588
0.806156  0.675846  0.079244
0.851370  0.703335  0.081261
0.887293  0.724236  0.086886
0.922422  0.755526  0.084226
0.972064  0.780023  0.084472
1.019845  0.803738  0.077578
1.075324  0.846532  0.086351
0.073249  0.072637  0.036488
0.089239  0.083590  0.039821
0.105336  0.098842  0.043269
0.120094  0.116050  0.055626
0.178645  0.152441  0.068355
0.241608  0.197438  0.070841
0.312908  0.250755  0.071092
0.365195  0.269701  0.062607
0.417723  0.297256  0.057408
0.452266  0.310518  0.058408
0.522394  0.352514  0.055636
0.576814  0.383421  0.053323
0.642792  0.406440  0.054858
0.689063  0.439313  0.053761
0.745467  0.460677  0.053796
0.089309  0.080899  0.040828
0.098061  0.091513  0.047289
0.116823  0.105204  0.051319
0.158068  0.142751  0.069047
0.201802  0.179610  0.079347
0.284350  0.228536  0.069834
0.324619  0.251441  0.069614
0.370308  0.283368  0.069169
0.438178  0.314759  0.063751
0.497816  0.343700  0.063623
0.529658  0.367249  0.061509
0.586371  0.394865  0.050996
0.655845  0.440207  0.053339
0.707778  0.446756  0.059337
0.774626  0.481242  0.056249
0.098659  0.096669  0.046672
0.108828  0.104653  0.059133
0.146079  0.133827  0.074044
0.173148  0.157588  0.082724
0.219168  0.193581  0.092354
0.302815  0.242688  0.073695
0.334151  0.259110  0.068877
0.400920  0.296018  0.071675
0.451409  0.321770  0.069914
0.505288  0.352465  0.061639
0.558296  0.386663  0.068481
0.614628  0.425779  0.060236
0.683978  0.445813  0.057090
0.729638  0.480175  0.059121
0.812131  0.505256  0.061803
0.127633  0.124763  0.074102
0.142426  0.136121  0.074802
0.168517  0.158328  0.090924
0.197952  0.179346  0.096655
0.252403  0.220896  0.091552
0.325175  0.258560  0.080654
0.363165  0.283043  0.087587
0.432054  0.327410  0.082993
0.472854  0.354963  0.078416
0.510912  0.373095  0.071793
0.577934  0.410680  0.075909
0.639163  0.441154  0.068484
0.690993  0.466651  0.059766
0.726644  0.489207  0.065024
0.812810  0.519642  0.058726
0.157384  0.151048  0.090878
0.170040  0.162748  0.094712
0.204329  0.190272  0.112804
0.242225  0.211980  0.106187
0.293494  0.252073  0.115938
0.347983  0.268802  0.086975
0.392140  0.309346  0.091788
0.439368  0.332793  0.074215
0.496217  0.375715  0.082560
0.543070  0.409463  0.088149
0.591662  0.424009  0.068492
0.659066  0.460120  0.063049
0.720999  0.494054  0.075464
0.776600  0.511202  0.060857
0.813867  0.543500  0.063840
0.190175  0.169421  0.104020
0.215440  0.192409  0.111426
0.248465  0.226963  0.130887
0.290891  0.245441  0.127164
0.342877  0.269405  0.099910
0.395890  0.308384  0.100169
0.446044  0.336858  0.086778
0.469128  0.352836  0.108618
0.514111  0.393533  0.085850
0.571623  0.426102  0.097038
0.614618  0.456062  0.072882
0.675441  0.489280  0.072597
0.725038  0.510611  0.079108
0.801488  0.543525  0.063051
0.865207  0.584056  0.062991
0.232238  0.221216  0.143203
0.268315  0.233330  0.118276
0.288250  0.255732  0.140769
0.323391  0.274975  0.124827
0.389705  0.304108  0.103258
0.423357  0.339734  0.101509
0.462561  0.361765  0.092215
0.511935  0.392567  0.105833
0.545587  0.421356  0.103062
0.592982  0.449915  0.095786
0.658429  0.488200  0.082951
0.696071  0.519871  0.076300
0.760125  0.547776  0.067453
0.821091  0.583544  0.062487
0.871961  0.604381  0.061699
0.259261  0.236630  0.126583
0.289860  0.261620  0.129976
0.338308  0.294479  0.143587
0.372277  0.308617  0.141686
0.428023  0.339057  0.095730
0.456826  0.364663  0.102424
0.510085  0.398070  0.094308
0.552183  0.427430  0.089502
0.588967  0.454268  0.091036
0.611811  0.486373  0.083937
0.678534  0.527025  0.075967
0.722412  0.549806  0.077934
0.791778  0.577814  0.066315
0.841108  0.597848  0.067979
0.915602  0.623932  0.076961
0.306632  0.266513  0.132547
0.346862  0.293149  0.141018
0.378264  0.312770  0.114709
0.395024  0.331245  0.118600
0.450614  0.360611  0.110942
0.503408  0.403797  0.105113
0.530122  0.426149  0.110889
0.581927  0.466678  0.080069
0.613027  0.497271  0.088458
0.672851  0.541752  0.089717
0.706351  0.564559  0.087612
0.754413  0.592462  0.088101
0.805640  0.618863  0.080596
0.867939  0.656589  0.090678
0.913520  0.668470  0.078287
0.331739  0.285404  0.126462
0.389461  0.325559  0.127957
0.421099  0.347004  0.137438
0.470252  0.380675  0.107648
0.496778  0.408441  0.107693
0.554751  0.444644  0.091267
0.588057  0.478554  0.102592
0.615110  0.507195  0.096105
0.662169  0.546944  0.088309
0.688823  0.569485  0.091441
0.748810  0.612633  0.075065
0.775293  0.631614  0.079940
0.827455  0.649928  0.077258
0.883378  0.680791  0.078463
0.944843  0.720609  0.084885
0.371732  0.322653  0.148191
0.395200  0.335285  0.136780
0.436339  0.362539  0.125871
0.503836  0.412478  0.109639
0.541621  0.432178  0.113961
0.579652  0.476564  0.095572
0.630788  0.525438  0.087464
0.663494  0.547296  0.087250
0.696885  0.579681  0.089349
0.733268  0.614323  0.083808
0.778395  0.634835  0.081533
0.824202  0.673898  0.094327
0.854483  0.684881  0.064026
0.922308  0.720372  0.092904
0.955332  0.729784  0.095353
0.409728  0.340482  0.138077
0.455880  0.372011  0.130050
0.506542  0.418592  0.105502
0.532921  0.431250  0.106163
0.574268  0.484246  0.115192
0.613275  0.505902  0.093255
0.636325  0.526713  0.107407
0.680862  0.566878  0.103463
0.718180  0.593094  0.086510
0.736722  0.624745  0.094319
0.793355  0.660253  0.076165
0.851508  0.688331  0.090679
0.898907  0.733918  0.090315
0.920826  0.751050  0.089638
0.976846  0.774659  0.078621
0.465632  0.386175  0.122984
0.515681  0.426756  0.084075
0.543432  0.441873  0.112662
0.599826  0.486158  0.095408
0.609776  0.498633  0.094977
0.651763  0.543676  0.105274
0.698312  0.578379  0.096718
0.709362  0.588221  0.092976
0.759251  0.628142  0.092594
0.795106  0.661787  0.093610
0.826961  0.681790  0.090000
0.886071  0.720963  0.097926
0.915577  0.747615  0.089291
0.978522  0.775447  0.086351
1.006761  0.786661  0.087567
0.495738  0.400453  0.126564
0.522822  0.424026  0.108751
0.574123  0.470343  0.089281
0.592279  0.484446  0.090683
0.649867  0.546690  0.091740
0.673320  0.562806  0.085002
0.697700  0.592998  0.103942
0.758235  0.634158  0.081172
0.789232  0.651293  0.093339
0.820842  0.682940  0.101510
0.864697  0.714855  0.094772
0.887598  0.730010  0.099622
0.935353  0.762110  0.095179
0.986098  0.788663  0.080666
1.026873  0.814019  0.091510
0.544501  0.441394  0.122773
0.578504  0.479491  0.093302
0.595898  0.480255  0.105835
0.641284  0.519210  0.095512
0.670582  0.564979  0.097306
0.711264  0.594153  0.095374
0.748641  0.624124  0.097075
0.779260  0.647359  0.101034
0.814067  0.675369  0.100613
0.857958  0.704329  0.102826
0.897454  0.734432  0.108967
0.919311  0.754071  0.098775
0.973995  0.793437  0.094329
1.033857  0.813562  0.091072
1.080118  0.841699  0.100601
0.093468  0.085233  0.045847
0.107002  0.108361  0.061840
0.115476  0.113171  0.057884
0.153951  0.144883  0.072041
0.189653  0.162868  0.085954
0.243692  0.197650  0.080656
0.304535  0.244424  0.076006
0.378186  0.278466  0.067664
0.424638  0.299126  0.065415
0.464805  0.329924  0.065745
0.514934  0.356930  0.057615
0.573532  0.385326  0.062888
0.632380  0.416085  0.059630
0.709312  0.453040  0.059677
0.765521  0.458911  0.052830
0.114115  0.110341  0.060797
0.122167  0.123241  0.071684
0.139188  0.138922  0.073841
0.155437  0.147362  0.092855
0.219231  0.197110  0.092191
0.282042  0.237973  0.082458
0.342232  0.266037  0.083326
0.383039  0.284389  0.079466
0.442695  0.327955  0.059807
0.488926  0.346841  0.066786
0.543595  0.383271  0.067338
0.599751  0.407595  0.059337
0.649166  0.435606  0.064931
0.740133  0.465993  0.058284
0.772891  0.486531  0.060142
0.122470  0.124755  0.074728
0.141528  0.142925  0.103977
0.158147  0.159450  0.102789
0.184466  0.178199  0.107756
0.229394  0.206317  0.103083
0.295392  0.254474  0.116630
0.333327  0.274624  0.094817
0.389480  0.305398  0.090240
0.456351  0.345572  0.087470
0.514892  0.369756  0.087075
0.556072  0.404994  0.070688
0.614313  0.428874  0.070334
0.683223  0.449982  0.056311
0.737490  0.480342  0.068622
0.788802  0.504576  0.059887
0.149742  0.157165  0.112761
0.150935  0.160419  0.122371
0.163301  0.176520  0.139861
0.202866  0.199214  0.135025
0.237587  0.209533  0.124622
0.317199  0.276570  0.125330
0.365319  0.304853  0.124183
0.413604  0.317291  0.114380
0.485506  0.368282  0.092924
0.532410  0.389738  0.095678
0.566840  0.417750  0.087438
0.639693  0.449179  0.070850
0.688885  0.478688  0.076379
0.732000  0.493240  0.070788
0.805452  0.528380  0.063369
0.158490  0.172377  0.135410
0.190973  0.208553  0.175467
0.204589  0.210707  0.149009
0.223260  0.224664  0.155979
0.290070  0.262780  0.155839
0.329710  0.287371  0.138093
0.388530  0.317958  0.129041
0.453149  0.354299  0.118056
0.494785  0.385706  0.113883
0.544034  0.408084  0.105764
0.608425  0.438481  0.102722
0.663404  0.470245  0.087923
0.708747  0.496056  0.079816
0.765771  0.542353  0.079667
0.828565  0.559086  0.073839
0.173749  0.198530  0.169880
0.194621  0.207762  0.166272
0.238393  0.239689  0.170646
0.266489  0.249552  0.161323
0.312510  0.280109  0.162069
0.361182  0.319542  0.170568
0.418136  0.341733  0.143739
0.470739  0.366881  0.127585
0.533511  0.415170  0.099682
0.575399  0.434769  0.113496
0.631442  0.464342  0.095018
0.668687  0.497959  0.114817
0.723697  0.512676  0.091134
0.793795  0.562197  0.090386
0.843744  0.580102  0.083939
0.205094  0.225324  0.179239
0.231764  0.239222  0.183362
0.277782  0.266659  0.185019
0.317014  0.293802  0.182178
0.345907  0.314068  0.169806
0.402074  0.342727  0.161621
0.453874  0.369056  0.157084
0.497020  0.397293  0.137114
0.535958  0.419291  0.140710
0.583031  0.457776  0.126574
0.640405  0.491131  0.129997
0.699237  0.528056  0.129039
0.750375  0.550332  0.126903
0.820651  0.587841  0.106721
0.867464  0.608846  0.083841
0.263465  0.267562  0.203766
0.280925  0.283304  0.209516
0.328974  0.306383  0.183599
0.356168  0.322228  0.175342
0.393743  0.349310  0.178024
0.440462  0.371420  0.159875
0.499018  0.410364  0.163873
0.541208  0.435680  0.145203
0.592055  0.471177  0.121640
0.645218  0.501073  0.130505
0.677754  0.520519  0.123801
0.714925  0.548693  0.138180
0.773720  0.585252  0.120681
0.838733  0.619055  0.111666
0.885404  0.638513  0.110401
0.284177  0.283307  0.200465
0.328723  0.305340  0.190986
0.346242  0.313965  0.184034
0.403245  0.353577  0.187953
0.431027  0.369762  0.189423
0.466467  0.396475  0.181746
0.536008  0.440176  0.162661
0.565410  0.465540  0.136164
0.624853  0.503330  0.115075
0.667369  0.527650  0.128023
0.711360  0.565397  0.115330
0.744711  0.600343  0.126837
0.810275  0.621072  0.127955
0.856027  0.649999  0.129541
0.924727  0.674530  0.118846
0.315676  0.303603  0.221206
0.360852  0.332910  0.201549
0.400063  0.348623  0.180146
0.424752  0.377255  0.202311
0.464561  0.395143  0.189334
0.527195  0.432052  0.169708
0.574344  0.466086  0.163907
0.606487  0.493714  0.132563
0.659770  0.532529  0.140911
0.699080  0.577598  0.120863
0.745139  0.614762  0.126556
0.788159  0.632849  0.123387
0.835891  0.659371  0.144362
0.874050  0.690898  0.133551
0.926349  0.702031  0.116883
0.361981  0.337678  0.194239
0.395367  0.353857  0.200092
0.434488  0.385811  0.199812
0.495455  0.413140  0.168364
0.515446  0.435169  0.160094
0.550092  0.458384  0.177715
0.585878  0.497001  0.153042
0.648996  0.544358  0.145250
0.687632  0.570824  0.115401
0.723741  0.604135  0.128232
0.763929  0.633457  0.121386
0.800326  0.659958  0.121312
0.863103  0.704999  0.135673
0.908872  0.712129  0.128576
0.980708  0.759827  0.139844
0.409971  0.361492  0.204425
0.435847  0.380468  0.196991
0.488589  0.410618  0.188464
0.521012  0.436266  0.181786
0.567794  0.465860  0.172040
0.598038  0.503703  0.155893
0.628381  0.520182  0.150455
0.677888  0.558544  0.132355
0.722566  0.597991  0.148416
0.773357  0.636637  0.120492
0.795901  0.658592  0.129571
0.834895  0.695417  0.133238
0.891012  0.725344  0.124634
0.934134  0.757949  0.136585
0.980653  0.779791  0.148129
0.433198  0.383007  0.201610
0.463738  0.404929  0.195899
0.519753  0.436501  0.168533
0.537770  0.455925  0.196831
0.584109  0.492482  0.179041
0.640400  0.536157  0.165999
0.676449  0.559531  0.133372
0.705178  0.601150  0.140074
0.753725  0.629437  0.139018
0.788263  0.655411  0.136742
0.822422  0.688758  0.135600
0.864679  0.718008  0.145325
0.916157  0.747773  0.120008
0.966337  0.778579  0.152814
1.000399  0.783919  0.129024
0.465192  0.402696  0.208510
0.513946  0.439451  0.182297
0.529262  0.447779  0.191653
0.589657  0.499921  0.159182
0.618981  0.528874  0.152923
0.680863  0.578148  0.141269
0.710673  0.590619  0.140110
0.750353  0.637815  0.126224
0.781019  0.649487  0.139181
0.805395  0.673133  0.129458
0.841414  0.699619  0.128944
0.901200  0.744797  0.134945
0.932298  0.758322  0.134915
0.990730  0.789565  0.128079
1.033181  0.818952  0.149243
0.505466  0.444376  0.211362
0.554445  0.470952  0.195266
0.588928  0.507302  0.166296
0.628381  0.529875  0.155379
0.676169  0.552468  0.159202
0.697483  0.590149  0.151122
0.752810  0.628646  0.138367
0.776178  0.643977  0.136518
0.805784  0.680960  0.136185
0.859377  0.714445  0.145545
0.897571  0.743520  0.119813
0.919194  0.750674  0.145924
0.967873  0.784204  0.140986
1.026111  0.809904  0.124122
1.064965  0.835158  0.134245
0.120005  0.117808  0.073405
0.125308  0.122075  0.071927
0.141599  0.148688  0.100357
0.156115  0.164383  0.122007
0.197734  0.182872  0.091199
0.245076  0.207957  0.089863
0.324123  0.259134  0.092214
0.380776  0.290570  0.086525
0.405953  0.304815  0.077619
0.474863  0.343427  0.078420
0.518096  0.373321  0.076058
0.583914  0.399051  0.071189
0.617162  0.419145  0.068023
0.700725  0.447039  0.048361
0.752541  0.467125  0.059774
0.129455  0.139192  0.098236
0.132109  0.147087  0.116836
0.154912  0.159349  0.120921
0.182312  0.189594  0.134829
0.211334  0.203482  0.132193
0.265144  0.236918  0.120673
0.336931  0.282188  0.120735
0.385082  0.309442  0.106086
0.433240  0.324436  0.089296
0.487489  0.361244  0.085344
0.545000  0.390465  0.081158
0.597826  0.416398  0.079313
0.665564  0.451933  0.071763
0.715356  0.464738  0.064522
0.786883  0.495344  0.058882
0.140212  0.151338  0.112301
0.157364  0.167344  0.141323
0.175002  0.190711  0.158303
0.194355  0.216389  0.172413
0.222997  0.226218  0.159394
0.291756  0.258870  0.138764
0.355820  0.293638  0.140043
0.399425  0.324232  0.126396
0.462989  0.354196  0.101186
0.511210  0.382665  0.098620
0.558030  0.411349  0.101717
0.616188  0.435065  0.079539
0.658676  0.458997  0.085023
0.735366  0.494228  0.071877
0.818250  0.526204  0.061446
0.150345  0.175832  0.155585
0.168018  0.201934  0.184960
0.188019  0.215322  0.190317
0.204287  0.224571  0.190542
0.260278  0.257758  0.189834
0.305601  0.286284  0.178593
0.367770  0.322196  0.159209
0.413741  0.334798  0.131757
0.486534  0.379198  0.121370
0.544192  0.412741  0.115379
0.568767  0.418226  0.114973
0.630386  0.457352  0.107036
0.701335  0.498193  0.098818
0.742948  0.505988  0.085978
0.808746  0.536488  0.102344
0.171315  0.210414  0.193733
0.191178  0.228852  0.213353
0.194305  0.235029  0.213538
0.236802  0.254296  0.207198
0.270330  0.272885  0.204799
0.319158  0.301390  0.196946
0.362348  0.329052  0.190855
0.449287  0.366619  0.164394
0.481179  0.378391  0.150608
0.552847  0.420148  0.126075
0.602385  0.457451  0.126403
0.642090  0.478612  0.130945
0.698908  0.514029  0.131525
0.751883  0.542173  0.112237
0.832851  0.567800  0.100927
0.187574  0.229783  0.205748
0.203541  0.238227  0.218412
0.227466  0.268223  0.237537
0.243920  0.271587  0.239276
0.291928  0.300960  0.244816
0.351105  0.325042  0.217704
0.418631  0.367569  0.183463
0.471750  0.389422  0.197996
0.511434  0.409711  0.173478
0.546868  0.427587  0.170416
0.612527  0.475727  0.154984
0.662750  0.515267  0.151371
0.738506  0.541210  0.131056
0.777641  0.573224  0.135102
0.825033  0.587920  0.131355
0.213853  0.257660  0.244858
0.226191  0.257107  0.232174
0.258518  0.292774  0.255262
0.290175  0.310345  0.255201
0.330612  0.326099  0.237191
0.385058  0.367130  0.245758
0.432981  0.385273  0.212237
0.489802  0.412251  0.217122
0.539863  0.439704  0.196237
0.579313  0.457327  0.165538
0.632990  0.483042  0.176830
0.713723  0.536553  0.157688
0.741843  0.561007  0.168351
0.796710  0.602228  0.139490
0.866482  0.633635  0.153633
0.224832  0.265005  0.257139
0.270379  0.300700  0.260745
0.302448  0.318266  0.275162
0.336948  0.340898  0.269198
0.376136  0.350789  0.246413
0.430678  0.385248  0.217416
0.468679  0.410795  0.233355
0.529956  0.444112  0.219796
0.561820  0.470675  0.224405
0.614246  0.498143  0.189493
0.686996  0.540046  0.167046
0.724570  0.569586  0.188514
0.791212  0.599521  0.162997
0.816047  0.615570  0.180544
0.874038  0.632156  0.175304
0.269010  0.298037  0.265849
0.289790  0.319415  0.271877
0.326996  0.335870  0.273390
0.369813  0.357793  0.257126
0.418542  0.394734  0.250991
0.454927  0.419010  0.259416
0.503879  0.439715  0.236990
0.551504  0.475505  0.223340
0.591247  0.490179  0.231690
0.660269  0.543181  0.197988
0.715293  0.582103  0.166751
0.759818  0.598419  0.185849
0.789005  0.624561  0.182505
0.863719  0.667797  0.192617
0.909204  0.685670  0.198904
0.285337  0.325823  0.296548
0.336858  0.337974  0.275998
0.387341  0.374424  0.268131
0.412182  0.384813  0.261108
0.479189  0.417680  0.248235
0.511888  0.451287  0.247953
0.539863  0.468645  0.246860
0.591178  0.510227  0.233516
0.645015  0.542168  0.205194
0.678814  0.565617  0.203010
0.744608  0.607559  0.185644
0.792177  0.644036  0.176423
0.806996  0.657206  0.192589
0.896635  0.702982  0.194865
