LUT/LUT_27.CUBE
TITLE "LUT_27" 
#LUT size 
LUT_3D_SIZE 8 
DOMAIN_MIN 0.0 0.0 0.0 
DOMAIN_MAX 1.0 1.0 1.0 
#data point 
0.069120  0.070713  0.030719
0.098854  0.098070  0.048236
0.186227  0.159831  0.070381
0.313662  0.235730  0.061841
0.422203  0.305627  0.060917
0.526778  0.356722  0.059468
0.628241  0.407110  0.050273
0.750721  0.468673  0.054516
0.108471  0.101851  0.050117
0.128428  0.117968  0.056651
0.229998  0.195954  0.088698
0.355248  0.269878  0.089765
0.462405  0.328259  0.070831
0.545168  0.386710  0.066765
0.660462  0.449785  0.065449
0.781523  0.504912  0.058029
0.150417  0.141102  0.082348
0.217356  0.191337  0.095279
0.295431  0.240149  0.084555
0.395443  0.312384  0.085621
0.503740  0.373376  0.075980
0.592942  0.434718  0.072422
0.705003  0.487134  0.065133
0.828998  0.549777  0.060342
0.227089  0.195899  0.085472
0.308513  0.250457  0.106556
0.384258  0.299670  0.085308
0.451398  0.346652  0.081114
0.551466  0.413385  0.077489
0.658352  0.480536  0.070985
0.748818  0.538419  0.076725
0.873787  0.600789  0.068326
0.300387  0.253644  0.111331
0.385445  0.294708  0.083202
0.471941  0.373800  0.090657
0.530209  0.415393  0.083471
0.614971  0.501179  0.069949
0.694823  0.562417  0.074995
0.809963  0.613399  0.080523
0.918792  0.680516  0.075227
0.384874  0.314607  0.110175
0.461548  0.384751  0.088097
0.561413  0.440612  0.090466
0.611129  0.488434  0.086403
0.700271  0.581820  0.073627
0.781335  0.651381  0.073815
0.856810  0.704250  0.072069
0.948469  0.751375  0.090878
0.469153  0.378037  0.091288
0.528378  0.425585  0.086132
0.623065  0.504124  0.087663
0.696670  0.572153  0.074644
0.759380  0.628133  0.084178
0.832334  0.683729  0.080624
0.910337  0.742656  0.086090
1.023880  0.791003  0.086596
0.540874  0.433619  0.090939
0.607831  0.506582  0.086480
0.690548  0.563762  0.074811
0.749134  0.617030  0.088497
0.805002  0.668257  0.081484
0.885623  0.722630  0.091131
0.971727  0.775222  0.087114
1.077251  0.842011  0.084418
0.098696  0.090461  0.045980
0.115171  0.114454  0.057652
0.187027  0.165191  0.083991
0.300458  0.241056  0.081152
0.420382  0.302803  0.067860
0.514692  0.360140  0.060792
0.625938  0.423100  0.061705
0.755510  0.470093  0.054690
0.125629  0.123472  0.069666
0.160590  0.162719  0.097537
0.224533  0.200104  0.100863
0.328668  0.271207  0.100297
0.453352  0.340586  0.088516
0.556173  0.403697  0.070174
0.679280  0.455709  0.058911
0.784096  0.508290  0.059616
0.157724  0.169119  0.132457
0.203487  0.208468  0.147029
0.286552  0.260527  0.154096
0.384685  0.322315  0.124124
0.492333  0.386077  0.112904
0.604132  0.443423  0.103717
0.701575  0.499908  0.081362
0.822591  0.566444  0.079346
0.207545  0.225540  0.182435
0.277998  0.268180  0.187308
0.343142  0.307622  0.165736
0.452332  0.367286  0.156944
0.535383  0.415313  0.136579
0.635611  0.491179  0.131701
0.748205  0.558543  0.123454
0.859431  0.614860  0.088427
0.286453  0.279504  0.207750
0.347426  0.311567  0.183500
0.434053  0.372383  0.192320
0.537843  0.438241  0.169926
0.621939  0.501853  0.120211
0.715400  0.564259  0.112878
0.806141  0.625962  0.125902
0.923389  0.680351  0.122076
0.367363  0.336009  0.195359
0.436906  0.384041  0.198514
0.515380  0.435293  0.163292
0.580412  0.492047  0.150562
0.687414  0.569543  0.116451
0.764100  0.631727  0.114903
0.865676  0.705528  0.133233
0.979997  0.757479  0.138915
0.432217  0.379862  0.205987
0.522555  0.432262  0.170244
0.591174  0.493430  0.175365
0.682727  0.561480  0.130111
0.754905  0.627130  0.134918
0.825338  0.692216  0.138253
0.912748  0.744261  0.119213
1.002574  0.782100  0.131768
0.504620  0.439555  0.208682
0.591704  0.503264  0.164189
0.680034  0.552177  0.159986
0.753276  0.629054  0.138912
0.808758  0.679907  0.133612
0.896608  0.736501  0.118820
0.965197  0.782975  0.141197
1.065628  0.834452  0.135378
0.127907  0.146912  0.107638
0.151045  0.166949  0.124410
0.192468  0.192060  0.138193
0.317234  0.262016  0.124283
0.433138  0.321496  0.090321
0.528337  0.381636  0.090034
0.644363  0.437548  0.082710
0.732242  0.491403  0.075343
0.161562  0.177918  0.148667
0.188654  0.214620  0.193290
0.237318  0.253546  0.215664
0.338172  0.305610  0.180443
0.472257  0.372786  0.145826
0.551889  0.415982  0.140549
0.657727  0.480073  0.112463
0.783781  0.545975  0.103592
0.207034  0.245071  0.227989
0.216335  0.269964  0.261451
0.242699  0.275787  0.247799
0.368876  0.361046  0.260728
0.496838  0.415047  0.227235
0.594858  0.460691  0.155700
0.709438  0.527635  0.148800
0.817630  0.592273  0.144645
0.216322  0.278777  0.285018
0.258474  0.320007  0.322425
0.319389  0.352011  0.311311
0.406502  0.404914  0.314125
0.529921  0.459288  0.257152
0.623835  0.501011  0.232304
0.754247  0.581093  0.208814
0.851617  0.634193  0.199612
0.256138  0.322321  0.316255
0.330735  0.364529  0.330228
0.401456  0.405146  0.326790
0.485838  0.453331  0.332170
0.579494  0.503532  0.296818
0.699111  0.574408  0.289387
0.821154  0.643477  0.241922
0.913701  0.696756  0.245467
0.312963  0.371014  0.363975
0.402637  0.422395  0.366174
0.478412  0.450046  0.340080
0.565375  0.512209  0.330766
0.661230  0.581599  0.322588
0.760052  0.643457  0.268134
0.862454  0.707508  0.259379
0.962866  0.753085  0.265605
0.363212  0.399989  0.361399
0.451406  0.459295  0.359844
0.558823  0.513296  0.327775
0.641453  0.568808  0.338600
0.733522  0.630528  0.319361
0.814892  0.682662  0.311476
0.916253  0.738241  0.264898
1.018733  0.798503  0.247768
0.443083  0.451116  0.373618
0.558036  0.516148  0.351204
0.634241  0.562542  0.333138
0.712012  0.617966  0.318201
0.784337  0.671455  0.306302
0.898016  0.738968  0.279221
0.966643  0.782445  0.277845
1.077904  0.838303  0.259258
0.161732  0.191417  0.174814
0.176465  0.222167  0.208463
0.216416  0.258143  0.232986
0.294999  0.305905  0.245474
0.447518  0.370673  0.170274
0.540869  0.422400  0.150124
0.650035  0.472620  0.137255
0.746571  0.527694  0.140458
0.183706  0.227554  0.211075
0.220022  0.263609  0.256474
0.256039  0.305812  0.292501
0.325115  0.350283  0.303629
0.470209  0.397745  0.223929
0.568588  0.450760  0.207682
0.683807  0.512047  0.179625
0.789481  0.581340  0.183863
0.220259  0.275101  0.272168
0.258925  0.319406  0.320092
0.283534  0.355281  0.364441
0.391082  0.417616  0.369952
0.462926  0.461736  0.362470
0.597595  0.508495  0.274480
0.717949  0.571771  0.268405
0.831154  0.636758  0.250125
0.257352  0.326986  0.339269
0.288094  0.367450  0.382840
0.316818  0.403264  0.424604
0.395119  0.433314  0.407238
0.502446  0.500021  0.406362
0.641144  0.560958  0.347526
0.742054  0.612482  0.321198
0.869510  0.676635  0.294726
0.299831  0.386164  0.406339
0.341421  0.434324  0.449759
0.371556  0.448632  0.460157
0.474842  0.504504  0.455888
0.558395  0.563622  0.478122
0.646511  0.593351  0.419788
0.779483  0.671491  0.392626
0.914182  0.739064  0.357788
0.328452  0.426135  0.456910
0.362313  0.460731  0.475784
0.449731  0.490215  0.458847
0.518068  0.544103  0.487758
0.605674  0.594238  0.488366
0.713591  0.660506  0.484810
0.858217  0.740257  0.436272
0.940837  0.782471  0.425492
0.355190  0.465776  0.495278
0.430849  0.509491  0.503707
0.520359  0.541439  0.475879
0.593318  0.592622  0.493787
0.696924  0.655014  0.492937
0.801721  0.715513  0.464401
0.904352  0.770369  0.456071
1.004258  0.821192  0.473155
0.405697  0.504340  0.528688
0.486023  0.532016  0.489748
0.568677  0.581718  0.511216
0.672279  0.642758  0.487310
0.788634  0.707611  0.476257
0.866515  0.744846  0.463572
0.967110  0.809039  0.482692
1.062377  0.851329  0.484793
0.179843  0.230697  0.234178
0.222322  0.277517  0.281659
0.242531  0.301227  0.308616
0.303755  0.338369  0.310093
0.413942  0.395326  0.300802
0.541306  0.462970  0.249764
0.675803  0.516852  0.219701
0.773140  0.550767  0.189150
0.226410  0.284908  0.291425
0.250850  0.316521  0.321601
0.279159  0.355754  0.371634
0.342014  0.406829  0.404418
0.426471  0.443995  0.385955
0.553238  0.491421  0.327831
0.678741  0.550625  0.281207
0.789985  0.607458  0.253796
0.262598  0.337853  0.350133
0.294891  0.370554  0.389647
0.315093  0.403692  0.424640
0.385836  0.464012  0.463073
0.470333  0.502257  0.447104
0.573327  0.545985  0.423046
0.709929  0.612113  0.368355
0.826329  0.660814  0.334206
0.294721  0.384707  0.405572
0.323546  0.420703  0.440251
0.358685  0.456114  0.482831
0.379083  0.491348  0.522451
0.501808  0.536136  0.491482
0.598665  0.595747  0.499854
0.730070  0.660205  0.447700
0.857706  0.706908  0.403592
0.327936  0.430946  0.454420
0.364994  0.472295  0.504284
0.398194  0.510582  0.539230
0.448675  0.561358  0.584173
0.539091  0.600187  0.571592
0.642311  0.653821  0.572859
0.780034  0.700827  0.515197
0.911482  0.769377  0.484902
0.366327  0.472403  0.504405
0.389304  0.501280  0.537877
0.444294  0.554082  0.584531
0.482380  0.597849  0.621923
0.585973  0.628374  0.587178
0.693358  0.706072  0.623636
0.817427  0.761640  0.600311
0.945385  0.804290  0.549149
0.401863  0.518304  0.563024
0.435642  0.554879  0.587832
0.478216  0.601882  0.631211
0.558099  0.634470  0.617408
0.681789  0.692402  0.613923
0.772324  0.749256  0.640142
0.887802  0.800266  0.614091
0.997943  0.850417  0.593672
0.445056  0.565998  0.598502
0.474757  0.599928  0.637550
0.537562  0.633266  0.632487
0.649949  0.689380  0.629299
0.738226  0.726837  0.626690
0.841073  0.776192  0.620918
0.943817  0.833385  0.628904
1.046823  0.878122  0.609126
0.239136  0.309395  0.317073
0.253247  0.327115  0.341834
0.283209  0.368566  0.390570
0.320519  0.395887  0.402785
0.418899  0.435112  0.382625
0.517420  0.498099  0.370263
0.651532  0.530447  0.300719
0.779369  0.589346  0.276614
0.266083  0.344319  0.366022
0.293525  0.383118  0.410890
0.313868  0.411450  0.437579
0.362949  0.448030  0.470325
0.457446  0.505347  0.469445
0.557441  0.554054  0.459257
0.677812  0.603483  0.403529
0.807884  0.648393  0.367970
0.307619  0.397380  0.425113
0.336222  0.428772  0.453284
0.372322  0.479251  0.509099
0.403328  0.504312  0.530681
0.461033  0.544005  0.541791
0.585874  0.608600  0.538306
0.690978  0.638160  0.476764
0.832699  0.711062  0.449953
0.326447  0.434148  0.469212
0.366590  0.471011  0.495731
0.415768  0.529978  0.560246
0.424475  0.545144  0.587647
0.483782  0.598566  0.626022
0.612530  0.639486  0.581659
0.732005  0.694789  0.546801
0.850332  0.755224  0.545058
0.376084  0.485529  0.523494
0.406229  0.526012  0.565539
0.446501  0.569004  0.606986
0.481703  0.602633  0.637851
0.525303  0.655223  0.685576
0.640627  0.690359  0.651555
0.753108  0.735883  0.627502
0.911115  0.808801  0.604958
0.403808  0.525145  0.561617
0.442287  0.568024  0.604156
0.485679  0.610932  0.647259
0.514473  0.642958  0.681875
0.576040  0.702938  0.731644
0.689366  0.748026  0.725193
0.818320  0.797220  0.696858
0.938914  0.845689  0.676213
0.453897  0.577354  0.610188
0.488615  0.620423  0.653547
0.543068  0.664705  0.690562
0.569043  0.692155  0.720137
0.637707  0.741322  0.759386
0.734840  0.783350  0.758327
0.868880  0.831753  0.738764
0.976501  0.872422  0.707557
0.490322  0.610483  0.649551
0.526277  0.647247  0.683326
0.564495  0.691722  0.739143
0.599969  0.727561  0.754051
0.694181  0.783833  0.787290
0.825084  0.822063  0.749296
0.913078  0.863354  0.743341
1.026786  0.909523  0.741588
0.280356  0.368070  0.391509
0.304917  0.392417  0.420172
0.334411  0.435492  0.459778
0.364083  0.471624  0.506527
0.419397  0.489692  0.480985
0.516813  0.533691  0.468991
0.634840  0.575943  0.407843
0.773035  0.644910  0.385241
0.306328  0.410583  0.441799
0.336482  0.438772  0.474998
0.364917  0.473382  0.501207
0.399554  0.523756  0.557903
0.443275  0.548073  0.570739
0.555339  0.587454  0.521820
0.664791  0.642629  0.520480
0.802776  0.699252  0.460114
0.338670  0.441381  0.478690
0.373865  0.487373  0.522484
0.407367  0.523775  0.558714
0.441551  0.568813  0.601055
0.482143  0.605913  0.641306
0.594497  0.646627  0.611901
0.695390  0.695007  0.606110
0.816622  0.748748  0.563627
0.374846  0.488184  0.520630
0.404360  0.517730  0.555673
0.454463  0.577481  0.612679
0.494426  0.620693  0.655505
0.535715  0.667272  0.706924
0.597385  0.690914  0.690104
0.747217  0.738445  0.649103
0.864435  0.791068  0.637481
0.412817  0.529108  0.562427
0.457684  0.576284  0.612195
0.492467  0.616720  0.648965
0.542384  0.671192  0.703328
0.585858  0.723992  0.759357
0.632040  0.739092  0.747765
0.769568  0.779862  0.705370
0.895352  0.838497  0.702320
0.450876  0.576661  0.609911
0.492869  0.618634  0.656954
0.532337  0.663892  0.700546
0.594795  0.727265  0.769816
0.628512  0.759268  0.807536
0.682466  0.801788  0.844661
0.795214  0.835652  0.813964
0.930389  0.873333  0.761126
0.490936  0.621601  0.660915
0.531246  0.659608  0.689021
0.568401  0.698533  0.746881
0.624614  0.757413  0.811230
0.677377  0.796603  0.841668
0.730574  0.844997  0.883792
0.832758  0.892711  0.900368
0.966617  0.907776  0.797929
0.529947  0.656949  0.699617
0.565478  0.701136  0.742781
0.602479  0.742626  0.798606
0.669477  0.794288  0.846522
0.713854  0.837697  0.879930
0.794185  0.882617  0.915118
0.872525  0.924675  0.929561
1.008329  0.950236  0.863324
0.316068  0.417978  0.452310
0.336691  0.446137  0.485796
0.377569  0.492792  0.530001
0.407581  0.527880  0.570996
0.449317  0.576588  0.612591
0.513366  0.593105  0.580098
0.640555  0.638091  0.542430
0.789471  0.695667  0.488034
0.344666  0.454936  0.488039
0.367610  0.486442  0.539760
0.419913  0.543136  0.581477
0.453739  0.580339  0.619192
0.497348  0.620858  0.658429
0.547888  0.658711  0.675254
0.644741  0.684366  0.626495
0.799109  0.743703  0.574923
0.368060  0.491697  0.535538
0.415576  0.539970  0.575312
0.457611  0.586969  0.619705
0.511562  0.634678  0.670701
0.547930  0.683370  0.730559
0.590334  0.719022  0.758240
0.704417  0.739010  0.692140
0.836648  0.793259  0.666008
0.417977  0.536829  0.574592
0.450555  0.576957  0.615064
0.501922  0.633181  0.664173
0.557132  0.687917  0.720306
0.584823  0.719860  0.766617
0.628960  0.759125  0.802430
0.698265  0.793367  0.818558
0.852513  0.826321  0.733890
0.447034  0.572788  0.606540
0.497538  0.620274  0.655428
0.535633  0.662860  0.699904
0.575480  0.711733  0.766710
0.620984  0.748656  0.801922
0.676982  0.797236  0.842812
0.753693  0.859361  0.900359
0.862100  0.879214  0.840117
0.484079  0.607236  0.640124
0.525721  0.650124  0.683815
0.574173  0.701774  0.746364
0.609840  0.748559  0.796650
0.646217  0.782354  0.831922
0.732534  0.840924  0.880005
0.805996  0.887715  0.921581
0.884893  0.928084  0.930351
0.527679  0.657849  0.694000
0.573180  0.705757  0.748537
0.601232  0.738049  0.796557
0.650413  0.773448  0.821886
0.705554  0.824059  0.872502
0.776915  0.871480  0.910712
0.843023  0.919688  0.949299
0.920504  0.953598  0.972424
0.565460  0.695525  0.738039
0.579163  0.723201  0.777644
0.639260  0.774733  0.823664
0.700703  0.814799  0.870022
0.749293  0.856373  0.898358
0.832037  0.907637  0.936465
0.896046  0.943950  0.964864
0.960234  0.974253  0.986367
