LUT/LUT_9.CUBE
TITLE "LUT_9" 
#LUT size 
LUT_3D_SIZE 15 
DOMAIN_MIN 0.0 0.0 0.0 
DOMAIN_MAX 1.0 1.0 1.0 
#data point 
0.034876  0.034475  0.014265
0.057008  0.057220  0.026508
0.093213  0.086892  0.038424
0.146404  0.120756  0.044827
0.213620  0.156229  0.039567
0.277912  0.176413  0.029329
0.347856  0.197353  0.025364
0.401611  0.210263  0.024498
0.472002  0.228672  0.020712
0.536169  0.244959  0.019736
0.600100  0.253670  0.020082
0.650660  0.266325  0.019546
0.734349  0.276898  0.017850
0.790210  0.284865  0.007646
0.867115  0.292704  0.005418
0.057922  0.050653  0.025927
0.079971  0.072272  0.032354
0.108790  0.100120  0.047334
0.168463  0.141445  0.050528
0.224638  0.168266  0.041465
0.289273  0.197223  0.038244
0.358349  0.221239  0.038167
0.415302  0.239230  0.034407
0.479285  0.252504  0.030024
0.532781  0.266033  0.024802
0.605077  0.282887  0.027974
0.679772  0.306439  0.028676
0.745338  0.308373  0.021066
0.807956  0.319609  0.019405
0.876277  0.333047  0.014491
0.089802  0.093855  0.041671
0.100742  0.094613  0.045081
0.136578  0.123028  0.054459
0.189302  0.155563  0.057671
0.261179  0.193748  0.050148
0.309806  0.213765  0.042042
0.375569  0.238088  0.041116
0.432043  0.258623  0.037515
0.494201  0.284735  0.042555
0.558111  0.290873  0.035946
0.614031  0.314264  0.027605
0.688080  0.338776  0.026735
0.755096  0.354088  0.025032
0.819574  0.361211  0.029139
0.888151  0.368219  0.025578
0.118067  0.113845  0.058997
0.136988  0.127937  0.062190
0.178520  0.154592  0.060606
0.226053  0.183502  0.059146
0.289469  0.223103  0.057875
0.338687  0.241604  0.050193
0.397202  0.259236  0.048113
0.458038  0.284386  0.040640
0.516954  0.299807  0.042547
0.573617  0.324241  0.038071
0.631418  0.347302  0.039830
0.698015  0.358888  0.037960
0.770335  0.374245  0.038750
0.825616  0.385797  0.031058
0.898984  0.407292  0.034537
0.148711  0.135576  0.069225
0.186580  0.157496  0.072369
0.223578  0.189308  0.076397
0.258937  0.211195  0.060584
0.306816  0.247589  0.055483
0.362411  0.278052  0.063006
0.408560  0.297526  0.054699
0.477187  0.327436  0.046181
0.535754  0.338145  0.049727
0.602372  0.350313  0.040837
0.643772  0.379472  0.048333
0.726718  0.399804  0.042266
0.779998  0.401661  0.043141
0.847238  0.422084  0.035405
0.910417  0.441995  0.044792
0.192674  0.175071  0.085351
0.224871  0.186121  0.072530
0.260793  0.222162  0.073386
0.306618  0.258003  0.054644
0.339862  0.288185  0.051674
0.380773  0.308807  0.054619
0.440888  0.343436  0.052078
0.490312  0.364098  0.050261
0.542329  0.368878  0.050395
0.598643  0.386270  0.042152
0.670673  0.408542  0.042443
0.728094  0.429031  0.052013
0.801633  0.442831  0.043287
0.863267  0.456545  0.050893
0.920609  0.478308  0.045625
0.230838  0.205204  0.078617
0.266871  0.229039  0.077510
0.308207  0.264083  0.063549
0.343750  0.302953  0.058980
0.370909  0.325433  0.060240
0.415809  0.355842  0.060419
0.456922  0.377890  0.057314
0.515912  0.413842  0.056820
0.563995  0.420044  0.054747
0.623568  0.454706  0.050096
0.678041  0.468152  0.043206
0.739495  0.470585  0.051888
0.805070  0.483236  0.044872
0.870626  0.492565  0.053699
0.940561  0.503415  0.053671
0.274473  0.245970  0.092170
0.302488  0.274977  0.064983
0.334849  0.299226  0.059918
0.375195  0.334008  0.057634
0.410918  0.376143  0.060304
0.449848  0.403938  0.050639
0.479209  0.431605  0.054692
0.518358  0.450898  0.049482
0.587239  0.478915  0.049746
0.640206  0.500891  0.049617
0.702111  0.514354  0.049749
0.753937  0.536723  0.058442
0.816840  0.542233  0.055120
0.889067  0.553561  0.054055
0.957965  0.566893  0.060395
0.297455  0.280669  0.085998
0.342426  0.317959  0.077560
0.371142  0.347669  0.064191
0.398740  0.371536  0.062766
0.445931  0.415393  0.060020
0.469623  0.436856  0.061199
0.517904  0.472280  0.056110
0.560944  0.504061  0.061568
0.605393  0.522909  0.052995
0.657589  0.546468  0.050212
0.704738  0.571445  0.051690
0.769497  0.575834  0.052005
0.836398  0.590630  0.056217
0.895355  0.606896  0.058807
0.954597  0.621953  0.061015
0.350192  0.321526  0.079959
0.372395  0.348704  0.071184
0.403508  0.384103  0.061009
0.443202  0.409854  0.059504
0.473219  0.448942  0.063826
0.506131  0.471183  0.057357
0.554988  0.507092  0.055307
0.588756  0.538599  0.058974
0.632524  0.566584  0.058470
0.674012  0.592306  0.047624
0.728418  0.621973  0.051587
0.783472  0.639440  0.051023
0.832480  0.647696  0.056624
0.905073  0.658735  0.054445
0.966256  0.679917  0.062856
0.365211  0.357726  0.072444
0.400097  0.384007  0.068610
0.440465  0.424661  0.058843
0.468569  0.454446  0.065735
0.522477  0.488640  0.056147
0.542075  0.522202  0.063552
0.581548  0.543260  0.065806
0.627861  0.573487  0.057471
0.675658  0.608639  0.050709
0.701526  0.629994  0.053380
0.754064  0.662387  0.061263
0.804794  0.679923  0.054248
0.856204  0.706540  0.060440
0.914362  0.728836  0.054668
0.976684  0.730988  0.067312
0.402442  0.398625  0.068214
0.436035  0.427753  0.066268
0.467755  0.454364  0.065392
0.498666  0.479072  0.054477
0.545920  0.524750  0.059678
0.585898  0.546318  0.057728
0.614142  0.575323  0.053404
0.650072  0.598585  0.051679
0.701580  0.633131  0.060908
0.739694  0.657160  0.056203
0.784044  0.686188  0.054953
0.832108  0.716316  0.060810
0.888764  0.739961  0.058824
0.945258  0.770160  0.060472
0.992684  0.787264  0.059233
0.428821  0.433879  0.071691
0.462908  0.463215  0.062719
0.500546  0.492120  0.059065
0.534272  0.523583  0.056882
0.572004  0.562104  0.053209
0.607581  0.585088  0.062291
0.644837  0.611061  0.058146
0.684840  0.638116  0.058627
0.733191  0.663470  0.059054
0.767899  0.680636  0.061348
0.812593  0.716648  0.061187
0.858766  0.744962  0.058010
0.901386  0.763850  0.061933
0.949520  0.797553  0.055751
1.017365  0.819120  0.061637
0.463301  0.475075  0.058301
0.496983  0.505603  0.061179
0.540021  0.534988  0.057335
0.577784  0.559691  0.056015
0.605554  0.592207  0.061120
0.644505  0.611343  0.047691
0.675262  0.634528  0.060508
0.725680  0.669695  0.056709
0.757087  0.687710  0.059179
0.799651  0.714401  0.059195
0.838352  0.737832  0.057125
0.897035  0.769647  0.060810
0.938239  0.795409  0.066322
0.985001  0.822872  0.061238
1.032584  0.841060  0.058383
0.486944  0.508241  0.062061
0.521097  0.532256  0.063709
0.555418  0.560744  0.062987
0.609462  0.596119  0.059539
0.639182  0.620269  0.060426
0.671191  0.639817  0.057416
0.708226  0.668053  0.061080
0.749671  0.692905  0.053923
0.785678  0.719080  0.059330
0.830882  0.744832  0.062616
0.871422  0.766151  0.059055
0.924820  0.791233  0.067114
0.964600  0.818111  0.064055
1.022770  0.852479  0.060786
1.074247  0.872602  0.062803
0.047900  0.049360  0.022846
0.064866  0.063144  0.026541
0.098778  0.096500  0.041271
0.136474  0.116910  0.045802
0.205830  0.152649  0.044919
0.277112  0.178195  0.033051
0.352811  0.199790  0.030236
0.400121  0.211810  0.025913
0.480154  0.237515  0.025548
0.523922  0.239921  0.019887
0.594417  0.259219  0.019709
0.666717  0.272597  0.017038
0.738564  0.285516  0.014930
0.791385  0.287158  0.012516
0.860048  0.288534  0.006516
0.068115  0.075181  0.040416
0.085421  0.083993  0.046647
0.116022  0.107304  0.049162
0.170009  0.145904  0.056945
0.234138  0.178917  0.054124
0.297576  0.203609  0.046456
0.359366  0.218408  0.034050
0.412820  0.244031  0.036325
0.477982  0.255885  0.029466
0.543908  0.274687  0.032210
0.606798  0.295283  0.022605
0.669896  0.307118  0.024376
0.730285  0.316488  0.029320
0.807878  0.326645  0.018624
0.866953  0.344591  0.020935
0.088709  0.092760  0.057105
0.106925  0.105718  0.057569
0.143873  0.139218  0.073088
0.194191  0.165361  0.073096
0.245887  0.194637  0.063614
0.315394  0.223737  0.055783
0.369802  0.250588  0.046519
0.430439  0.268501  0.040872
0.488079  0.285838  0.036244
0.551608  0.305346  0.038276
0.618255  0.323263  0.036320
0.688712  0.336652  0.033639
0.762414  0.351469  0.032536
0.817231  0.370011  0.028995
0.890476  0.382905  0.026864
0.116850  0.127632  0.086174
0.145863  0.138507  0.079994
0.181703  0.171012  0.083548
0.211573  0.190275  0.090569
0.278087  0.214851  0.081174
0.329421  0.253430  0.070733
0.383912  0.270163  0.066089
0.448557  0.295716  0.065278
0.512208  0.312391  0.050378
0.571876  0.329582  0.051886
0.639545  0.347330  0.047600
0.700461  0.376173  0.044944
0.759852  0.373080  0.037414
0.831584  0.399100  0.033914
0.894005  0.421160  0.038876
0.153078  0.149318  0.094186
0.185802  0.168786  0.092606
0.214995  0.191300  0.094142
0.258000  0.222691  0.091748
0.305775  0.254171  0.092163
0.350853  0.274491  0.080755
0.409962  0.304225  0.070753
0.460460  0.321468  0.061064
0.525257  0.340662  0.076074
0.581588  0.362457  0.069434
0.638930  0.380895  0.046847
0.713410  0.402403  0.046361
0.771733  0.411077  0.049460
0.835500  0.429262  0.042927
0.903816  0.443594  0.046614
0.187841  0.177698  0.101906
0.221838  0.204408  0.101267
0.265734  0.238681  0.117674
0.290469  0.257625  0.112023
0.342377  0.289685  0.082374
0.379868  0.316909  0.088318
0.445824  0.350383  0.077368
0.475490  0.362816  0.089488
0.532865  0.386743  0.076096
0.597296  0.402840  0.076965
0.663520  0.418742  0.070849
0.729988  0.435863  0.056347
0.791768  0.447376  0.050327
0.867657  0.465245  0.055758
0.928263  0.487514  0.051013
0.231855  0.218690  0.130896
0.268926  0.243658  0.112866
0.294888  0.269303  0.114209
0.327138  0.293875  0.116974
0.377072  0.326452  0.094671
0.413074  0.366082  0.084753
0.455190  0.391155  0.077414
0.516355  0.411104  0.084073
0.562206  0.429907  0.073880
0.623597  0.429815  0.075130
0.684944  0.461296  0.070511
0.748594  0.474775  0.060031
0.806411  0.491240  0.066749
0.893236  0.498460  0.059431
0.944555  0.519258  0.060814
0.263636  0.253330  0.123981
0.292390  0.274577  0.118146
0.336707  0.305398  0.121289
0.361046  0.333423  0.108076
0.411825  0.369856  0.085881
0.443718  0.402708  0.089364
0.491264  0.441534  0.072329
0.539745  0.462819  0.076694
0.586299  0.479156  0.079390
0.629794  0.494951  0.072093
0.692551  0.513440  0.073710
0.753910  0.528765  0.060746
0.821243  0.539912  0.065280
0.888272  0.555035  0.067819
0.958988  0.563086  0.062551
0.298509  0.282452  0.124687
0.335870  0.308412  0.125898
0.363262  0.339901  0.120229
0.396355  0.371828  0.113940
0.432375  0.404475  0.094030
0.480812  0.439282  0.074807
0.511231  0.468930  0.083962
0.550785  0.496891  0.077872
0.607348  0.529218  0.070683
0.664726  0.558657  0.083317
0.713289  0.569477  0.076832
0.769512  0.576493  0.072729
0.838550  0.599320  0.071484
0.904410  0.608132  0.072444
0.959379  0.616283  0.068103
0.328400  0.310393  0.127794
0.373684  0.357296  0.117898
0.413549  0.386735  0.112785
0.433401  0.407044  0.098329
0.471676  0.442157  0.100026
0.518003  0.485148  0.084151
0.553500  0.515563  0.088962
0.583572  0.539651  0.082830
0.629287  0.574684  0.087695
0.673912  0.595563  0.075293
0.729621  0.628312  0.071200
0.781836  0.647214  0.072114
0.845695  0.650566  0.068882
0.913227  0.669271  0.072103
0.973062  0.686303  0.076177
0.364197  0.355677  0.122820
0.386580  0.377329  0.123333
0.425025  0.419584  0.117443
0.470682  0.461098  0.105595
0.508412  0.484547  0.093402
0.546239  0.520011  0.088993
0.582406  0.553578  0.087908
0.623410  0.577676  0.078960
0.667994  0.597680  0.087675
0.709542  0.629397  0.089632
0.757028  0.658219  0.078558
0.800413  0.683248  0.078309
0.863812  0.706229  0.061446
0.919337  0.734864  0.077163
0.983361  0.713218  0.073065
0.397003  0.388212  0.122177
0.427483  0.422575  0.113076
0.467083  0.459537  0.099633
0.498492  0.490217  0.093376
0.539766  0.526530  0.092218
0.576934  0.557905  0.089906
0.611184  0.574788  0.084294
0.655496  0.603186  0.092111
0.686556  0.632894  0.086534
0.730788  0.651947  0.082132
0.781214  0.685418  0.072257
0.828800  0.718069  0.097370
0.878487  0.743726  0.075032
0.926251  0.766143  0.073107
0.989214  0.790003  0.071443
0.426280  0.435097  0.117008
0.469143  0.469850  0.087705
0.491584  0.485649  0.097071
0.537813  0.525761  0.094494
0.569565  0.552034  0.087837
0.603062  0.581724  0.092478
0.652486  0.618538  0.089889
0.688964  0.631645  0.084739
0.734882  0.665351  0.091573
0.769060  0.686080  0.092998
0.811855  0.718611  0.085615
0.868395  0.752180  0.083722
0.903162  0.766481  0.079105
0.965842  0.797311  0.087367
1.014070  0.818149  0.077506
0.457762  0.466509  0.110610
0.484060  0.494769  0.094018
0.532422  0.526574  0.089556
0.559753  0.555958  0.084094
0.606020  0.589871  0.077391
0.642187  0.608750  0.076730
0.679324  0.642289  0.091626
0.724111  0.668404  0.088870
0.764503  0.695717  0.086274
0.794808  0.714799  0.090409
0.846729  0.747237  0.084870
0.890240  0.769337  0.097412
0.939962  0.800485  0.088722
0.987238  0.825447  0.074933
1.032126  0.851474  0.078551
0.488002  0.506628  0.111594
0.527000  0.540292  0.092960
0.554111  0.560232  0.096455
0.596401  0.589788  0.085058
0.627716  0.618329  0.084554
0.677216  0.643808  0.089407
0.712129  0.667556  0.083548
0.756965  0.694642  0.081862
0.785388  0.716707  0.090881
0.826646  0.741562  0.097002
0.873330  0.774909  0.089743
0.908925  0.788545  0.090531
0.962448  0.825631  0.083890
1.017277  0.850608  0.081672
1.070064  0.884685  0.091200
0.070291  0.076669  0.047349
0.091629  0.092384  0.053041
0.112220  0.109234  0.057965
0.156341  0.142602  0.060429
0.208773  0.169327  0.059328
0.281135  0.192047  0.051362
0.333776  0.216952  0.047845
0.405620  0.236384  0.045275
0.475279  0.245747  0.041454
0.519623  0.263593  0.038546
0.588057  0.263227  0.030693
0.659546  0.282220  0.030306
0.721706  0.289730  0.028145
0.804176  0.306769  0.024094
0.869888  0.306903  0.024488
0.088533  0.105931  0.080700
0.103222  0.119664  0.087191
0.131442  0.138185  0.093660
0.169203  0.160516  0.094117
0.230964  0.197468  0.088957
0.293574  0.222525  0.068260
0.352077  0.238825  0.066787
0.409080  0.254057  0.055721
0.483945  0.281770  0.047646
0.544871  0.291457  0.047188
0.603814  0.307637  0.039194
0.669379  0.321693  0.036302
0.736475  0.342351  0.035400
0.812793  0.344009  0.027656
0.873153  0.351201  0.034685
0.101104  0.120963  0.105212
0.117284  0.143393  0.122667
0.140287  0.157904  0.121628
0.196781  0.184807  0.110253
0.238105  0.215741  0.110222
0.308884  0.246729  0.097098
0.374203  0.264525  0.084835
0.427472  0.284042  0.069314
0.488193  0.310349  0.076244
0.553179  0.325653  0.076542
0.613977  0.344423  0.056230
0.676844  0.352405  0.047938
0.749221  0.366230  0.045004
0.815255  0.386713  0.047239
0.877564  0.382587  0.033933
0.119217  0.145644  0.135468
0.146199  0.162192  0.140697
0.167584  0.188751  0.153332
0.209627  0.204669  0.136143
0.248810  0.230274  0.133137
0.324722  0.268719  0.120627
0.397594  0.297149  0.110682
0.434585  0.311582  0.100315
0.511433  0.336746  0.084275
0.569424  0.353754  0.091759
0.622121  0.363583  0.077789
0.685678  0.387561  0.075868
0.759788  0.394187  0.055892
0.820172  0.417623  0.052533
0.887726  0.429804  0.048564
0.138017  0.177072  0.166906
0.174967  0.201247  0.175024
0.207434  0.213439  0.157508
0.239146  0.232483  0.155304
0.297599  0.267168  0.144371
0.331636  0.286837  0.145077
0.404530  0.311174  0.139352
0.463447  0.346608  0.110785
0.516249  0.360138  0.113833
0.578046  0.379003  0.106195
0.642866  0.404302  0.102626
0.707696  0.424156  0.093781
0.776041  0.435501  0.089603
0.831559  0.454260  0.067293
0.908923  0.470415  0.067688
0.165236  0.202937  0.187556
0.201638  0.213105  0.177294
0.238781  0.244660  0.176694
0.277061  0.270188  0.173308
0.320495  0.296444  0.162102
0.373369  0.331458  0.162001
0.431214  0.348997  0.147593
0.486114  0.367147  0.134891
0.545017  0.386342  0.123449
0.599019  0.411016  0.128170
0.658047  0.429987  0.108398
0.719670  0.461870  0.120137
0.784824  0.463265  0.096127
0.856454  0.488454  0.091946
0.915330  0.495066  0.083035
0.199806  0.230567  0.193888
0.245431  0.249390  0.184544
0.292920  0.279639  0.181776
0.319911  0.301062  0.164045
0.363681  0.339103  0.160679
0.401413  0.360083  0.165002
0.453692  0.389204  0.144852
0.508862  0.407789  0.138148
0.555076  0.427847  0.130637
0.613292  0.453663  0.137742
0.676775  0.472473  0.131446
0.740426  0.479748  0.138543
0.804337  0.497243  0.124558
0.873528  0.521468  0.115005
0.931499  0.535951  0.096833
0.255414  0.262513  0.194630
0.286400  0.283366  0.198728
0.320434  0.309866  0.181843
0.359817  0.338877  0.173880
0.398312  0.375391  0.184004
0.427206  0.391470  0.160381
0.475592  0.436091  0.154141
0.534642  0.461899  0.136300
0.590288  0.469967  0.134929
0.646039  0.499533  0.129144
0.685621  0.513153  0.140485
0.748156  0.538425  0.142060
0.806065  0.546216  0.138943
0.889722  0.561635  0.117734
0.947473  0.573309  0.114172
0.280982  0.285508  0.203429
0.323201  0.324899  0.195706
0.351620  0.346075  0.176129
0.398657  0.381092  0.181404
0.427023  0.407312  0.185045
0.466557  0.436832  0.171741
0.507229  0.479613  0.156093
0.551049  0.508728  0.143963
0.603416  0.535073  0.118489
0.653059  0.548550  0.133201
0.715277  0.567329  0.137939
0.760635  0.584963  0.137567
0.831804  0.599210  0.139332
0.890354  0.608455  0.125904
0.964434  0.626624  0.124573
0.315978  0.314834  0.209299
0.363485  0.356971  0.189032
0.396240  0.388220  0.176319
0.418138  0.411876  0.190863
0.454963  0.443378  0.183540
0.496760  0.479066  0.166093
0.541286  0.514256  0.153814
0.583789  0.542299  0.144034
0.624601  0.576798  0.143352
0.680663  0.597697  0.134631
0.734564  0.621608  0.141328
0.783083  0.644135  0.140181
0.843841  0.653177  0.135735
0.899853  0.667898  0.138166
0.960003  0.673677  0.125741
0.355541  0.357334  0.199837
0.384688  0.396313  0.180200
0.421368  0.428683  0.187212
0.468400  0.452847  0.171187
0.495974  0.478418  0.164729
0.535118  0.512092  0.157111
0.565030  0.546442  0.164311
0.618514  0.573658  0.143735
0.661767  0.608563  0.132108
0.706630  0.629994  0.143499
0.747498  0.664575  0.139966
0.798174  0.688686  0.138929
0.852256  0.707981  0.135670
0.913832  0.714753  0.131170
0.995258  0.736790  0.131648
0.389299  0.397879  0.193439
0.418700  0.421977  0.188608
0.461764  0.462218  0.183703
0.499316  0.491267  0.172523
0.531556  0.520975  0.176279
0.572685  0.549328  0.169392
0.598238  0.566039  0.158108
0.641672  0.605564  0.144054
0.687797  0.639858  0.144555
0.747171  0.671695  0.131868
0.777891  0.694900  0.138332
0.826532  0.718137  0.141967
0.871666  0.746342  0.141557
0.932698  0.774736  0.141150
0.994273  0.788953  0.143040
0.420895  0.434964  0.189648
0.448756  0.464378  0.178967
0.485114  0.488987  0.166840
0.518735  0.523624  0.183475
0.554252  0.544907  0.169322
0.606885  0.583106  0.162560
0.631367  0.611223  0.147707
0.681242  0.640421  0.136808
0.728325  0.664681  0.137668
0.765796  0.698302  0.143552
0.809690  0.718973  0.152656
0.851468  0.748739  0.138293
0.906881  0.775892  0.136538
0.959717  0.797036  0.148489
1.006763  0.821275  0.128673
0.452264  0.465234  0.194696
0.481023  0.490637  0.170448
0.511637  0.525846  0.186087
0.554227  0.548288  0.158434
0.589202  0.586777  0.160592
0.643786  0.618321  0.159303
0.676165  0.637345  0.143609
0.724970  0.673740  0.148070
0.755218  0.687783  0.142236
0.792632  0.720232  0.130040
0.836954  0.749266  0.142920
0.894833  0.774811  0.136137
0.931779  0.803775  0.140233
0.986286  0.828525  0.141343
1.030522  0.855951  0.156286
0.468279  0.491637  0.192951
0.515925  0.534116  0.182555
0.553479  0.571915  0.171160
0.582023  0.584233  0.156669
0.629176  0.617929  0.155871
0.663777  0.644067  0.154569
0.704211  0.667657  0.141692
0.751377  0.693347  0.144137
0.783780  0.730519  0.143019
0.832789  0.754270  0.158744
0.873160  0.773432  0.142927
0.916887  0.798064  0.146092
0.960034  0.825541  0.147825
1.014547  0.857832  0.145719
1.055321  0.874322  0.147984
0.090652  0.108313  0.089955
0.096732  0.117900  0.106064
0.123920  0.145487  0.119401
0.156518  0.164064  0.118938
0.206111  0.183781  0.102686
0.276521  0.209752  0.085922
0.349080  0.233280  0.078370
0.412547  0.249766  0.070741
0.454240  0.253905  0.067088
0.524459  0.274848  0.063179
0.582698  0.291296  0.065142
0.649981  0.297658  0.061357
0.714198  0.314069  0.053464
0.796408  0.310177  0.042230
0.863431  0.321564  0.048100
0.102174  0.126123  0.117065
0.114706  0.150005  0.140481
0.129581  0.163026  0.144815
0.167276  0.178040  0.139643
0.224117  0.208689  0.135550
0.285050  0.232117  0.121788
0.356127  0.262557  0.102201
0.421355  0.284296  0.103636
0.468445  0.293511  0.089731
0.535895  0.310113  0.084830
0.596437  0.329683  0.084782
0.660824  0.335792  0.072743
0.732486  0.359087  0.073180
0.796635  0.357475  0.055217
0.873699  0.359758  0.052257
0.119390  0.152970  0.139971
0.133809  0.175669  0.165199
0.160297  0.192289  0.176750
0.189745  0.211274  0.186898
0.237011  0.235625  0.159257
0.300522  0.257242  0.142608
0.369751  0.285604  0.133791
0.424656  0.299169  0.129790
0.484018  0.313386  0.110943
0.550507  0.343267  0.098842
0.614371  0.361883  0.111824
0.674801  0.369008  0.084014
0.735899  0.382541  0.092764
0.801325  0.392144  0.082571
0.887983  0.411929  0.073302
0.132054  0.176747  0.179034
0.146297  0.191820  0.189797
0.162522  0.205052  0.206216
0.198938  0.231690  0.210943
0.259774  0.267112  0.205052
0.318046  0.285916  0.173785
0.388826  0.319915  0.163721
0.437064  0.328269  0.151509
0.507028  0.350696  0.141430
0.573512  0.370059  0.130950
0.620485  0.383400  0.128949
0.681432  0.406648  0.123587
0.763225  0.424963  0.113877
0.813567  0.433418  0.100801
0.883214  0.451637  0.109600
0.150924  0.206472  0.213732
0.176276  0.219974  0.228787
0.193724  0.230841  0.217359
0.234461  0.260327  0.232991
0.282231  0.280850  0.211521
0.336396  0.309759  0.199186
0.386434  0.327797  0.185987
0.462877  0.351820  0.174657
0.507649  0.371707  0.166699
0.582085  0.397999  0.138553
0.636598  0.411975  0.148167
0.697788  0.434386  0.145114
0.754239  0.460539  0.143106
0.836918  0.468747  0.136986
0.904738  0.492578  0.121292
0.170994  0.226493  0.234426
0.192078  0.239918  0.234496
0.226579  0.267320  0.246590
0.255919  0.279375  0.240237
0.307742  0.308953  0.237948
0.355865  0.335834  0.221889
0.420903  0.364335  0.190356
0.469764  0.384953  0.205597
0.531042  0.400173  0.189329
0.574407  0.419762  0.176496
0.660708  0.440335  0.169446
0.709645  0.470382  0.171094
0.783662  0.477507  0.154489
0.842708  0.501040  0.150826
0.900473  0.521874  0.150011
0.196335  0.250805  0.250689
0.230228  0.270005  0.246755
0.263543  0.289694  0.247763
0.302493  0.315021  0.248219
0.342330  0.335508  0.233149
0.395734  0.374228  0.232371
0.441754  0.392156  0.211293
0.495643  0.423846  0.226547
0.550744  0.445901  0.203412
0.608680  0.453561  0.187632
0.677297  0.477585  0.187511
0.738902  0.505720  0.178427
0.792686  0.513888  0.184397
0.852432  0.533235  0.175018
0.930318  0.557169  0.166789
0.217125  0.275297  0.271737
0.271748  0.302116  0.262390
0.317669  0.331594  0.263826
0.342715  0.348695  0.259815
0.385392  0.381143  0.247817
0.430195  0.402739  0.212817
0.473305  0.448208  0.228308
0.521585  0.463412  0.221158
0.568430  0.478950  0.227880
0.638551  0.501642  0.209695
0.693197  0.538870  0.187085
0.755575  0.541198  0.200205
0.819030  0.561642  0.190221
0.866115  0.568833  0.187146
0.934884  0.590507  0.187817
0.266820  0.306135  0.267016
0.301884  0.325291  0.269333
0.342276  0.345270  0.268084
0.375272  0.376475  0.250911
0.422037  0.412066  0.240703
0.454758  0.448051  0.237453
0.494800  0.477040  0.224439
0.536400  0.503802  0.224884
0.590753  0.521365  0.229541
0.662214  0.548935  0.205477
0.721810  0.571318  0.186891
0.781610  0.586975  0.206637
0.816259  0.600089  0.202170
0.890530  0.624192  0.208392
0.960004  0.630157  0.203852
0.291712  0.330753  0.278185
0.335359  0.359019  0.268384
0.384245  0.395085  0.270794
0.416348  0.408389  0.250407
0.462060  0.454185  0.233198
0.495381  0.479586  0.235403
0.528185  0.507590  0.244087
0.569142  0.546904  0.221821
0.625022  0.575271  0.215778
0.672068  0.595813  0.210933
0.736798  0.620754  0.205862
0.785177  0.645253  0.205058
0.833952  0.647306  0.203063
0.914129  0.673664  0.201109
