LUT/LUT_36.CUBE
TITLE "LUT_36" 
#LUT size 
LUT_3D_SIZE 15 
DOMAIN_MIN 0.0 0.0 0.0 
DOMAIN_MAX 1.0 1.0 1.0 
#data point 
0.074258  0.072850  0.037229
0.088376  0.081094  0.048154
0.103004  0.097819  0.051098
0.127565  0.115140  0.063087
0.172636  0.153668  0.077273
0.240318  0.201213  0.082548
0.310329  0.238318  0.068999
0.337833  0.264170  0.083458
0.410470  0.304716  0.067801
0.455232  0.344534  0.074332
0.502908  0.374746  0.074697
0.550010  0.394723  0.078770
0.613583  0.424811  0.062321
0.656176  0.475524  0.064792
0.719691  0.493991  0.064392
0.097408  0.088662  0.043265
0.102072  0.100540  0.048413
0.116408  0.109674  0.056669
0.146953  0.132942  0.074092
0.196443  0.183930  0.094776
0.260263  0.211937  0.085035
0.319643  0.254130  0.089143
0.388309  0.295318  0.083722
0.420432  0.323307  0.076756
0.464779  0.345661  0.074289
0.519222  0.379738  0.079110
0.590981  0.417907  0.070657
0.649235  0.469101  0.068587
0.690278  0.487140  0.068106
0.733935  0.508037  0.069466
0.118111  0.108889  0.053357
0.109971  0.103805  0.050173
0.124823  0.115810  0.059774
0.158190  0.152682  0.088614
0.226059  0.194162  0.092261
0.272244  0.224702  0.084168
0.350882  0.275736  0.088604
0.381264  0.297226  0.079748
0.464787  0.334732  0.089538
0.494102  0.367651  0.081180
0.535003  0.398172  0.081138
0.608916  0.447842  0.072977
0.640921  0.465195  0.075711
0.705719  0.495338  0.073861
0.744221  0.526669  0.059738
0.119237  0.112082  0.063120
0.133668  0.122975  0.059850
0.150185  0.141291  0.078749
0.194851  0.185564  0.097556
0.263546  0.219856  0.091008
0.305346  0.256499  0.096777
0.380051  0.292346  0.090182
0.417104  0.318332  0.088019
0.477059  0.356814  0.059808
0.517851  0.384911  0.082146
0.566233  0.418173  0.083408
0.618760  0.456629  0.084248
0.658936  0.479497  0.074515
0.725563  0.519354  0.070292
0.784675  0.570274  0.070777
0.142686  0.136856  0.084422
0.163533  0.152433  0.087129
0.199954  0.190415  0.103021
0.237160  0.211555  0.112665
0.289630  0.249142  0.091902
0.357468  0.279093  0.095541
0.393394  0.317821  0.089438
0.441457  0.336013  0.084232
0.488208  0.366143  0.073132
0.551101  0.407827  0.080313
0.593920  0.450624  0.086037
0.650377  0.487538  0.078940
0.685492  0.509650  0.072225
0.742650  0.539581  0.072135
0.803248  0.576399  0.071666
0.163998  0.160700  0.103334
0.210550  0.185283  0.090443
0.231186  0.205230  0.098261
0.284191  0.242480  0.096211
0.334063  0.261569  0.089891
0.361545  0.288277  0.099287
0.420710  0.321370  0.101839
0.480214  0.365638  0.088493
0.512433  0.385503  0.082655
0.546818  0.402020  0.079084
0.614582  0.461696  0.071588
0.663449  0.492614  0.085256
0.726362  0.540719  0.074800
0.769244  0.572934  0.080933
0.820542  0.589631  0.075856
0.217802  0.193318  0.089001
0.252377  0.224457  0.115590
0.306163  0.261294  0.105359
0.343254  0.281432  0.103419
0.374191  0.297827  0.097648
0.420805  0.333403  0.102930
0.451286  0.341228  0.088233
0.513551  0.398719  0.098710
0.544832  0.421904  0.084296
0.609635  0.474830  0.081901
0.643819  0.488401  0.079485
0.675664  0.513986  0.086811
0.739972  0.553316  0.086069
0.803247  0.592466  0.067024
0.856254  0.616372  0.073816
0.267558  0.238667  0.118094
0.301383  0.251170  0.101290
0.322573  0.263715  0.106587
0.370939  0.296506  0.091471
0.428999  0.338340  0.114076
0.463482  0.358904  0.082028
0.492868  0.375042  0.088232
0.548495  0.418520  0.084240
0.585450  0.452653  0.091520
0.628383  0.491982  0.082997
0.671856  0.528789  0.083595
0.723352  0.559636  0.088852
0.763605  0.599214  0.076469
0.832990  0.632554  0.082345
0.901046  0.660369  0.072826
0.302447  0.262003  0.121404
0.353823  0.288872  0.099596
0.380515  0.296663  0.090970
0.415098  0.325300  0.094013
0.473055  0.363377  0.089805
0.487697  0.383055  0.089732
0.529241  0.403788  0.087295
0.580907  0.444211  0.088561
0.615534  0.483070  0.081662
0.661239  0.536489  0.079930
0.693275  0.557139  0.083600
0.748456  0.595934  0.097242
0.801119  0.614966  0.088445
0.838128  0.658515  0.079287
0.907976  0.693426  0.084541
0.360389  0.291132  0.115527
0.387029  0.306821  0.099729
0.424329  0.330250  0.093771
0.462935  0.371435  0.103055
0.500054  0.395493  0.093845
0.534504  0.424439  0.089310
0.579482  0.458636  0.090980
0.626084  0.493228  0.093142
0.654928  0.523102  0.086767
0.704364  0.573379  0.081666
0.760553  0.608264  0.090421
0.787693  0.634616  0.076579
0.824602  0.673001  0.084399
0.861860  0.674955  0.084575
0.918199  0.727185  0.089186
0.384433  0.305707  0.118225
0.427515  0.348591  0.110505
0.469204  0.369240  0.091229
0.498638  0.381641  0.086825
0.554661  0.434619  0.096261
0.583721  0.455930  0.088081
0.612585  0.481015  0.099248
0.672270  0.528534  0.075654
0.703976  0.577337  0.081084
0.725990  0.587219  0.084912
0.778717  0.643747  0.086322
0.804198  0.649962  0.088844
0.859136  0.706923  0.079846
0.909999  0.728742  0.072526
0.955034  0.752502  0.099776
0.424098  0.332902  0.107653
0.463190  0.363957  0.102754
0.500128  0.403173  0.096581
0.540155  0.422216  0.096791
0.596020  0.452181  0.091838
0.629319  0.500051  0.089812
0.651885  0.529117  0.082610
0.674298  0.553230  0.081635
0.736921  0.601352  0.081532
0.753593  0.621629  0.078316
0.799070  0.658113  0.093313
0.845092  0.682945  0.087583
0.885155  0.707481  0.080363
0.922062  0.749046  0.082431
0.971775  0.767628  0.085547
0.470264  0.364550  0.097588
0.484475  0.390209  0.093241
0.526897  0.419110  0.101959
0.590418  0.460195  0.090464
0.627721  0.492999  0.087928
0.651984  0.523156  0.098096
0.697483  0.566010  0.084104
0.724024  0.577447  0.085122
0.763571  0.620374  0.090983
0.785662  0.653073  0.089608
0.831960  0.669328  0.085164
0.888970  0.712675  0.082554
0.911551  0.735175  0.083846
0.944337  0.758306  0.089388
1.018653  0.785973  0.090711
0.511676  0.400515  0.098232
0.561554  0.454703  0.090083
0.574902  0.459374  0.079181
0.626202  0.497337  0.086915
0.651901  0.525619  0.081714
0.670249  0.548557  0.081472
0.717892  0.580725  0.074443
0.772276  0.619906  0.081617
0.792516  0.652822  0.092335
0.817081  0.665034  0.090444
0.844045  0.691632  0.085241
0.901939  0.725244  0.087330
0.938325  0.763822  0.092896
0.992345  0.787555  0.096719
1.016955  0.794587  0.092684
0.542330  0.432805  0.096988
0.580178  0.450483  0.080386
0.625776  0.506231  0.104024
0.667977  0.537439  0.068438
0.690778  0.557515  0.086323
0.707764  0.574529  0.090390
0.747624  0.603975  0.089511
0.788949  0.651293  0.089129
0.809146  0.655148  0.086986
0.854887  0.698418  0.095725
0.880988  0.707294  0.102548
0.937495  0.751952  0.087905
0.969717  0.768996  0.097899
1.026331  0.790123  0.088899
1.078352  0.831523  0.091292
0.089804  0.083536  0.038144
0.099436  0.092335  0.049402
0.107652  0.102094  0.050901
0.122971  0.113491  0.060277
0.157676  0.145917  0.069385
0.234298  0.193511  0.080682
0.313134  0.253011  0.091684
0.360457  0.276416  0.086767
0.413616  0.312599  0.073837
0.437870  0.323455  0.067706
0.502379  0.365620  0.067722
0.562959  0.405563  0.074610
0.615379  0.436237  0.066072
0.656215  0.475325  0.064301
0.708962  0.504871  0.075497
0.101174  0.094833  0.046699
0.106588  0.095559  0.042467
0.113073  0.106338  0.055710
0.145059  0.138458  0.072078
0.183098  0.168792  0.099468
0.271882  0.221218  0.087465
0.317290  0.248781  0.080821
0.367092  0.281101  0.072368
0.421092  0.316554  0.077761
0.485509  0.357489  0.085875
0.512770  0.379793  0.070370
0.558603  0.408095  0.069562
0.627199  0.460173  0.065905
0.677308  0.485599  0.072207
0.744496  0.518358  0.071820
0.104274  0.095895  0.049530
0.118534  0.113615  0.059037
0.138634  0.126336  0.066741
0.172097  0.158210  0.083226
0.214054  0.194487  0.100738
0.298838  0.243659  0.082551
0.330509  0.254672  0.076126
0.383574  0.297178  0.083919
0.450429  0.333329  0.081120
0.486941  0.365701  0.082342
0.542381  0.398703  0.071621
0.601444  0.432535  0.066068
0.654865  0.470273  0.066373
0.707004  0.513542  0.073120
0.775633  0.545777  0.065820
0.132092  0.128392  0.071836
0.135147  0.133497  0.074505
0.159965  0.156386  0.091011
0.179184  0.165543  0.087742
0.243278  0.219697  0.109910
0.317071  0.260783  0.096181
0.355657  0.282056  0.098343
0.427235  0.335255  0.088322
0.472432  0.357528  0.096830
0.507395  0.380876  0.081801
0.556914  0.422308  0.085519
0.619890  0.451108  0.079349
0.676253  0.488518  0.075257
0.703356  0.514100  0.078504
0.779984  0.570467  0.064027
0.161273  0.148723  0.089856
0.170863  0.155116  0.088131
0.192614  0.185579  0.114632
0.226651  0.211153  0.112647
0.294410  0.247535  0.120498
0.340769  0.272328  0.097074
0.388677  0.304031  0.097691
0.442357  0.339266  0.083349
0.495541  0.378787  0.087755
0.533240  0.408713  0.088450
0.587529  0.431259  0.075763
0.632723  0.478336  0.081865
0.682325  0.524041  0.088454
0.739581  0.535945  0.076071
0.783540  0.570390  0.080037
0.183593  0.168976  0.101360
0.210415  0.195096  0.102628
0.238994  0.217447  0.120256
0.280017  0.247425  0.130399
0.334141  0.275503  0.103717
0.394196  0.316472  0.104977
0.442447  0.340551  0.105416
0.467579  0.360073  0.113002
0.504995  0.386934  0.096700
0.561088  0.434616  0.103928
0.597777  0.458939  0.091436
0.654275  0.491318  0.077455
0.700483  0.512818  0.078276
0.773426  0.559683  0.071149
0.840950  0.618774  0.070454
0.227553  0.225077  0.144886
0.256884  0.229446  0.114669
0.274444  0.255139  0.143687
0.317554  0.277376  0.139379
0.374242  0.298410  0.117740
0.420204  0.329944  0.098239
0.465012  0.353800  0.100469
0.500124  0.391507  0.114576
0.542371  0.428230  0.109724
0.580710  0.444581  0.095352
0.651125  0.513010  0.093477
0.683651  0.518083  0.087534
0.752372  0.561364  0.074777
0.787776  0.591267  0.077305
0.848326  0.624241  0.072571
0.252128  0.229161  0.122452
0.284349  0.255686  0.128081
0.338051  0.288442  0.143519
0.368215  0.312972  0.148895
0.428934  0.332450  0.105141
0.448801  0.356881  0.114761
0.516591  0.403360  0.092788
0.550997  0.424254  0.098893
0.581296  0.452212  0.109992
0.616095  0.489627  0.087066
0.678297  0.527953  0.088025
0.709148  0.549933  0.075401
0.772110  0.593702  0.074506
0.809696  0.614157  0.076497
0.885698  0.653718  0.072633
0.294428  0.264602  0.135704
0.344023  0.296322  0.160606
0.372974  0.305020  0.121185
0.404883  0.332566  0.122340
0.451488  0.357123  0.110374
0.487943  0.387121  0.113993
0.537003  0.419434  0.108503
0.573495  0.463620  0.097577
0.617807  0.485755  0.094668
0.670147  0.548865  0.098282
0.695611  0.558431  0.093120
0.748119  0.600927  0.097247
0.798881  0.623302  0.087834
0.852632  0.662267  0.097461
0.892395  0.685939  0.083888
0.320089  0.274024  0.130253
0.386467  0.322959  0.129590
0.410919  0.339390  0.135508
0.471479  0.369872  0.108232
0.501255  0.396515  0.116316
0.548984  0.441527  0.110157
0.589048  0.467956  0.105356
0.622360  0.495470  0.104234
0.665192  0.528769  0.109086
0.706653  0.563366  0.100007
0.750416  0.607154  0.080583
0.768836  0.618694  0.086125
0.825574  0.650486  0.088163
0.875388  0.689817  0.087458
0.936302  0.729640  0.089380
0.372162  0.312024  0.151099
0.390875  0.332976  0.146970
0.427444  0.351574  0.122210
0.505343  0.400764  0.112214
0.540771  0.429629  0.117921
0.578899  0.459662  0.100165
0.634918  0.512913  0.094374
0.672650  0.544349  0.092498
0.700674  0.565841  0.090420
0.738652  0.602661  0.090824
0.782739  0.639058  0.094109
0.828514  0.661143  0.090602
0.853875  0.690617  0.074317
0.909584  0.722473  0.099467
0.932144  0.732242  0.098000
0.398579  0.343335  0.143247
0.454932  0.369778  0.133125
0.508163  0.408647  0.123747
0.533282  0.423213  0.112543
0.589864  0.473196  0.114974
0.606871  0.486057  0.094396
0.640973  0.505595  0.109896
0.685218  0.556699  0.114584
0.721046  0.589508  0.097761
0.742803  0.614684  0.091106
0.799504  0.655029  0.082145
0.857415  0.685541  0.105868
0.893510  0.719976  0.092216
0.916440  0.741463  0.095108
0.977512  0.765457  0.079725
0.467339  0.375681  0.123819
0.519918  0.421365  0.095345
0.547386  0.438526  0.116477
0.601070  0.472397  0.100698
0.610694  0.492303  0.105333
0.664482  0.533999  0.112712
0.699920  0.572228  0.097163
0.710641  0.581258  0.097187
0.766082  0.619303  0.095517
0.791938  0.648227  0.103858
0.820053  0.680129  0.108282
0.884072  0.707452  0.097539
0.909584  0.744763  0.095439
0.980179  0.768468  0.095796
1.002640  0.773085  0.094009
0.494262  0.392817  0.135080
0.529140  0.420279  0.108868
0.577287  0.460047  0.096073
0.586362  0.467082  0.100078
0.660213  0.534012  0.100489
0.682527  0.541091  0.090203
0.701086  0.583300  0.111509
0.763486  0.633693  0.079725
0.791556  0.635576  0.093618
0.821898  0.677376  0.106194
0.862674  0.705312  0.096176
0.884930  0.717739  0.100990
0.934221  0.752455  0.099548
0.976025  0.773645  0.084184
1.010054  0.790266  0.097758
0.538420  0.431594  0.130165
0.576534  0.460262  0.101978
0.591445  0.470111  0.097736
0.650526  0.512266  0.100890
0.676778  0.551246  0.105602
0.718726  0.571437  0.098384
0.755870  0.602252  0.101549
0.781045  0.645502  0.111262
0.821292  0.668692  0.112917
0.848830  0.689779  0.107026
0.903944  0.735203  0.108424
0.916635  0.739567  0.106413
0.976409  0.769013  0.096900
1.025614  0.802934  0.104292
1.066632  0.819749  0.100957
0.108361  0.102104  0.052093
0.112067  0.111307  0.061384
0.116774  0.111231  0.060011
0.155391  0.144998  0.076589
0.182734  0.169321  0.084465
0.221588  0.195994  0.088283
0.281357  0.228851  0.091115
0.373053  0.284732  0.082435
0.408504  0.313709  0.079056
0.449724  0.344221  0.087005
0.507722  0.377788  0.075144
0.563456  0.410838  0.068801
0.604512  0.446072  0.071380
0.668387  0.480418  0.068757
0.730055  0.490151  0.068379
0.118094  0.112702  0.059995
0.134179  0.132555  0.076687
0.149202  0.143492  0.075380
0.158625  0.145881  0.076585
0.212499  0.184515  0.088426
0.280927  0.239434  0.103472
0.337560  0.272471  0.102573
0.361792  0.289487  0.101731
0.431659  0.332352  0.075693
0.476736  0.350328  0.077460
0.528233  0.395644  0.077726
0.580027  0.425974  0.075532
0.628891  0.463074  0.072180
0.712393  0.498022  0.066368
0.739551  0.520133  0.067374
0.136072  0.126554  0.068451
0.142156  0.147494  0.097430
0.162889  0.155261  0.088376
0.181225  0.181094  0.109188
0.221727  0.198042  0.109767
0.289535  0.249822  0.113098
0.312529  0.267532  0.114135
0.390390  0.306624  0.105219
0.435767  0.342712  0.095680
0.502899  0.386192  0.097417
0.551379  0.404655  0.085411
0.596061  0.439970  0.080782
0.665231  0.485116  0.073273
0.710210  0.498883  0.070320
0.747680  0.526127  0.069845
0.154228  0.154969  0.099050
0.159280  0.158580  0.110716
0.172044  0.182705  0.133420
0.204310  0.196273  0.134541
0.227563  0.218662  0.132515
0.314652  0.273922  0.136861
0.368758  0.305383  0.126586
0.402175  0.323676  0.125078
0.468593  0.365599  0.103175
0.520623  0.392608  0.080521
0.551609  0.424128  0.094358
0.631513  0.466085  0.081789
0.659102  0.491327  0.079648
0.699765  0.514850  0.078724
0.772922  0.543588  0.078382
0.157299  0.163981  0.119329
0.187561  0.206419  0.167346
0.194577  0.202696  0.146715
0.226540  0.230439  0.149373
0.278105  0.259730  0.158360
0.319756  0.281530  0.151096
0.386497  0.323387  0.126708
0.440693  0.354292  0.114905
0.490346  0.384748  0.121271
0.541330  0.407741  0.109738
0.593706  0.444081  0.106621
0.641151  0.486209  0.098684
0.685366  0.507747  0.091953
0.735871  0.558225  0.083726
0.798953  0.596551  0.090577
0.175304  0.194133  0.162246
0.198480  0.207846  0.154360
0.227919  0.234555  0.175848
0.257444  0.252638  0.163061
0.298905  0.273360  0.159727
0.352919  0.314013  0.168273
0.407997  0.340346  0.139206
0.468224  0.375135  0.120515
0.533056  0.405096  0.106991
0.568693  0.444475  0.121866
0.622087  0.477545  0.096276
0.656020  0.499204  0.114259
0.700923  0.532514  0.092211
0.777244  0.588031  0.098660
0.819714  0.609199  0.090417
0.205385  0.226851  0.191765
0.236496  0.237584  0.181263
0.260827  0.266602  0.194224
0.305267  0.286068  0.184053
0.337295  0.300998  0.164108
0.396281  0.331758  0.169275
0.442514  0.367671  0.154827
0.489439  0.401536  0.145014
0.529296  0.404048  0.134212
0.592444  0.455778  0.120915
0.632943  0.494903  0.134807
0.689251  0.535925  0.124521
0.748824  0.560203  0.130293
0.801440  0.607872  0.115566
0.842333  0.636027  0.094945
0.267013  0.272326  0.205575
0.279039  0.281823  0.215903
0.325193  0.298209  0.189710
0.355389  0.317336  0.181054
0.388778  0.340733  0.176468
0.436127  0.358633  0.161524
0.486478  0.408273  0.179317
0.537535  0.427901  0.140760
0.590368  0.461995  0.136420
0.635779  0.493722  0.133194
0.670995  0.519373  0.130314
0.707024  0.551934  0.123803
0.757091  0.585209  0.116565
0.814236  0.627679  0.113055
0.865048  0.659499  0.101278
0.288828  0.280612  0.197786
0.319642  0.301248  0.194731
0.335004  0.302365  0.183510
0.387158  0.346209  0.184398
0.427281  0.373939  0.192589
0.456031  0.380166  0.178817
0.530720  0.443365  0.176751
0.558968  0.449216  0.131821
0.617836  0.492773  0.114391
0.665598  0.530636  0.129580
0.714635  0.575350  0.104490
0.738180  0.601385  0.127933
0.794102  0.622258  0.123639
0.838407  0.661546  0.131433
0.907753  0.693168  0.122408
0.303255  0.298005  0.216409
0.352391  0.337514  0.213660
0.391457  0.342572  0.176533
0.422207  0.372665  0.212776
0.468359  0.398771  0.193163
0.523628  0.435284  0.165168
0.568287  0.470977  0.167926
0.606713  0.486577  0.122323
0.663882  0.525109  0.140088
0.696113  0.567579  0.121819
0.741969  0.607201  0.110921
0.785828  0.629111  0.120306
0.818488  0.655499  0.129179
0.869843  0.696000  0.129548
0.911426  0.708027  0.126355
0.365075  0.329337  0.195208
0.385894  0.340733  0.201694
0.435797  0.378571  0.196713
0.495138  0.403160  0.165579
0.504092  0.417651  0.161837
0.554227  0.454024  0.165018
0.578596  0.475960  0.154618
0.652200  0.538251  0.139835
0.684714  0.564859  0.112634
0.733704  0.601752  0.126399
0.764151  0.627322  0.114472
0.813509  0.654263  0.119048
0.868136  0.699881  0.126988
0.903060  0.706280  0.124535
0.982536  0.758903  0.135856
0.391264  0.348316  0.207589
0.432586  0.377160  0.206813
0.477125  0.408022  0.204545
0.507788  0.417869  0.176523
0.565747  0.465784  0.171949
0.606446  0.492107  0.156806
0.629695  0.507685  0.148231
0.686420  0.551594  0.126455
0.721194  0.578317  0.149127
0.778376  0.632651  0.116781
0.794746  0.644627  0.123162
0.825821  0.694945  0.123306
0.891947  0.727726  0.123630
0.936508  0.748011  0.130235
0.976261  0.776154  0.143696
0.428815  0.376351  0.208148
0.460135  0.392398  0.206520
0.524534  0.429753  0.177008
0.543085  0.441176  0.185559
0.593726  0.485935  0.184252
0.643309  0.525776  0.161812
0.681183  0.557396  0.125770
0.713250  0.577073  0.134005
0.753914  0.615478  0.125153
0.793947  0.659279  0.128861
0.836680  0.685721  0.121881
0.866725  0.696734  0.142435
0.916756  0.747585  0.115705
0.955601  0.769834  0.152748
0.990017  0.777606  0.119612
0.471273  0.400730  0.200594
0.520047  0.425594  0.183528
0.525027  0.431902  0.187927
0.592005  0.483382  0.169904
0.622335  0.513047  0.146906
0.678721  0.563108  0.139599
0.716824  0.578048  0.137586
0.766757  0.634886  0.119854
0.785510  0.639635  0.138123
0.811068  0.663078  0.134330
0.842030  0.694653  0.133330
0.906367  0.736491  0.138327
0.934960  0.751317  0.126740
0.995101  0.780708  0.132062
1.022977  0.800883  0.139191
0.506119  0.423788  0.217226
0.544174  0.457335  0.200329
0.598526  0.493031  0.163016
0.640415  0.517129  0.156416
0.678053  0.550746  0.167190
0.717960  0.591002  0.139305
0.760878  0.619158  0.134650
0.783776  0.632676  0.130568
0.822538  0.673743  0.124440
0.867089  0.701960  0.143030
0.895830  0.730010  0.122172
0.924185  0.740819  0.133139
0.971134  0.769258  0.126966
1.027629  0.801789  0.122686
1.068860  0.825986  0.139157
0.128486  0.128096  0.075851
0.119197  0.114628  0.060707
0.144704  0.148000  0.096566
0.162786  0.167302  0.117147
0.197109  0.177402  0.092588
0.232201  0.202937  0.102083
0.316530  0.266948  0.103928
0.374421  0.294718  0.102163
0.407694  0.314762  0.099525
0.459645  0.337440  0.091844
0.511921  0.384117  0.082090
0.567984  0.416834  0.079109
0.601191  0.444916  0.078572
0.669861  0.475490  0.067558
0.727127  0.504974  0.075236
0.130946  0.139991  0.097717
0.149985  0.151791  0.109200
0.159723  0.164108  0.115439
0.185465  0.189085  0.136246
0.210425  0.197179  0.122950
0.247495  0.221842  0.117932
0.322176  0.278415  0.115291
0.383841  0.305384  0.116405
0.428884  0.333201  0.098916
0.477669  0.363044  0.099658
0.537393  0.403804  0.087513
0.579358  0.421995  0.085015
0.651935  0.476647  0.080199
0.704088  0.494027  0.064310
0.748031  0.536457  0.069733
0.146431  0.155421  0.110827
0.166490  0.180145  0.134393
0.184317  0.186091  0.142370
0.202150  0.217159  0.173933
0.228158  0.224392  0.152830
0.295792  0.255884  0.137722
0.335993  0.292807  0.138164
0.384653  0.323910  0.141788
0.450938  0.352625  0.107322
0.507799  0.390082  0.105747
0.545259  0.425415  0.104187
0.606685  0.455146  0.078603
0.643330  0.473037  0.089867
0.704412  0.514882  0.088421
0.783487  0.561990  0.073859
0.155898  0.181331  0.142868
0.175969  0.197721  0.170254
0.188730  0.208164  0.183685
0.211304  0.222727  0.176586
0.258343  0.265832  0.191305
0.294493  0.285414  0.177601
0.363139  0.314985  0.162760
0.407547  0.337805  0.138658
0.477878  0.380153  0.121121
0.532757  0.414190  0.110824
0.547249  0.417677  0.121567
0.621801  0.477289  0.109720
0.673502  0.511193  0.102400
0.715123  0.528593  0.094353
0.788596  0.559026  0.095467
0.185201  0.218674  0.189694
0.205547  0.234540  0.211901
0.206871  0.236283  0.204322
0.233677  0.250888  0.205219
0.266122  0.269746  0.204381
0.315086  0.299852  0.196236
0.350851  0.316654  0.189849
0.438702  0.363356  0.156140
0.464170  0.373738  0.159089
0.544263  0.414073  0.115024
0.593230  0.465186  0.123319
0.626736  0.480128  0.124551
0.690038  0.524747  0.131120
0.726004  0.555760  0.111151
0.808511  0.584195  0.108935
0.195587  0.228739  0.198246
0.208786  0.241637  0.217350
0.226893  0.254975  0.229109
0.252589  0.279136  0.240619
0.301601  0.314174  0.248665
0.351088  0.332592  0.225539
0.424263  0.364325  0.186681
0.457752  0.384111  0.191308
0.504313  0.402920  0.163698
0.536788  0.434895  0.157634
0.603440  0.480293  0.145097
0.658765  0.516929  0.141585
0.726461  0.554783  0.126254
0.762779  0.591387  0.146212
0.796796  0.613284  0.137030
0.215124  0.255927  0.229613
0.222880  0.256579  0.238949
0.267200  0.291856  0.252129
0.287736  0.311999  0.267313
0.332987  0.320471  0.242279
0.396607  0.366788  0.243357
0.429960  0.377328  0.213501
0.484987  0.408337  0.209363
0.531442  0.442478  0.192499
0.566188  0.452280  0.164808
0.615967  0.490332  0.163727
0.702881  0.550977  0.152493
0.731282  0.575398  0.160128
0.793052  0.612186  0.119351
0.852796  0.657728  0.152356
0.231164  0.266310  0.249605
0.273669  0.298702  0.269179
0.291178  0.323539  0.276802
0.327855  0.336812  0.273819
0.363610  0.343007  0.243407
0.435227  0.380118  0.206426
0.459515  0.399192  0.233147
0.520440  0.432767  0.213680
0.559585  0.464646  0.217857
0.601393  0.487445  0.190069
0.685190  0.550386  0.157817
0.714990  0.571673  0.183354
0.769635  0.604921  0.171002
0.810535  0.619845  0.163732
0.854551  0.652166  0.161233
0.268659  0.297850  0.262770
0.292000  0.322385  0.276821
0.322452  0.343487  0.278632
0.362298  0.359491  0.265850
0.406055  0.376582  0.247302
0.451742  0.405020  0.269541
0.503775  0.436253  0.234197
0.543502  0.461843  0.208162
0.582995  0.492933  0.232306
0.662608  0.533252  0.185555
0.730304  0.580510  0.167430
0.750507  0.598038  0.175974
0.780024  0.621097  0.183572
0.846617  0.665133  0.192310
0.906072  0.702010  0.179243
0.285047  0.325729  0.300773
0.337062  0.346743  0.280051
0.375112  0.367689  0.273523
0.392708  0.380057  0.267089
0.477441  0.414123  0.257140
0.515419  0.440819  0.247868
0.525852  0.448184  0.247304
0.599677  0.499622  0.234630
0.638093  0.527044  0.205301
0.667662  0.547523  0.199109
0.742424  0.596833  0.166454
0.794538  0.637096  0.166251
0.814572  0.656716  0.174573
0.888211  0.704077  0.187529
