LUT/LUT_6.CUBE
TITLE "LUT_6" 
#LUT size 
LUT_3D_SIZE 5 
#data point 
DOMAIN_MIN 0.000000 0.000000 0.000000
DOMAIN_MAX 0.857143 0.857143 0.857143
0.026079  0.029559  0.009987
0.156532  0.116755  0.037377
0.370480  0.166534  0.013059
0.561588  0.195472  0.010188
0.771491  0.212669  -0.007585
0.115574  0.107886  0.051394
0.229408  0.187100  0.050588
0.402762  0.247044  0.039319
0.594776  0.304842  0.028277
0.791667  0.339386  0.025993
0.226951  0.217434  0.068689
0.335507  0.313103  0.052742
0.449950  0.388330  0.049101
0.623504  0.451183  0.044561
0.821933  0.466471  0.043634
0.323622  0.349989  0.066415
0.429837  0.438466  0.053072
0.537828  0.525452  0.050190
0.670627  0.600561  0.042988
0.841406  0.651618  0.048534
0.406528  0.464165  0.061518
0.516199  0.547162  0.049790
0.625986  0.629654  0.049156
0.757703  0.705055  0.050005
0.896362  0.778570  0.054753
0.068633  0.105922  0.102864
0.160848  0.163339  0.124316
0.361544  0.207483  0.089367
0.549776  0.227928  0.084235
0.756522  0.240631  0.084043
0.119546  0.172192  0.185252
0.200195  0.227410  0.209601
0.396898  0.304122  0.173188
0.581939  0.354932  0.140206
0.777654  0.387650  0.128205
0.191224  0.246884  0.254664
0.301807  0.321091  0.244392
0.442613  0.405168  0.211171
0.612846  0.450163  0.194695
0.805058  0.495710  0.181826
0.290157  0.341638  0.271282
0.405556  0.432960  0.245436
0.519043  0.525114  0.236568
0.666499  0.612376  0.211349
0.837497  0.648139  0.200262
0.381153  0.460344  0.268207
0.505707  0.550468  0.241028
0.611899  0.636999  0.247515
0.744921  0.723425  0.226959
0.903583  0.788758  0.203270
0.095865  0.174409  0.214550
0.162299  0.229208  0.249820
0.340193  0.284070  0.242097
0.558937  0.279411  0.224758
0.768931  0.266729  0.232470
0.156766  0.247289  0.291218
0.222711  0.301095  0.332683
0.360576  0.376532  0.333226
0.558421  0.422631  0.297593
0.771396  0.443302  0.279894
0.215054  0.316946  0.379066
0.275349  0.382700  0.433685
0.416594  0.445485  0.409979
0.598077  0.514710  0.380227
0.792972  0.558625  0.345289
0.270582  0.395033  0.454467
0.365414  0.460234  0.479493
0.503734  0.544353  0.451272
0.649309  0.623340  0.446576
0.836729  0.674105  0.422648
0.336382  0.455843  0.506142
0.472885  0.550691  0.479357
0.598858  0.633011  0.457098
0.724919  0.720910  0.443433
0.887872  0.806154  0.440893
0.054874  0.226051  0.421956
0.180258  0.302813  0.391635
0.348645  0.322108  0.394037
0.556102  0.310992  0.396599
0.782042  0.303701  0.393601
0.152154  0.341071  0.447200
0.259059  0.392649  0.456732
0.355793  0.444540  0.471910
0.547058  0.491745  0.453021
0.768313  0.491678  0.430761
0.232975  0.405242  0.500565
0.330763  0.463290  0.526733
0.408994  0.523095  0.560331
0.566733  0.587054  0.535257
0.766694  0.640571  0.512298
0.303724  0.479761  0.569908
0.392796  0.539591  0.605639
0.474413  0.604494  0.643998
0.635136  0.673668  0.626845
0.808527  0.737337  0.593029
0.352550  0.540213  0.640279
0.439450  0.605757  0.665193
0.549994  0.670800  0.696149
0.720264  0.742721  0.669123
0.876239  0.815934  0.666222
0.048362  0.236442  0.633498
0.174789  0.306568  0.632883
0.315779  0.347093  0.648724
0.563661  0.330572  0.586424
0.770920  0.317422  0.588331
0.100105  0.385513  0.634861
0.242121  0.459294  0.637062
0.344822  0.529996  0.654540
0.549313  0.535728  0.600574
0.760405  0.533259  0.608716
0.211639  0.473370  0.648630
0.344997  0.548045  0.658629
0.441355  0.623893  0.699495
0.566791  0.674635  0.694575
0.768290  0.709575  0.651366
0.281684  0.530527  0.701557
0.420797  0.615898  0.706426
0.503459  0.681211  0.760151
0.606865  0.754403  0.813222
0.788270  0.802304  0.748375
0.360266  0.598674  0.762026
0.477458  0.671406  0.770785
0.581520  0.743236  0.830320
0.685166  0.805318  0.865443
0.833029  0.877174  0.860981
