LUT/LUT_7.CUBE
TITLE "LUT_7" 
#LUT size 
LUT_3D_SIZE 8 
DOMAIN_MIN 0.0 0.0 0.0 
DOMAIN_MAX 1.0 1.0 1.0 
#data point 
0.029286  0.030552  0.015531
0.090930  0.082019  0.036580
0.225063  0.146392  0.030788
0.363063  0.179174  0.017012
0.486015  0.197986  0.015772
0.617015  0.222152  0.008471
0.760137  0.237625  0.005206
0.894594  0.248975  -0.014117
0.088911  0.082872  0.041868
0.141094  0.124627  0.051295
0.260928  0.186478  0.040375
0.384518  0.228780  0.032810
0.503903  0.267730  0.031943
0.631977  0.291922  0.021600
0.770206  0.317971  0.018207
0.906447  0.332111  0.014483
0.149189  0.139332  0.064503
0.221858  0.193226  0.072846
0.306000  0.252864  0.053278
0.414229  0.297296  0.047757
0.537067  0.335665  0.042247
0.653274  0.368032  0.043803
0.793272  0.383036  0.036271
0.918879  0.419481  0.035331
0.232036  0.210189  0.071805
0.301170  0.275668  0.059373
0.361269  0.336178  0.054842
0.451101  0.385882  0.052394
0.562905  0.422509  0.051033
0.682087  0.462622  0.040542
0.817800  0.469159  0.044189
0.949549  0.494454  0.053839
0.292976  0.292536  0.080273
0.365767  0.359728  0.054164
0.434905  0.426658  0.053762
0.509460  0.482936  0.051898
0.599586  0.529483  0.054446
0.706747  0.570856  0.049109
0.843072  0.584575  0.048279
0.966165  0.610069  0.057241
0.355977  0.373744  0.060665
0.429154  0.443994  0.056273
0.509363  0.500180  0.047921
0.576056  0.558552  0.059747
0.664172  0.619056  0.047396
0.748676  0.665078  0.057257
0.857394  0.708243  0.052658
0.982515  0.729055  0.055190
0.415426  0.451247  0.064513
0.489031  0.510086  0.057429
0.558249  0.575655  0.050392
0.633259  0.621562  0.055756
0.721827  0.679412  0.056075
0.809493  0.726781  0.056996
0.900741  0.770163  0.058533
1.013110  0.824470  0.056088
0.472488  0.526918  0.057140
0.539369  0.576476  0.056484
0.622611  0.633849  0.054529
0.699824  0.681464  0.052812
0.775915  0.742333  0.056472
0.861462  0.785684  0.053851
0.956574  0.830281  0.063051
1.063472  0.884501  0.055509
0.065548  0.078441  0.054738
0.104544  0.113379  0.065062
0.215074  0.163842  0.052538
0.344557  0.199432  0.047260
0.490638  0.224264  0.037602
0.608482  0.229614  0.028525
0.746269  0.253908  0.028245
0.892617  0.262579  0.021799
0.090338  0.120721  0.112231
0.140474  0.157215  0.124498
0.241694  0.214779  0.107801
0.378292  0.251919  0.084263
0.500163  0.294092  0.074593
0.624608  0.327012  0.057327
0.768541  0.333607  0.045550
0.896980  0.351375  0.037021
0.138508  0.176244  0.167615
0.207194  0.216664  0.160546
0.300326  0.264859  0.144324
0.405191  0.310172  0.135997
0.521249  0.354291  0.109557
0.651872  0.390200  0.104836
0.791049  0.421153  0.091542
0.919485  0.447328  0.067510
0.203504  0.229101  0.189244
0.287287  0.287007  0.180620
0.359020  0.342373  0.156389
0.455903  0.393176  0.145926
0.556239  0.427358  0.132047
0.683385  0.464209  0.136123
0.816286  0.485707  0.131231
0.940120  0.521893  0.097039
0.271163  0.294787  0.195582
0.347949  0.357171  0.174362
0.424161  0.415775  0.177268
0.498866  0.490940  0.153180
0.598437  0.538588  0.127529
0.715274  0.566834  0.138824
0.839279  0.598718  0.142625
0.967621  0.618546  0.122410
0.343371  0.374005  0.191104
0.416307  0.440542  0.179753
0.486378  0.492199  0.162181
0.556880  0.557221  0.160803
0.650687  0.615852  0.133110
0.745368  0.668638  0.142081
0.847538  0.711294  0.141748
0.996565  0.732656  0.129847
0.403399  0.449544  0.185708
0.474329  0.503923  0.163160
0.545308  0.561732  0.169900
0.625351  0.625691  0.153675
0.712787  0.676450  0.139987
0.803032  0.726797  0.148908
0.902590  0.788655  0.136537
1.007931  0.820596  0.127989
0.453792  0.515077  0.186075
0.538356  0.588339  0.168209
0.615640  0.636785  0.157352
0.690871  0.681051  0.144583
0.774743  0.742826  0.140231
0.864373  0.790243  0.145051
0.948714  0.839024  0.148404
1.048313  0.887526  0.145670
0.086819  0.132306  0.142315
0.118893  0.161789  0.157037
0.206247  0.206167  0.149666
0.345909  0.237656  0.128009
0.489094  0.255253  0.117467
0.613314  0.273171  0.116216
0.745502  0.279186  0.114607
0.887714  0.281055  0.121656
0.117320  0.178815  0.190954
0.156732  0.210813  0.217714
0.229525  0.255684  0.231260
0.365556  0.298917  0.185433
0.499110  0.333977  0.158831
0.619613  0.355039  0.158717
0.752048  0.378625  0.144657
0.885881  0.388748  0.139202
0.157696  0.227201  0.256891
0.191520  0.260733  0.277177
0.259295  0.293925  0.268349
0.389627  0.359592  0.253001
0.513630  0.394710  0.219699
0.645318  0.427603  0.194699
0.782757  0.462976  0.187966
0.908082  0.485365  0.182777
0.193430  0.271661  0.304899
0.257813  0.321520  0.314356
0.327736  0.354589  0.308289
0.425255  0.411610  0.299788
0.550500  0.448912  0.267648
0.675586  0.488610  0.253710
0.795443  0.522970  0.228389
0.925183  0.554570  0.222549
0.236892  0.321162  0.347919
0.323436  0.377599  0.332940
0.406552  0.429335  0.321014
0.488304  0.492207  0.303881
0.591946  0.541994  0.292459
0.704091  0.573128  0.282994
0.836679  0.609551  0.267567
0.966972  0.633685  0.261607
0.311429  0.376275  0.359604
0.396966  0.444809  0.340943
0.472177  0.503571  0.323758
0.547429  0.562918  0.304262
0.646615  0.627077  0.304744
0.743551  0.679010  0.287094
0.857307  0.708140  0.279139
0.986870  0.734327  0.283470
0.368707  0.432914  0.350030
0.452574  0.501613  0.331265
0.536862  0.567775  0.321206
0.607339  0.626493  0.315896
0.707707  0.692700  0.311668
0.796224  0.734492  0.299234
0.901029  0.789665  0.266087
1.014341  0.824530  0.267843
0.433912  0.511295  0.336727
0.518630  0.574639  0.318679
0.599066  0.631349  0.300412
0.672121  0.685319  0.308896
0.756043  0.735186  0.302533
0.865461  0.801716  0.300766
0.941521  0.843378  0.297127
1.055046  0.897241  0.274301
0.109425  0.176686  0.207691
0.135441  0.208768  0.237084
0.213132  0.258635  0.248218
0.331408  0.294675  0.234317
0.473692  0.304351  0.203893
0.615618  0.304246  0.199234
0.750655  0.304209  0.208751
0.881712  0.299631  0.229612
0.143390  0.221864  0.255932
0.180876  0.255208  0.291321
0.238040  0.307368  0.319707
0.345586  0.347822  0.295409
0.490938  0.383543  0.259476
0.608600  0.398391  0.256107
0.744458  0.398300  0.235935
0.883946  0.422231  0.248283
0.185217  0.274210  0.317794
0.221750  0.312920  0.346622
0.271118  0.357215  0.381295
0.385143  0.404723  0.358582
0.492538  0.440794  0.339657
0.642347  0.471984  0.293900
0.765907  0.499022  0.280061
0.902135  0.519860  0.284256
0.215826  0.322066  0.373722
0.264273  0.361203  0.412960
0.300536  0.406528  0.434957
0.416625  0.441901  0.408468
0.529945  0.495914  0.386289
0.676369  0.530322  0.349516
0.792896  0.563762  0.341948
0.921751  0.607102  0.325235
0.263819  0.372921  0.426260
0.303893  0.410730  0.451235
0.372256  0.458349  0.460797
0.476822  0.506322  0.442355
0.560199  0.554012  0.460178
0.692625  0.596230  0.418716
0.821281  0.637118  0.397100
0.942252  0.672355  0.380275
0.295713  0.413503  0.469028
0.357946  0.460371  0.484236
0.459189  0.511975  0.466305
0.531284  0.559259  0.463123
0.623329  0.625794  0.454203
0.724930  0.684352  0.447007
0.851117  0.727299  0.429407
0.973025  0.740710  0.426032
0.337714  0.456973  0.502823
0.425668  0.507047  0.495064
0.523817  0.567740  0.472879
0.599222  0.626052  0.460202
0.690940  0.694919  0.447209
0.788253  0.752117  0.438867
0.893132  0.802706  0.444102
1.016284  0.830986  0.446406
0.388863  0.501139  0.520439
0.491419  0.564300  0.477738
0.585516  0.630329  0.467409
0.663791  0.681541  0.456622
0.770651  0.751306  0.445743
0.843462  0.796755  0.440809
0.939240  0.847454  0.463688
1.049526  0.906123  0.435600
0.107219  0.223585  0.307669
0.163216  0.271726  0.327145
0.229937  0.304933  0.332807
0.332546  0.335363  0.324265
0.468522  0.336408  0.324040
0.614385  0.333297  0.312982
0.770042  0.342023  0.308842
0.905964  0.324167  0.310835
0.163261  0.281214  0.340839
0.212283  0.309997  0.364745
0.254864  0.347448  0.384339
0.344521  0.397826  0.383464
0.464063  0.434034  0.371547
0.608491  0.443508  0.353411
0.751546  0.442801  0.328824
0.899420  0.446787  0.335330
0.204066  0.331899  0.401034
0.249132  0.362130  0.418359
0.290455  0.406108  0.452837
0.376168  0.455878  0.454821
0.487286  0.490574  0.431126
0.622471  0.531873  0.413601
0.761647  0.545318  0.386017
0.898620  0.548677  0.376262
0.247312  0.375470  0.441123
0.293354  0.414699  0.466451
0.335590  0.454601  0.507540
0.394761  0.495784  0.521147
0.514666  0.544306  0.495469
0.639769  0.589645  0.478420
0.774791  0.625406  0.447734
0.914494  0.642584  0.430441
0.287424  0.424277  0.487809
0.333903  0.461917  0.516694
0.384018  0.512300  0.555936
0.434530  0.554309  0.588899
0.565221  0.597475  0.553139
0.664297  0.645345  0.543342
0.809353  0.684047  0.497374
0.940551  0.716448  0.476787
0.324768  0.465898  0.537124
0.367704  0.503066  0.559571
0.426998  0.557205  0.598856
0.495139  0.601891  0.614002
0.605329  0.646539  0.591464
0.714607  0.706753  0.597098
0.827266  0.750775  0.572596
0.965956  0.784554  0.537688
0.362977  0.512831  0.577848
0.406254  0.551499  0.608676
0.478950  0.596566  0.625957
0.575644  0.637796  0.613622
0.686883  0.698257  0.594697
0.769388  0.755271  0.608092
0.886024  0.804546  0.589304
1.003513  0.852185  0.575756
0.395811  0.561108  0.630137
0.456670  0.598041  0.643600
0.560194  0.644742  0.624587
0.649620  0.688321  0.614293
0.749435  0.748825  0.598899
0.834790  0.801116  0.590608
0.936488  0.860359  0.595695
1.051074  0.909340  0.592425
0.073759  0.266107  0.452885
0.148903  0.306834  0.445075
0.219588  0.354227  0.440298
0.341535  0.367891  0.422168
0.473487  0.365999  0.416625
0.611178  0.363406  0.424833
0.747922  0.351710  0.427065
0.915111  0.342200  0.422312
0.130298  0.334621  0.471716
0.214682  0.379610  0.464870
0.280439  0.411023  0.479271
0.354987  0.445233  0.478640
0.466112  0.473804  0.461704
0.608060  0.483982  0.464166
0.746479  0.491401  0.463283
0.901344  0.481953  0.448813
0.196858  0.385811  0.499698
0.283105  0.426113  0.492471
0.324392  0.467471  0.523900
0.389794  0.500131  0.539768
0.475661  0.540937  0.527785
0.615842  0.580813  0.517692
0.750430  0.590962  0.496629
0.890902  0.599178  0.472974
0.251800  0.434148  0.525874
0.325021  0.470927  0.545232
0.375275  0.523980  0.581326
0.424120  0.549018  0.594396
0.495249  0.600241  0.604370
0.624785  0.632396  0.564210
0.761583  0.672114  0.547660
0.899954  0.701289  0.543418
0.293058  0.476880  0.568682
0.364098  0.521757  0.590388
0.420620  0.566861  0.621863
0.466919  0.601313  0.646703
0.532425  0.649497  0.674736
0.660483  0.692918  0.636788
0.785941  0.737330  0.610787
0.924110  0.780890  0.598103
0.339754  0.524211  0.617858
0.400268  0.564898  0.630769
0.453961  0.603070  0.665055
0.514019  0.656953  0.700967
0.577324  0.699154  0.724886
0.699379  0.744375  0.704747
0.823595  0.794503  0.671168
0.952814  0.834082  0.659082
0.372835  0.566778  0.661643
0.441377  0.615384  0.689623
0.494527  0.657098  0.725643
0.552199  0.692065  0.731937
0.635809  0.739527  0.744490
0.750208  0.780030  0.733721
0.872985  0.831779  0.720492
0.980834  0.872989  0.708902
0.414306  0.609486  0.715337
0.469966  0.650515  0.736839
0.519354  0.685058  0.770178
0.607114  0.733694  0.763265
0.708778  0.774688  0.763864
0.826073  0.817976  0.740061
0.928312  0.869555  0.742168
1.033478  0.924135  0.732216
0.062934  0.268116  0.592792
0.142130  0.324843  0.589808
0.204448  0.363861  0.613556
0.305958  0.395751  0.607758
0.468178  0.394636  0.553532
0.613856  0.380627  0.539671
0.754181  0.367931  0.548432
0.897522  0.363466  0.556028
0.115377  0.364421  0.600500
0.185948  0.412298  0.597261
0.262973  0.463982  0.600700
0.333107  0.507994  0.613574
0.458598  0.516652  0.577404
0.612999  0.510471  0.559913
0.753699  0.498944  0.565466
0.888534  0.497470  0.569992
0.165931  0.430999  0.606988
0.260096  0.479698  0.609800
0.336377  0.524628  0.618508
0.387844  0.570483  0.650341
0.475334  0.604955  0.641549
0.603953  0.621627  0.607901
0.741438  0.631073  0.608368
0.886379  0.630656  0.603988
0.242131  0.478744  0.627394
0.324425  0.524558  0.624238
0.397216  0.574743  0.654853
0.448885  0.626091  0.692065
0.510272  0.665311  0.719914
0.617314  0.688060  0.671126
0.761314  0.721242  0.643588
0.890047  0.748967  0.631885
0.292445  0.518961  0.655161
0.379848  0.575026  0.661611
0.446610  0.613181  0.690520
0.496300  0.671326  0.745765
0.546758  0.710889  0.781584
0.647690  0.745606  0.752254
0.782123  0.784764  0.713906
0.907264  0.822025  0.694025
0.342511  0.563195  0.702364
0.423892  0.613020  0.702962
0.486944  0.666354  0.747121
0.539286  0.706384  0.783774
0.590480  0.747567  0.824307
0.677946  0.796187  0.834745
0.803154  0.827574  0.788348
0.939015  0.876703  0.756721
0.386068  0.603414  0.737571
0.461796  0.652309  0.747099
0.520131  0.694896  0.787253
0.586209  0.742793  0.829592
0.646764  0.783066  0.848915
0.728898  0.838834  0.878133
0.832922  0.881059  0.870527
0.974385  0.917057  0.817840
0.427648  0.640490  0.771843
0.503481  0.682754  0.794201
0.560474  0.733281  0.820003
0.619749  0.767659  0.856135
0.692093  0.816302  0.883059
0.788186  0.880011  0.913681
0.900036  0.916115  0.896042
1.010400  0.956354  0.866164
0.056364  0.269085  0.729436
0.134332  0.311942  0.733879
0.224246  0.360236  0.743325
0.301307  0.392636  0.761901
0.425419  0.398687  0.760701
0.593382  0.395373  0.723080
0.764585  0.370787  0.697178
0.924073  0.378809  0.680710
0.103681  0.366584  0.730137
0.194593  0.422312  0.718211
0.266380  0.478739  0.732388
0.328170  0.512295  0.755510
0.430744  0.546397  0.769780
0.587672  0.552306  0.744182
0.733995  0.533714  0.708597
0.900885  0.517712  0.689909
0.166805  0.441917  0.718517
0.252279  0.504802  0.726019
0.330603  0.564931  0.733540
0.402883  0.622161  0.752138
0.465330  0.663953  0.774061
0.585459  0.694625  0.770130
0.736548  0.670251  0.729054
0.888167  0.667848  0.718942
0.233774  0.503869  0.722344
0.327606  0.557700  0.717504
0.404632  0.615441  0.734725
0.472915  0.660622  0.768983
0.525350  0.709281  0.805333
0.602954  0.752630  0.830375
0.714327  0.788423  0.810682
0.885989  0.790953  0.752532
0.293193  0.551065  0.742379
0.390625  0.605470  0.732652
0.464654  0.652002  0.761452
0.521825  0.695930  0.791889
0.574402  0.737314  0.828412
0.642267  0.783803  0.862610
0.739656  0.848173  0.893762
0.886832  0.879550  0.822198
0.345338  0.587052  0.768956
0.446573  0.647109  0.770142
0.505187  0.692259  0.792155
0.569252  0.737348  0.828929
0.623251  0.775374  0.856629
0.701214  0.829234  0.896916
0.797715  0.885077  0.930281
0.902065  0.931326  0.915132
0.392103  0.627533  0.823238
0.482908  0.680691  0.813011
0.553111  0.730855  0.826008
0.609719  0.768836  0.859353
0.671158  0.811120  0.881558
0.763390  0.863210  0.918576
0.840526  0.914271  0.947627
0.946419  0.967456  0.981300
0.430086  0.657149  0.857209
0.529091  0.716430  0.840593
0.589599  0.757506  0.860168
0.667138  0.804521  0.893492
0.728251  0.848208  0.916798
0.812032  0.902891  0.946850
0.895239  0.942856  0.969078
0.986381  0.990756  1.004812
