LUT/LUT_19.CUBE
TITLE "LUT_19" 
#LUT size 
LUT_3D_SIZE 5 
#data point 
DOMAIN_MIN 0.000000 0.000000 0.000000
DOMAIN_MAX 0.857143 0.857143 0.857143
0.055937  0.052876  0.027070
0.135044  0.120762  0.059864
0.320734  0.235193  0.054494
0.483384  0.314179  0.045857
0.659983  0.383426  0.044390
0.115707  0.110034  0.058041
0.217452  0.182343  0.080807
0.377834  0.281114  0.068194
0.533083  0.361436  0.055395
0.705606  0.439008  0.046025
0.226309  0.199726  0.082405
0.346352  0.288024  0.091760
0.453300  0.359870  0.072933
0.620497  0.468810  0.066897
0.765551  0.529252  0.059437
0.363485  0.305580  0.096647
0.461677  0.381817  0.080480
0.569687  0.475137  0.074913
0.687393  0.575248  0.070731
0.826232  0.661143  0.077806
0.459587  0.386851  0.083279
0.564821  0.488207  0.060370
0.683752  0.585775  0.071723
0.781247  0.662286  0.072388
0.912325  0.752708  0.083019
0.114944  0.116081  0.074829
0.153154  0.163450  0.118854
0.334700  0.258561  0.087362
0.487591  0.338146  0.068178
0.651974  0.398286  0.059416
0.149775  0.174899  0.157190
0.207254  0.228421  0.197632
0.378695  0.317761  0.166812
0.551965  0.411831  0.115379
0.715599  0.478643  0.112113
0.214833  0.257389  0.241400
0.295430  0.306652  0.255249
0.443891  0.390034  0.215091
0.588794  0.461388  0.177618
0.755589  0.550348  0.167698
0.287052  0.326247  0.291273
0.420537  0.391501  0.257964
0.545462  0.470601  0.252849
0.672263  0.573047  0.194342
0.817453  0.654577  0.188742
0.413444  0.395865  0.282152
0.533846  0.488592  0.250135
0.654388  0.578153  0.244713
0.785511  0.673205  0.201900
0.922840  0.753132  0.192313
0.154027  0.192307  0.178797
0.186913  0.229048  0.223471
0.300045  0.301072  0.235674
0.499625  0.375737  0.169158
0.661613  0.451333  0.151098
0.201853  0.258071  0.260020
0.243936  0.305550  0.305735
0.350786  0.381106  0.333246
0.515335  0.442771  0.277680
0.711812  0.534247  0.232509
0.248910  0.327494  0.347404
0.296431  0.394764  0.419528
0.401186  0.438450  0.404343
0.576575  0.530374  0.381203
0.750037  0.609555  0.329778
0.306441  0.398128  0.422870
0.374734  0.460979  0.472892
0.503569  0.520027  0.463410
0.638899  0.609504  0.469126
0.820634  0.691705  0.407502
0.356591  0.461340  0.501642
0.488669  0.526906  0.491604
0.608473  0.591999  0.487804
0.753582  0.693259  0.469307
0.898214  0.770971  0.453888
0.193757  0.266374  0.282533
0.242859  0.320433  0.338179
0.325326  0.373062  0.348677
0.485386  0.440597  0.309513
0.679589  0.510169  0.260922
0.258163  0.344435  0.370093
0.303485  0.394800  0.425330
0.359304  0.448905  0.462056
0.507819  0.518399  0.441453
0.699885  0.591955  0.380118
0.312277  0.409389  0.448061
0.357324  0.467056  0.506853
0.402397  0.517292  0.548867
0.557066  0.590147  0.536551
0.731483  0.679748  0.496061
0.370094  0.482554  0.526141
0.413923  0.540951  0.577700
0.473346  0.604155  0.637281
0.642484  0.681090  0.633736
0.784238  0.739554  0.602532
0.415692  0.539538  0.579128
0.478516  0.608221  0.643171
0.551086  0.676292  0.700276
0.717413  0.744411  0.689891
0.864256  0.810882  0.675037
0.262229  0.356705  0.394173
0.305858  0.405632  0.443231
0.349296  0.468104  0.508398
0.475486  0.511466  0.472654
0.648234  0.579249  0.411660
0.306611  0.418478  0.463856
0.364363  0.483598  0.520121
0.424349  0.546993  0.590846
0.519215  0.588170  0.567281
0.683867  0.668281  0.544154
0.367646  0.488589  0.532837
0.430931  0.556552  0.599419
0.490954  0.626477  0.662750
0.562403  0.675195  0.702332
0.749891  0.748071  0.652581
0.420121  0.546126  0.590288
0.491170  0.626953  0.663923
0.539711  0.679268  0.725701
0.623980  0.756509  0.801034
0.765973  0.804809  0.761128
0.487264  0.623981  0.664175
0.542608  0.682621  0.732120
0.614034  0.753120  0.815227
0.691119  0.820075  0.866443
0.829166  0.891935  0.896008
