LUT/LUT_21.CUBE
TITLE "LUT_21" 
#LUT size 
LUT_3D_SIZE 15 
DOMAIN_MIN 0.0 0.0 0.0 
DOMAIN_MAX 1.0 1.0 1.0 
#data point 
0.058747  0.057819  0.028226
0.073597  0.071541  0.032266
0.094543  0.092640  0.047897
0.131849  0.122928  0.064635
0.185199  0.163583  0.067056
0.249236  0.205929  0.064462
0.317434  0.236117  0.055826
0.360838  0.252496  0.049348
0.427676  0.295089  0.050912
0.472995  0.318412  0.050551
0.538402  0.335058  0.045232
0.569270  0.363028  0.047663
0.649637  0.385224  0.042550
0.706213  0.410642  0.050519
0.779577  0.436539  0.048132
0.077122  0.074423  0.034863
0.088294  0.084119  0.042433
0.113742  0.104795  0.046197
0.155184  0.135913  0.062219
0.207121  0.180554  0.073541
0.275634  0.208601  0.065335
0.333263  0.250898  0.066369
0.389031  0.286883  0.060188
0.441252  0.308814  0.054900
0.478469  0.324504  0.057167
0.547051  0.353828  0.060549
0.617366  0.384634  0.054480
0.676989  0.417738  0.049535
0.736991  0.435978  0.046746
0.785364  0.457318  0.057182
0.103440  0.094385  0.050578
0.099810  0.094732  0.049692
0.133511  0.119607  0.056256
0.167371  0.156409  0.079552
0.241410  0.200653  0.072387
0.286018  0.221209  0.069461
0.363754  0.271606  0.073115
0.401048  0.293713  0.060108
0.461071  0.321661  0.063367
0.510241  0.347704  0.057665
0.562791  0.368485  0.060083
0.633569  0.413245  0.060770
0.686454  0.434736  0.057905
0.756714  0.450615  0.063830
0.811641  0.479938  0.055879
0.116901  0.109506  0.059742
0.125675  0.118277  0.065833
0.164640  0.146190  0.066172
0.213998  0.181829  0.084976
0.279490  0.227336  0.075464
0.325992  0.253265  0.074790
0.378219  0.286418  0.066052
0.441326  0.310299  0.056338
0.485725  0.340186  0.063187
0.528946  0.366327  0.057386
0.587123  0.396770  0.058885
0.647774  0.422247  0.061244
0.696474  0.446397  0.047225
0.767288  0.465907  0.051639
0.834121  0.507285  0.052668
0.146273  0.133831  0.073440
0.176127  0.159254  0.085141
0.217308  0.186022  0.086406
0.254810  0.211890  0.085451
0.295410  0.234848  0.077521
0.359557  0.285797  0.084344
0.402200  0.307696  0.074040
0.457429  0.331739  0.069824
0.517375  0.363558  0.065394
0.562863  0.385267  0.058678
0.606516  0.426553  0.063882
0.685400  0.455495  0.062532
0.724148  0.471880  0.055999
0.789193  0.503047  0.053425
0.846866  0.519780  0.054319
0.175163  0.171244  0.098391
0.218987  0.191342  0.083642
0.251871  0.211886  0.091214
0.310619  0.250509  0.075130
0.342952  0.272756  0.072484
0.367348  0.291697  0.084269
0.430971  0.327199  0.073401
0.483701  0.366562  0.078183
0.520715  0.381600  0.065315
0.561927  0.413041  0.059925
0.632525  0.445312  0.057701
0.685577  0.472513  0.069142
0.758121  0.495148  0.060522
0.804447  0.528900  0.064811
0.866697  0.550411  0.064928
0.223650  0.195618  0.086776
0.265723  0.222179  0.087545
0.309541  0.254143  0.095040
0.345636  0.281577  0.099166
0.383133  0.299247  0.080094
0.426682  0.334526  0.086936
0.454496  0.351015  0.076164
0.520308  0.403088  0.078754
0.550433  0.415025  0.071305
0.624259  0.472254  0.067767
0.663309  0.487252  0.065810
0.696767  0.495922  0.068563
0.757673  0.530259  0.059733
0.823550  0.552038  0.065784
0.888131  0.578290  0.061303
0.282136  0.238757  0.100782
0.310646  0.261812  0.094710
0.338341  0.269944  0.086704
0.386599  0.303205  0.081226
0.427459  0.346659  0.086350
0.465199  0.371676  0.074685
0.494306  0.396858  0.074621
0.531175  0.422043  0.071928
0.581555  0.466164  0.074287
0.637849  0.496659  0.062632
0.687067  0.526354  0.065267
0.738507  0.552213  0.074645
0.794462  0.574760  0.075655
0.853185  0.596030  0.068773
0.920849  0.620168  0.064870
0.303193  0.251725  0.103788
0.348315  0.294053  0.089933
0.387929  0.307321  0.071483
0.419873  0.331101  0.081659
0.470012  0.376897  0.084209
0.493961  0.396282  0.081711
0.527679  0.427275  0.072943
0.579103  0.467165  0.078474
0.607029  0.501934  0.072398
0.670730  0.547927  0.065667
0.692982  0.562886  0.072388
0.750002  0.587457  0.078638
0.817082  0.617438  0.073404
0.854538  0.649650  0.080570
0.932352  0.662948  0.066124
0.364403  0.302738  0.099181
0.393827  0.322304  0.090106
0.423971  0.340531  0.080890
0.459344  0.375500  0.083478
0.498114  0.402484  0.077132
0.532563  0.433425  0.077353
0.571614  0.471902  0.075656
0.624202  0.504090  0.072605
0.653449  0.543842  0.067171
0.693607  0.572861  0.072108
0.743062  0.619136  0.070437
0.774279  0.634721  0.061160
0.826615  0.662612  0.084712
0.883336  0.669355  0.075356
0.936466  0.711314  0.076815
0.381019  0.315055  0.097770
0.428416  0.344333  0.094643
0.456376  0.392385  0.086168
0.499339  0.404840  0.083325
0.549846  0.447352  0.079255
0.568920  0.480716  0.075825
0.604252  0.504999  0.088539
0.657453  0.544165  0.073249
0.703432  0.586045  0.070836
0.726042  0.603994  0.070955
0.773879  0.651720  0.070328
0.802921  0.663784  0.074326
0.865446  0.702616  0.074925
0.914952  0.716003  0.069473
0.958103  0.742812  0.080377
0.430159  0.356493  0.088945
0.463324  0.373419  0.091764
0.500367  0.411095  0.082960
0.531079  0.437936  0.074784
0.574896  0.477707  0.070554
0.623533  0.509826  0.073625
0.643596  0.545707  0.070041
0.669547  0.581434  0.065764
0.723780  0.614904  0.072546
0.758163  0.639228  0.064495
0.798150  0.672930  0.073658
0.843559  0.699583  0.073642
0.890683  0.719710  0.070446
0.919614  0.761712  0.083722
0.985395  0.774251  0.076445
0.461758  0.384363  0.079999
0.494624  0.406717  0.078529
0.535126  0.441478  0.071942
0.569306  0.479567  0.064698
0.609957  0.515821  0.085126
0.644180  0.553463  0.080478
0.683814  0.583029  0.073917
0.713162  0.599542  0.081951
0.758693  0.633213  0.073228
0.781179  0.662166  0.079318
0.829133  0.683909  0.074037
0.882370  0.717995  0.081332
0.907535  0.750712  0.086030
0.952120  0.780033  0.073730
1.023913  0.799498  0.085844
0.503253  0.424800  0.075195
0.540775  0.467007  0.075625
0.573388  0.493491  0.070929
0.613524  0.521307  0.083724
0.649724  0.545820  0.076459
0.676593  0.571418  0.062821
0.714929  0.603855  0.075251
0.748200  0.635463  0.069271
0.776805  0.659556  0.078220
0.811596  0.674306  0.078568
0.858113  0.704287  0.068684
0.901597  0.736488  0.075961
0.946509  0.774463  0.082589
0.978427  0.795872  0.082852
1.025463  0.810923  0.078123
0.539118  0.455063  0.080638
0.558972  0.476280  0.078993
0.601299  0.512658  0.084496
0.650425  0.545849  0.064779
0.682860  0.572207  0.075090
0.700390  0.599920  0.073297
0.739724  0.626069  0.079582
0.786092  0.663037  0.075289
0.808995  0.681282  0.071350
0.850116  0.705250  0.073562
0.887315  0.728471  0.081775
0.923332  0.767989  0.083163
0.971056  0.783958  0.087826
1.026674  0.811880  0.078892
1.072519  0.849041  0.080065
0.069154  0.069608  0.031951
0.087592  0.080714  0.033867
0.104824  0.093536  0.047482
0.126552  0.113244  0.052429
0.179040  0.156666  0.072281
0.243161  0.195067  0.067893
0.318956  0.244693  0.068976
0.370270  0.268610  0.056069
0.428248  0.291230  0.055212
0.463337  0.303595  0.051428
0.536641  0.341293  0.049815
0.586551  0.369386  0.048505
0.659900  0.394965  0.048602
0.708054  0.422611  0.049855
0.767735  0.438462  0.053625
0.087651  0.084882  0.036228
0.092374  0.087134  0.043284
0.120112  0.102399  0.049015
0.163874  0.146525  0.072091
0.210428  0.178578  0.075785
0.288354  0.227613  0.067441
0.336668  0.251768  0.067389
0.374319  0.277209  0.059777
0.445540  0.311821  0.057151
0.502841  0.333552  0.052136
0.538820  0.356663  0.050092
0.604578  0.384824  0.049222
0.675689  0.423182  0.051917
0.728859  0.431507  0.051603
0.788210  0.459520  0.053513
0.101161  0.094943  0.047075
0.104963  0.102921  0.062550
0.145670  0.135521  0.074866
0.174459  0.158730  0.084513
0.225745  0.193785  0.087755
0.301774  0.240895  0.076406
0.338285  0.262073  0.062562
0.401433  0.295035  0.066909
0.456528  0.322691  0.061723
0.509659  0.340563  0.061327
0.574087  0.378974  0.060805
0.626460  0.406467  0.056777
0.697493  0.435043  0.054842
0.751483  0.466047  0.052873
0.824298  0.483316  0.055921
0.130413  0.123767  0.078390
0.147407  0.142037  0.075129
0.166371  0.160503  0.093061
0.203244  0.185113  0.094521
0.256023  0.215755  0.084837
0.328446  0.259558  0.074996
0.370062  0.282199  0.080066
0.433489  0.325724  0.079938
0.477392  0.344826  0.070910
0.517401  0.373772  0.065190
0.586754  0.400450  0.071485
0.645167  0.429808  0.063945
0.701654  0.454023  0.057816
0.750474  0.479096  0.054332
0.824928  0.502370  0.057221
0.154170  0.150375  0.090516
0.174648  0.164189  0.096656
0.210435  0.190785  0.108917
0.246743  0.210729  0.090975
0.303740  0.254137  0.104175
0.351813  0.266491  0.086108
0.399252  0.307538  0.089250
0.445125  0.332279  0.070251
0.502742  0.369486  0.083330
0.553994  0.401328  0.083251
0.605849  0.416332  0.060965
0.670986  0.447646  0.062458
0.731908  0.482694  0.065986
0.781514  0.501332  0.063723
0.834653  0.526053  0.063523
0.187678  0.168156  0.100016
0.214896  0.196035  0.108940
0.251808  0.228738  0.126416
0.288067  0.249071  0.123573
0.341962  0.271888  0.093019
0.388457  0.306908  0.095157
0.450996  0.337292  0.085204
0.465561  0.358948  0.100934
0.522775  0.389767  0.078058
0.573775  0.428822  0.091356
0.624875  0.450257  0.076231
0.681436  0.484518  0.069162
0.738038  0.495988  0.072299
0.811592  0.534658  0.064584
0.873076  0.568713  0.058048
0.231410  0.220617  0.143520
0.269112  0.236903  0.114958
0.287747  0.255623  0.133239
0.330608  0.270369  0.119858
0.383990  0.307173  0.100084
0.425153  0.339491  0.094070
0.462704  0.369121  0.095127
0.516301  0.396418  0.102993
0.550376  0.420863  0.094405
0.592169  0.445476  0.094413
0.661655  0.483367  0.077624
0.711136  0.509790  0.067429
0.766284  0.538398  0.065014
0.836267  0.564358  0.059856
0.888188  0.588667  0.062067
0.253177  0.235198  0.123951
0.289774  0.258194  0.133123
0.338710  0.291083  0.136342
0.375908  0.309649  0.131442
0.428372  0.343489  0.089373
0.460952  0.366315  0.102013
0.508360  0.406620  0.089363
0.557250  0.431240  0.087942
0.583961  0.463224  0.085099
0.616640  0.485995  0.086753
0.678882  0.525059  0.074249
0.729625  0.545171  0.069315
0.797345  0.568207  0.065790
0.847736  0.594623  0.069375
0.929922  0.612635  0.073898
0.307357  0.264036  0.126780
0.343372  0.294308  0.140348
0.379055  0.315684  0.120520
0.399475  0.334157  0.124277
0.448083  0.373168  0.105349
0.497718  0.410222  0.099885
0.536513  0.432972  0.101993
0.578038  0.473901  0.078600
0.616639  0.508930  0.085523
0.673769  0.546568  0.096968
0.718428  0.561116  0.084386
0.758319  0.586642  0.089178
0.813849  0.612968  0.079527
0.877906  0.648615  0.082419
0.921397  0.657551  0.076073
0.329524  0.281503  0.129747
0.394362  0.331510  0.129136
0.420045  0.352245  0.129348
0.468176  0.383906  0.104286
0.496116  0.411181  0.113349
0.544849  0.448381  0.090531
0.589085  0.487370  0.099050
0.614032  0.510885  0.099463
0.655727  0.549850  0.085923
0.687609  0.572634  0.084968
0.746400  0.622308  0.073775
0.776602  0.636849  0.076010
0.833421  0.653181  0.075765
0.883601  0.677794  0.075932
0.948405  0.712958  0.081253
0.370163  0.316083  0.144251
0.399896  0.340545  0.134311
0.437308  0.378541  0.126643
0.502379  0.417356  0.104461
0.534092  0.437727  0.104678
0.580042  0.487345  0.096870
0.628804  0.527126  0.091241
0.656519  0.553913  0.078595
0.691605  0.582797  0.087433
0.729821  0.615175  0.083335
0.775537  0.637699  0.077545
0.818842  0.676006  0.091612
0.855734  0.691171  0.068221
0.919139  0.722237  0.087313
0.960494  0.725654  0.094474
0.407865  0.344856  0.133898
0.452797  0.380142  0.124948
0.507386  0.427169  0.110147
0.529985  0.438412  0.104071
0.566338  0.489512  0.105000
0.614817  0.511951  0.099263
0.634221  0.537740  0.101188
0.686811  0.569325  0.101524
0.714622  0.595274  0.089667
0.739793  0.628940  0.092248
0.794342  0.660751  0.076071
0.845411  0.692270  0.092763
0.898770  0.727503  0.085107
0.926704  0.756236  0.083256
0.981645  0.776881  0.071083
0.467214  0.382200  0.120181
0.517705  0.428933  0.079582
0.539511  0.446500  0.105925
0.590282  0.488572  0.092220
0.606177  0.505107  0.101822
0.644267  0.551491  0.101081
0.687802  0.585306  0.094535
0.697263  0.601655  0.090373
0.758709  0.631394  0.097880
0.789450  0.661179  0.096541
0.827045  0.686403  0.083262
0.880442  0.723063  0.095829
0.916918  0.746357  0.089227
0.979442  0.774832  0.082849
1.007042  0.790492  0.085435
0.486440  0.409587  0.119103
0.515428  0.440005  0.101259
0.567777  0.479104  0.091614
0.583447  0.491958  0.089368
0.642847  0.551505  0.087934
0.672477  0.571314  0.085351
0.692251  0.597835  0.107782
0.752375  0.639457  0.081239
0.781849  0.656780  0.085530
0.813823  0.686293  0.095928
0.860709  0.717004  0.092197
0.892821  0.731969  0.099046
0.934668  0.762164  0.093087
0.986721  0.797356  0.081934
1.031178  0.813013  0.086211
0.541422  0.457871  0.122079
0.568427  0.485366  0.094035
0.585094  0.490794  0.099852
0.634416  0.532888  0.088699
0.667949  0.569400  0.094138
0.704019  0.602852  0.093240
0.741412  0.633556  0.090366
0.783163  0.656719  0.095103
0.805886  0.675209  0.097633
0.852168  0.706925  0.096596
0.893680  0.739977  0.096356
0.917731  0.758851  0.089783
0.974382  0.797739  0.094687
1.024845  0.819192  0.086691
1.077924  0.847949  0.102995
0.092325  0.083817  0.038634
0.106536  0.104419  0.058893
0.116999  0.108537  0.059310
0.156366  0.142255  0.074954
0.193065  0.168175  0.081465
0.252505  0.206141  0.078063
0.306898  0.242375  0.063589
0.380535  0.272194  0.064843
0.430665  0.301492  0.056951
0.473586  0.319126  0.057279
0.530229  0.347229  0.051204
0.591391  0.375538  0.059423
0.643416  0.398091  0.048935
0.728083  0.431020  0.052546
0.780769  0.435630  0.043390
0.108588  0.111135  0.066869
0.116278  0.120525  0.076161
0.139360  0.137646  0.079599
0.161112  0.161073  0.093731
0.220049  0.195465  0.097238
0.286991  0.234334  0.080689
0.339397  0.264173  0.075800
0.380418  0.283754  0.074558
0.444304  0.322138  0.058729
0.496601  0.348289  0.065905
0.554905  0.375285  0.060389
0.610533  0.399793  0.054520
0.661360  0.416135  0.059536
0.754690  0.450396  0.050732
0.795123  0.460756  0.060285
0.123677  0.127390  0.076893
0.135350  0.146619  0.105835
0.155172  0.155354  0.103554
0.186743  0.177091  0.106962
0.228462  0.206058  0.112127
0.300118  0.253887  0.113096
0.343570  0.281026  0.090932
0.386911  0.298220  0.084313
0.465822  0.333241  0.079529
0.518981  0.365543  0.090777
0.564434  0.392686  0.067301
0.625585  0.420679  0.063667
0.693613  0.438430  0.057040
0.753288  0.471438  0.059046
0.801704  0.484337  0.053906
0.147250  0.155472  0.115234
0.152855  0.162700  0.121180
0.161142  0.178702  0.142625
0.202060  0.201304  0.131401
0.231137  0.217705  0.127467
0.321723  0.277103  0.126596
0.375294  0.310781  0.117898
0.416277  0.317298  0.106023
0.483716  0.367834  0.091521
0.536424  0.386749  0.095637
0.575801  0.404456  0.085769
0.646925  0.439128  0.071639
0.699051  0.465707  0.069077
0.748371  0.481790  0.060564
0.823406  0.512133  0.063767
0.150679  0.175986  0.142011
0.193855  0.209797  0.179608
0.204555  0.211966  0.149341
0.222030  0.223338  0.160343
0.291345  0.258131  0.144962
0.332754  0.285436  0.141293
0.391269  0.316786  0.137444
0.460697  0.354482  0.114514
0.497764  0.383233  0.117113
0.557025  0.406196  0.104981
0.609774  0.436023  0.104715
0.667202  0.459996  0.091154
0.723174  0.484655  0.077267
0.782426  0.529615  0.075583
0.840787  0.544619  0.065734
0.170780  0.196784  0.174213
0.195100  0.211941  0.170047
0.240636  0.242791  0.171470
0.264561  0.251824  0.166215
0.315840  0.284030  0.167171
0.364853  0.315735  0.169128
0.424411  0.340244  0.140535
0.472572  0.368420  0.125244
0.537230  0.410294  0.107507
0.574640  0.431670  0.114743
0.634813  0.459463  0.098495
0.679976  0.491471  0.115701
0.731822  0.507430  0.092597
0.811059  0.549832  0.091782
0.850422  0.564345  0.083245
0.206953  0.224560  0.183397
0.235671  0.241137  0.184452
0.277607  0.267116  0.185564
0.319298  0.297456  0.185768
0.353498  0.317495  0.170620
0.404524  0.339467  0.166407
0.457955  0.374297  0.154596
0.498649  0.399849  0.144046
0.540931  0.428358  0.134699
0.589259  0.465438  0.128287
0.645928  0.493552  0.127667
0.705917  0.521143  0.132051
0.762303  0.538484  0.122548
0.829330  0.580869  0.104560
0.880138  0.588435  0.090129
0.257411  0.261854  0.200496
0.288109  0.283028  0.205330
0.333019  0.303144  0.194573
0.357699  0.322382  0.170193
0.393607  0.347537  0.183482
0.442056  0.372708  0.158840
0.496382  0.409182  0.158984
0.541941  0.436097  0.147819
0.593911  0.469888  0.117556
0.645964  0.503748  0.125079
0.678985  0.516685  0.129971
0.716212  0.548022  0.138675
0.779971  0.578054  0.123726
0.853628  0.612552  0.111368
0.895274  0.631245  0.110780
0.278211  0.278166  0.202962
0.328253  0.307212  0.194552
0.355352  0.313037  0.187208
0.404212  0.352902  0.190426
0.428684  0.384781  0.192286
0.470686  0.400481  0.173777
0.536175  0.444666  0.162952
0.569574  0.472216  0.142938
0.628231  0.509826  0.119791
0.666842  0.529411  0.130392
0.719019  0.564635  0.121385
0.753662  0.602845  0.124967
0.810345  0.619123  0.129250
0.865604  0.641305  0.127803
0.930940  0.666871  0.113007
0.313759  0.306181  0.217482
0.359923  0.336021  0.199017
0.404194  0.348662  0.185233
0.425977  0.383358  0.198896
0.462865  0.399974  0.192381
0.526328  0.443448  0.160434
0.571438  0.473623  0.162112
0.604977  0.502837  0.139330
0.654135  0.539338  0.134991
0.696312  0.581799  0.123774
0.746451  0.611506  0.131297
0.790828  0.632226  0.125507
0.836495  0.661867  0.141164
0.883473  0.684602  0.132643
0.934034  0.700453  0.117431
0.364078  0.332960  0.198638
0.396379  0.356945  0.192606
0.429294  0.384331  0.207139
0.492847  0.422108  0.171164
0.516919  0.441842  0.159882
0.550238  0.465076  0.167736
0.590676  0.507645  0.160043
0.644563  0.544246  0.143466
0.680540  0.580679  0.119142
0.720774  0.600924  0.128422
0.761896  0.631398  0.129994
0.795657  0.662880  0.128196
0.860596  0.711705  0.130655
0.904923  0.717305  0.129023
0.982344  0.759576  0.128801
0.404354  0.362325  0.205467
0.433889  0.383725  0.193641
0.479296  0.421006  0.194250
0.516790  0.446321  0.179082
0.574621  0.477346  0.175408
0.599806  0.507694  0.157192
0.618148  0.527853  0.153123
0.675648  0.566730  0.136735
0.714989  0.601920  0.151808
0.767947  0.642188  0.121584
0.792477  0.664771  0.132204
0.836226  0.707386  0.138194
0.890740  0.726429  0.128854
0.924918  0.762129  0.133859
0.988667  0.791368  0.145682
0.440859  0.381197  0.197938
0.470858  0.411020  0.192520
0.513581  0.441593  0.173034
0.532759  0.462285  0.200224
0.585681  0.498952  0.179990
0.640243  0.536345  0.164532
0.670875  0.564174  0.139997
0.705279  0.604033  0.145725
0.750759  0.633180  0.139953
0.788587  0.656488  0.134646
0.815049  0.687065  0.136326
0.855394  0.719776  0.140948
0.912880  0.750007  0.128044
0.968379  0.779132  0.155390
1.007184  0.792305  0.123449
0.470306  0.405768  0.207818
0.511784  0.439804  0.183234
0.528826  0.461062  0.193539
0.582239  0.510025  0.155136
0.618545  0.538101  0.148866
0.682697  0.585088  0.147254
0.707725  0.598130  0.137505
0.742071  0.640634  0.127218
0.782371  0.657470  0.134571
0.803121  0.683917  0.133058
0.840915  0.711603  0.128333
0.898521  0.748732  0.130973
0.936463  0.769555  0.138440
0.992154  0.798242  0.130324
1.036313  0.818521  0.148639
0.503514  0.444591  0.207437
0.556839  0.483145  0.194487
0.589543  0.515244  0.169105
0.627182  0.543118  0.153038
0.679587  0.563213  0.152211
0.694728  0.597491  0.148493
0.745950  0.631935  0.132750
0.771456  0.654351  0.137637
0.800246  0.681937  0.136701
0.853523  0.721803  0.143488
0.899105  0.745127  0.124694
0.919443  0.757648  0.145162
0.963941  0.794311  0.144905
1.021092  0.813566  0.134672
1.071605  0.847461  0.136421
0.115183  0.117183  0.073927
0.121285  0.123559  0.075789
0.139550  0.146893  0.105448
0.156374  0.161176  0.117107
0.198219  0.179807  0.096804
0.245093  0.213687  0.089861
0.334711  0.258026  0.090120
0.382177  0.282516  0.079001
0.412181  0.301170  0.071309
0.482546  0.337806  0.071121
0.523463  0.364713  0.066801
0.599599  0.386369  0.070374
0.637032  0.404150  0.060672
0.717650  0.434470  0.048481
0.769819  0.441871  0.052757
0.122445  0.134010  0.100318
0.130227  0.148891  0.119073
0.156524  0.168895  0.126562
0.176244  0.184869  0.134413
0.215024  0.206127  0.136864
0.272026  0.237982  0.117617
0.344144  0.279925  0.123961
0.395459  0.312574  0.105011
0.435148  0.322813  0.081430
0.492179  0.360118  0.084626
0.547529  0.380545  0.076553
0.606527  0.405143  0.077606
0.680604  0.433446  0.071976
0.725415  0.446179  0.057135
0.800260  0.475876  0.054186
0.137153  0.154986  0.121524
0.145617  0.170946  0.146004
0.167377  0.190818  0.158117
0.194399  0.214497  0.181314
0.221349  0.231644  0.161245
0.296673  0.263566  0.143696
0.357907  0.297877  0.137073
0.401623  0.320074  0.127597
0.468533  0.347246  0.100823
0.517122  0.385122  0.100491
0.564509  0.401510  0.104009
0.618805  0.427704  0.079663
0.675983  0.450702  0.074804
0.744915  0.477676  0.076304
0.825010  0.511471  0.063776
0.145176  0.177570  0.156812
0.164669  0.195876  0.185088
0.184185  0.213509  0.190910
0.203040  0.225558  0.191935
0.254301  0.259326  0.189654
0.303736  0.285193  0.176457
0.375339  0.318066  0.164011
0.419610  0.339250  0.134413
0.490673  0.376572  0.127779
0.548880  0.416024  0.116805
0.576561  0.417875  0.115455
0.638812  0.452126  0.114903
0.713683  0.488510  0.106747
0.756244  0.495286  0.095165
0.818296  0.522129  0.098111
0.167433  0.209323  0.202023
0.187845  0.227859  0.221489
0.197513  0.234804  0.209439
0.235742  0.260214  0.213694
0.274126  0.272707  0.202241
0.320039  0.300878  0.193839
0.371767  0.332151  0.189544
0.448698  0.369973  0.166414
0.481520  0.378053  0.156696
0.552001  0.423278  0.123238
0.606775  0.446480  0.130742
0.657209  0.469906  0.126113
0.706108  0.507511  0.134389
0.767056  0.526501  0.111863
0.845703  0.553494  0.108318
0.193904  0.228979  0.213123
0.201859  0.240028  0.227507
0.228317  0.261745  0.240739
0.243037  0.276328  0.242402
0.302171  0.303822  0.244509
0.357702  0.327840  0.223807
0.423381  0.363196  0.182061
0.467972  0.387826  0.199950
0.513659  0.412886  0.174955
0.556146  0.421516  0.167618
0.621593  0.475907  0.154277
0.667504  0.508494  0.156685
0.741500  0.534445  0.132124
0.788298  0.561308  0.137466
0.838536  0.572635  0.127347
0.215477  0.259458  0.246387
0.226382  0.257666  0.235857
0.261622  0.287218  0.254875
0.295746  0.305094  0.255131
0.332608  0.326512  0.235851
0.388495  0.363652  0.246272
0.442578  0.391028  0.213174
0.489905  0.420210  0.215075
0.547360  0.442237  0.197285
0.586619  0.459576  0.176018
0.638067  0.483838  0.177127
0.713423  0.534718  0.162223
0.749925  0.555510  0.170415
0.811045  0.587281  0.146115
0.875514  0.619168  0.154671
0.220419  0.268861  0.258678
0.273553  0.297355  0.259189
0.298349  0.321789  0.273288
0.336704  0.342353  0.272990
0.380608  0.358628  0.240063
0.436913  0.388805  0.216890
0.467719  0.415491  0.230297
0.526174  0.443384  0.222178
0.566770  0.474464  0.226482
0.624121  0.497397  0.193112
0.690835  0.540862  0.172707
0.726415  0.553461  0.189669
0.794058  0.593893  0.166034
0.820689  0.608585  0.182147
0.893324  0.624822  0.176054
0.265764  0.299597  0.264459
0.293535  0.317460  0.274514
0.329295  0.343087  0.268640
0.372478  0.358250  0.259712
0.425855  0.396468  0.254679
0.462715  0.424839  0.253606
0.498153  0.444534  0.235533
0.550089  0.480658  0.223464
0.592008  0.494045  0.229837
0.664460  0.538820  0.204157
0.719406  0.581009  0.172413
0.766156  0.597319  0.193222
0.798280  0.618662  0.191790
0.864142  0.661645  0.194219
0.916892  0.668796  0.191364
0.286791  0.320693  0.296917
0.335682  0.340554  0.272703
0.389583  0.372514  0.271358
0.418611  0.385571  0.261947
0.471957  0.430342  0.249288
0.519556  0.446658  0.247393
0.545020  0.471555  0.251116
0.589944  0.508883  0.231281
0.642205  0.542684  0.208657
0.675265  0.566453  0.197347
0.740610  0.610466  0.187751
0.792975  0.647805  0.183925
0.817421  0.658734  0.189129
0.900913  0.697357  0.192816
