LUT/LUT_12.CUBE
TITLE "LUT_12" 
#LUT size 
LUT_3D_SIZE 5 
#data point 
DOMAIN_MIN 0.000000 0.000000 0.000000
DOMAIN_MAX 0.857143 0.857143 0.857143
0.042171  0.043804  0.020575
0.143015  0.119795  0.052150
0.336046  0.212984  0.039338
0.519897  0.279106  0.030033
0.704761  0.324160  0.026115
0.118449  0.116221  0.063274
0.224200  0.181902  0.066862
0.390258  0.267542  0.055914
0.559316  0.334716  0.042060
0.745475  0.401238  0.040842
0.229657  0.199437  0.085228
0.349800  0.297732  0.076717
0.458091  0.375645  0.058978
0.626540  0.457940  0.057658
0.794707  0.500856  0.047482
0.360431  0.310661  0.086569
0.455458  0.395827  0.068376
0.563587  0.491457  0.063669
0.681884  0.583936  0.062273
0.832232  0.653485  0.062257
0.439371  0.416346  0.071532
0.547104  0.506596  0.058615
0.654610  0.599770  0.061095
0.774500  0.671003  0.067236
0.909697  0.758766  0.069080
0.099349  0.112723  0.084217
0.156858  0.162917  0.119616
0.342735  0.247307  0.078006
0.509613  0.301821  0.061378
0.689216  0.357596  0.050877
0.137904  0.178881  0.171344
0.196550  0.233025  0.206331
0.388183  0.319008  0.163812
0.565609  0.383678  0.124732
0.742053  0.444933  0.113600
0.204257  0.247786  0.249992
0.302032  0.311427  0.252470
0.446260  0.391296  0.211493
0.600935  0.458216  0.184029
0.777119  0.525302  0.181128
0.290194  0.325012  0.284849
0.420673  0.396483  0.258438
0.535150  0.496094  0.247431
0.672787  0.584330  0.201477
0.826233  0.654717  0.191098
0.413927  0.412919  0.284828
0.528527  0.508162  0.242842
0.638425  0.600443  0.242505
0.773345  0.687101  0.212369
0.917743  0.765627  0.198543
0.135884  0.187666  0.188858
0.178920  0.234060  0.234417
0.318095  0.305560  0.233672
0.520556  0.362499  0.181975
0.703554  0.402383  0.158244
0.186348  0.253091  0.276450
0.235415  0.305877  0.318902
0.358774  0.379378  0.330390
0.528316  0.440628  0.287643
0.731790  0.513133  0.247765
0.241083  0.323602  0.351033
0.294118  0.389665  0.421434
0.407659  0.445467  0.402534
0.585499  0.527111  0.373738
0.769304  0.590464  0.340046
0.291982  0.395596  0.434095
0.370635  0.457745  0.477767
0.507513  0.528083  0.463871
0.645154  0.608518  0.460407
0.825721  0.682231  0.413024
0.345745  0.460889  0.500817
0.481507  0.530079  0.492760
0.606364  0.605518  0.473196
0.745111  0.702456  0.462135
0.895631  0.784727  0.458809
0.168503  0.259248  0.304405
0.233051  0.319581  0.351741
0.331845  0.381220  0.360577
0.499984  0.428792  0.322062
0.717190  0.470056  0.273097
0.238730  0.344629  0.389091
0.292105  0.398917  0.440806
0.355829  0.447338  0.465603
0.526757  0.517294  0.437974
0.721509  0.575570  0.381411
0.297741  0.407934  0.460109
0.348557  0.463690  0.512870
0.407281  0.524804  0.558525
0.558615  0.589318  0.535006
0.744211  0.667540  0.500344
0.356143  0.480324  0.534299
0.409409  0.537665  0.585257
0.474779  0.603670  0.641797
0.634039  0.672821  0.626188
0.791549  0.737950  0.589645
0.405801  0.541055  0.590023
0.470680  0.604856  0.646897
0.545904  0.670250  0.698956
0.715710  0.738137  0.679068
0.874210  0.818056  0.676553
0.191816  0.350932  0.437090
0.270512  0.403063  0.467113
0.337760  0.468414  0.517100
0.481718  0.506477  0.472469
0.682013  0.544879  0.428811
0.263146  0.415812  0.488227
0.344439  0.474223  0.541849
0.403671  0.547151  0.599252
0.521525  0.585998  0.563108
0.703020  0.660133  0.541971
0.343630  0.483785  0.546202
0.415016  0.554916  0.605332
0.481463  0.623693  0.669393
0.572677  0.682093  0.699979
0.750009  0.742285  0.646141
0.402183  0.547439  0.606316
0.480531  0.618652  0.671590
0.528117  0.685780  0.745071
0.614350  0.751965  0.805407
0.773494  0.801460  0.756259
0.455609  0.617864  0.681483
0.521097  0.678970  0.745239
0.600428  0.752644  0.824237
0.693412  0.811579  0.861968
0.833156  0.882327  0.888476
