LUT/LUT_8.CUBE
TITLE "LUT_8" 
#LUT size 
LUT_3D_SIZE 15 
DOMAIN_MIN 0.0 0.0 0.0 
DOMAIN_MAX 1.0 1.0 1.0 
#data point 
0.034237  0.031887  0.010797
0.051885  0.058534  0.025396
0.093767  0.086104  0.036862
0.148327  0.119636  0.043533
0.217387  0.154032  0.035838
0.281300  0.170685  0.025940
0.354967  0.188224  0.024102
0.411483  0.199084  0.024969
0.479345  0.215017  0.021320
0.541083  0.233132  0.015813
0.609978  0.239727  0.016214
0.662098  0.244872  0.013024
0.748560  0.258049  0.012141
0.800630  0.263119  0.003768
0.882028  0.269859  -0.003783
0.052258  0.050452  0.021455
0.077603  0.072649  0.029823
0.109402  0.100746  0.045165
0.169210  0.141474  0.047340
0.227489  0.167841  0.039044
0.295295  0.190145  0.032787
0.364132  0.214702  0.034196
0.418161  0.231220  0.032606
0.482752  0.242742  0.027798
0.542568  0.255711  0.024848
0.613284  0.273174  0.022017
0.683406  0.290622  0.022106
0.756724  0.293574  0.021327
0.819219  0.300732  0.013040
0.886006  0.312063  0.013788
0.091077  0.087414  0.041980
0.101772  0.094713  0.046425
0.138040  0.122886  0.051306
0.189515  0.154159  0.053101
0.260361  0.190558  0.043451
0.312672  0.207888  0.039313
0.381147  0.235014  0.036129
0.433729  0.251212  0.033414
0.498666  0.276991  0.040483
0.564338  0.281792  0.031412
0.621669  0.303455  0.024053
0.693921  0.329739  0.025972
0.760642  0.338165  0.023565
0.826567  0.342380  0.025294
0.897421  0.349815  0.017555
0.119947  0.111279  0.059162
0.140836  0.128714  0.056647
0.181455  0.152815  0.057596
0.227883  0.183365  0.054097
0.289649  0.216777  0.053380
0.339491  0.239552  0.048026
0.401117  0.253083  0.043927
0.461091  0.280026  0.041500
0.519725  0.294844  0.039807
0.577420  0.317338  0.038061
0.638002  0.338559  0.035840
0.706562  0.350656  0.036989
0.772038  0.362594  0.033202
0.836152  0.370605  0.028516
0.909242  0.394174  0.034436
0.149560  0.135097  0.068621
0.185681  0.158331  0.071230
0.223037  0.191448  0.073832
0.259146  0.212233  0.060973
0.308996  0.248106  0.055770
0.366501  0.278478  0.059900
0.409476  0.297858  0.051041
0.477411  0.323638  0.044063
0.537058  0.336950  0.047456
0.606037  0.348971  0.041295
0.648692  0.374968  0.047032
0.733771  0.395399  0.037735
0.784831  0.393927  0.037044
0.849027  0.412067  0.035927
0.915559  0.430064  0.042591
0.190181  0.175354  0.084297
0.224164  0.189357  0.069287
0.261735  0.226326  0.065886
0.304108  0.262451  0.050627
0.335375  0.287195  0.049066
0.380422  0.308161  0.054720
0.441299  0.344705  0.053573
0.490415  0.363726  0.050428
0.545550  0.369099  0.047336
0.601481  0.385217  0.039792
0.677054  0.403549  0.042611
0.729830  0.424739  0.050420
0.807023  0.437543  0.044234
0.866988  0.451326  0.050665
0.931627  0.472288  0.042273
0.232080  0.207136  0.075299
0.265234  0.231565  0.073445
0.303747  0.270404  0.063799
0.341166  0.306246  0.058353
0.366750  0.329443  0.057738
0.412202  0.358904  0.059821
0.454265  0.380169  0.055132
0.515752  0.415651  0.058959
0.562153  0.421558  0.054392
0.624945  0.452872  0.046196
0.681357  0.467159  0.042369
0.743942  0.469787  0.049156
0.810125  0.476513  0.043116
0.874113  0.486897  0.049729
0.945440  0.498680  0.051418
0.271702  0.248727  0.086406
0.302931  0.280611  0.063907
0.330994  0.301845  0.059039
0.374284  0.336626  0.055964
0.406293  0.380574  0.059032
0.445455  0.412793  0.047667
0.473005  0.437474  0.050469
0.516259  0.458155  0.050663
0.587862  0.477326  0.051334
0.640450  0.499874  0.046902
0.704081  0.513190  0.048191
0.759483  0.535031  0.055513
0.822008  0.541257  0.050056
0.891325  0.549313  0.053161
0.962043  0.560173  0.057750
0.294592  0.284813  0.082731
0.337548  0.324460  0.073159
0.369990  0.352145  0.058997
0.396791  0.375416  0.058227
0.441480  0.420174  0.057066
0.466574  0.444266  0.059464
0.513484  0.475149  0.052797
0.555515  0.508719  0.057605
0.603280  0.527056  0.052052
0.657757  0.549426  0.050031
0.704866  0.571659  0.051529
0.771775  0.575411  0.049710
0.840008  0.587470  0.051670
0.896429  0.607826  0.057772
0.961046  0.618390  0.060597
0.342459  0.329174  0.076411
0.366810  0.357474  0.069822
0.402911  0.391004  0.061277
0.438316  0.417424  0.056430
0.468731  0.455864  0.056514
0.504988  0.475157  0.057565
0.551075  0.511158  0.052104
0.585310  0.546244  0.055855
0.630900  0.571448  0.057659
0.674875  0.598614  0.045426
0.727604  0.621744  0.049888
0.783949  0.638102  0.052624
0.837926  0.648630  0.053542
0.905724  0.661463  0.052921
0.970148  0.679530  0.061869
0.363558  0.362518  0.065577
0.394188  0.389784  0.065125
0.432946  0.432368  0.057837
0.462698  0.461023  0.065129
0.514958  0.494308  0.050339
0.536297  0.527787  0.059408
0.578861  0.550497  0.064461
0.621694  0.579648  0.052855
0.671508  0.612133  0.049835
0.698983  0.632399  0.051221
0.752702  0.661357  0.058953
0.800840  0.679857  0.056430
0.857269  0.709485  0.058459
0.916534  0.728636  0.054528
0.980446  0.728300  0.062174
0.397097  0.404870  0.067922
0.432793  0.435030  0.062590
0.463611  0.462619  0.061814
0.494918  0.486372  0.050018
0.544916  0.527793  0.057380
0.576752  0.553276  0.055411
0.608081  0.579713  0.050715
0.645804  0.601546  0.051709
0.698558  0.639791  0.061017
0.738815  0.662051  0.052437
0.780178  0.690731  0.052487
0.830575  0.714110  0.058282
0.889783  0.744215  0.055076
0.945047  0.770993  0.059826
0.992617  0.786693  0.053542
0.423282  0.440967  0.070970
0.456589  0.471336  0.060567
0.494961  0.498783  0.056459
0.531538  0.531560  0.052186
0.563672  0.567127  0.051461
0.598895  0.591488  0.058759
0.636698  0.617975  0.056644
0.678683  0.638639  0.054876
0.727234  0.670291  0.056850
0.763064  0.688358  0.059765
0.811197  0.720968  0.058051
0.856894  0.749657  0.053794
0.899774  0.766005  0.058735
0.949922  0.795978  0.054205
1.015982  0.821659  0.062057
0.457089  0.485558  0.058755
0.490721  0.511808  0.062136
0.531977  0.545394  0.055499
0.566730  0.566839  0.053454
0.600004  0.597617  0.059828
0.638808  0.618386  0.047457
0.671643  0.642506  0.056666
0.718830  0.675567  0.056007
0.752539  0.691641  0.052796
0.793814  0.718210  0.055730
0.836260  0.745079  0.054498
0.891649  0.777148  0.055847
0.934503  0.801404  0.061103
0.984316  0.825655  0.060092
1.033820  0.842954  0.057881
0.481735  0.515438  0.058184
0.516687  0.540338  0.062214
0.546609  0.571386  0.057540
0.599317  0.603770  0.057652
0.632081  0.625257  0.057170
0.661398  0.651331  0.053691
0.703451  0.674387  0.057967
0.748023  0.698220  0.055390
0.781282  0.729477  0.059252
0.825798  0.753339  0.063344
0.868359  0.775201  0.057779
0.918528  0.798936  0.066190
0.961530  0.822298  0.064554
1.021021  0.857421  0.055508
1.069453  0.878502  0.057597
0.047112  0.046526  0.020890
0.061762  0.058424  0.028863
0.098567  0.092411  0.042380
0.136735  0.115020  0.044649
0.207083  0.150584  0.043027
0.283559  0.168549  0.028494
0.354043  0.190990  0.023474
0.401499  0.203144  0.020324
0.483873  0.225808  0.019201
0.533362  0.227748  0.020888
0.601135  0.242872  0.014864
0.677116  0.258907  0.017172
0.747691  0.267924  0.010654
0.805708  0.268258  0.007480
0.874886  0.268127  0.001223
0.068118  0.066078  0.040369
0.082288  0.085058  0.049047
0.115251  0.106715  0.050049
0.166689  0.143965  0.057944
0.233084  0.177707  0.051079
0.298901  0.200884  0.041974
0.361053  0.212206  0.033727
0.415417  0.235750  0.034193
0.486083  0.249276  0.031694
0.553400  0.270270  0.028691
0.614969  0.285032  0.024650
0.679910  0.294575  0.021257
0.741146  0.298089  0.023953
0.817970  0.307647  0.017903
0.882534  0.329575  0.018650
0.088121  0.091475  0.060310
0.105177  0.104596  0.060394
0.144909  0.139315  0.072225
0.193035  0.167079  0.072924
0.244164  0.194108  0.066675
0.319003  0.214612  0.053712
0.373485  0.246432  0.050535
0.436443  0.263109  0.042567
0.495519  0.279987  0.032425
0.557775  0.296704  0.036692
0.623736  0.316117  0.029313
0.695866  0.327298  0.029227
0.769519  0.338023  0.031499
0.828254  0.354094  0.025094
0.896863  0.364460  0.025152
0.116587  0.123756  0.085833
0.143375  0.138800  0.080097
0.182636  0.167465  0.083214
0.210150  0.187163  0.087883
0.279532  0.217836  0.078056
0.331307  0.249850  0.071629
0.387569  0.269119  0.066002
0.448885  0.293472  0.063434
0.517591  0.305956  0.048728
0.572544  0.324132  0.046744
0.640611  0.338937  0.046054
0.705923  0.369981  0.043522
0.768632  0.362256  0.036440
0.838050  0.391156  0.032845
0.901809  0.401912  0.035934
0.154367  0.151516  0.095046
0.184310  0.171785  0.092051
0.216412  0.197527  0.091240
0.256976  0.221528  0.092356
0.307302  0.254277  0.088327
0.352535  0.277346  0.077671
0.409040  0.303790  0.070921
0.462304  0.317669  0.063624
0.529227  0.336828  0.073860
0.588867  0.358740  0.065451
0.643554  0.373570  0.045148
0.717839  0.394706  0.048762
0.773900  0.403045  0.047160
0.843607  0.419228  0.042219
0.909935  0.436815  0.044935
0.187538  0.177534  0.107092
0.223573  0.208000  0.102896
0.262141  0.240054  0.113668
0.288914  0.259198  0.110766
0.338049  0.290768  0.080254
0.379534  0.320572  0.084960
0.442397  0.349444  0.076588
0.476841  0.363387  0.086854
0.535337  0.384249  0.073856
0.597365  0.402318  0.075710
0.664141  0.416001  0.067046
0.736067  0.430289  0.053998
0.796411  0.442981  0.051187
0.870452  0.456448  0.053481
0.935531  0.479302  0.050594
0.229601  0.219530  0.129837
0.265634  0.244819  0.112937
0.292210  0.269702  0.112512
0.325152  0.300274  0.113456
0.373508  0.336185  0.091461
0.411128  0.369260  0.081485
0.453940  0.391597  0.073731
0.511204  0.412740  0.085345
0.559748  0.429277  0.076685
0.625270  0.432117  0.075704
0.686369  0.460399  0.070278
0.755310  0.472694  0.059633
0.811308  0.486636  0.066514
0.897383  0.494798  0.057002
0.949390  0.510949  0.061107
0.265271  0.257572  0.121320
0.290489  0.279409  0.118062
0.332106  0.309912  0.119036
0.355927  0.338143  0.105895
0.409847  0.373760  0.086561
0.439648  0.409764  0.087260
0.487211  0.444544  0.073154
0.535542  0.462736  0.073670
0.585676  0.479908  0.080447
0.633553  0.494729  0.070375
0.694738  0.512914  0.074140
0.753362  0.523595  0.059564
0.824178  0.537153  0.065022
0.892138  0.549502  0.064538
0.965368  0.558898  0.062343
0.293229  0.286292  0.122527
0.333950  0.315344  0.123915
0.362080  0.344628  0.120597
0.391943  0.376069  0.108966
0.428684  0.410110  0.090806
0.475730  0.443448  0.073208
0.509265  0.475219  0.083676
0.545998  0.501691  0.078687
0.606200  0.528604  0.070872
0.664518  0.558998  0.079844
0.713091  0.573254  0.072343
0.772585  0.574854  0.072959
0.838351  0.597229  0.073070
0.906366  0.603632  0.067636
0.967358  0.613975  0.071482
0.322051  0.318262  0.126987
0.365363  0.362797  0.118474
0.407350  0.390431  0.117392
0.429225  0.413384  0.097626
0.466291  0.449103  0.096041
0.511899  0.491687  0.082737
0.550500  0.521798  0.087031
0.580045  0.544722  0.084647
0.623267  0.578412  0.086548
0.672361  0.593973  0.072905
0.728989  0.629664  0.071820
0.785671  0.648315  0.071187
0.847883  0.652891  0.068869
0.917064  0.667705  0.069249
0.975680  0.683987  0.072973
0.358948  0.365315  0.118264
0.384022  0.387117  0.120433
0.421194  0.429276  0.117008
0.464069  0.467194  0.103092
0.498558  0.488728  0.093054
0.542206  0.526181  0.087417
0.579331  0.559047  0.084353
0.620064  0.584180  0.081219
0.666218  0.603501  0.082505
0.703117  0.632048  0.086250
0.755430  0.664998  0.077818
0.797681  0.684568  0.077929
0.860947  0.709382  0.061868
0.918026  0.735650  0.073287
0.986205  0.717218  0.071382
0.390542  0.394150  0.118743
0.420348  0.429682  0.113344
0.462724  0.465761  0.095590
0.493752  0.497860  0.093358
0.536097  0.530975  0.093560
0.573988  0.564454  0.088624
0.604839  0.581434  0.083093
0.647854  0.611187  0.089541
0.682004  0.633831  0.086054
0.726461  0.658676  0.081006
0.782239  0.692141  0.074246
0.828431  0.719616  0.096436
0.876300  0.746132  0.078874
0.925728  0.765855  0.073797
0.989250  0.790945  0.068664
0.416955  0.443842  0.116859
0.464702  0.477156  0.086832
0.484993  0.495460  0.098573
0.527572  0.529828  0.093361
0.563412  0.558654  0.085499
0.598671  0.591583  0.088729
0.646815  0.624136  0.087418
0.682660  0.638814  0.085684
0.726067  0.669524  0.089176
0.764511  0.692243  0.091842
0.808967  0.723575  0.083149
0.862247  0.756895  0.079250
0.897726  0.771706  0.080932
0.965001  0.800888  0.087030
1.012821  0.821638  0.077873
0.445957  0.478334  0.107912
0.476618  0.505615  0.093452
0.524141  0.534827  0.089316
0.550541  0.563664  0.084710
0.599879  0.597526  0.075912
0.638088  0.614453  0.077846
0.672032  0.651060  0.092281
0.721425  0.676736  0.090110
0.759711  0.702825  0.087724
0.788833  0.722843  0.088525
0.843053  0.750587  0.083186
0.887565  0.772730  0.096201
0.937373  0.806784  0.089652
0.985697  0.830679  0.073809
1.033095  0.854516  0.077749
0.476958  0.514875  0.107648
0.519188  0.549946  0.091717
0.545399  0.569883  0.096546
0.591623  0.602993  0.086940
0.622720  0.625856  0.081861
0.668870  0.652794  0.091409
0.703662  0.673592  0.083780
0.754428  0.703818  0.079337
0.781378  0.724515  0.091691
0.817373  0.753291  0.093378
0.871906  0.782781  0.090348
0.907537  0.794973  0.085998
0.958394  0.832243  0.082283
1.013304  0.856790  0.079159
1.066755  0.889055  0.088170
0.068397  0.077891  0.050748
0.087625  0.091652  0.054574
0.107968  0.108023  0.062144
0.160048  0.138786  0.066599
0.211311  0.165638  0.056367
0.281171  0.185039  0.049597
0.340969  0.208827  0.046975
0.409964  0.227095  0.040685
0.480456  0.237521  0.035155
0.525839  0.250094  0.037736
0.600770  0.249793  0.029879
0.673051  0.262604  0.026165
0.730762  0.271950  0.026244
0.814364  0.284866  0.023983
0.880330  0.289772  0.022080
0.089483  0.104528  0.082626
0.100056  0.119621  0.088936
0.128607  0.136945  0.098124
0.166755  0.161755  0.091050
0.232552  0.195006  0.088442
0.298811  0.220379  0.066898
0.357377  0.233881  0.068581
0.413175  0.247447  0.055722
0.489277  0.275719  0.046611
0.550403  0.282786  0.045611
0.614899  0.297073  0.040015
0.678433  0.310022  0.031757
0.750546  0.327021  0.037301
0.822388  0.324290  0.026071
0.884425  0.330275  0.034595
0.095188  0.122210  0.108664
0.116709  0.139020  0.123819
0.140956  0.159254  0.122918
0.200058  0.183854  0.109720
0.240077  0.215652  0.108425
0.306402  0.243402  0.097805
0.376849  0.259341  0.083769
0.433687  0.281381  0.071909
0.495066  0.301648  0.075566
0.560000  0.322867  0.078285
0.620503  0.336539  0.057974
0.685068  0.341987  0.052641
0.762890  0.352102  0.044033
0.825080  0.370538  0.047495
0.884044  0.366824  0.035090
0.115570  0.148602  0.135656
0.141517  0.166082  0.138352
0.164604  0.187271  0.149902
0.214486  0.202370  0.136636
0.250578  0.230116  0.134491
0.327239  0.267568  0.122856
0.396824  0.295004  0.113314
0.438690  0.304215  0.100724
0.512911  0.331152  0.085780
0.575500  0.351063  0.094915
0.625925  0.355728  0.079693
0.690147  0.380144  0.077536
0.765348  0.387608  0.053010
0.828871  0.408633  0.050929
0.899618  0.420465  0.048983
0.139571  0.180343  0.166710
0.172734  0.199005  0.172574
0.206890  0.214541  0.160080
0.242830  0.234171  0.157415
0.297942  0.265913  0.145637
0.332493  0.284470  0.143429
0.402919  0.311544  0.138727
0.462186  0.344030  0.113476
0.518535  0.357889  0.112539
0.585367  0.377217  0.108609
0.646070  0.396302  0.103104
0.709898  0.416128  0.097900
0.782202  0.429213  0.090750
0.838660  0.446592  0.066585
0.915505  0.460990  0.072788
0.166947  0.200031  0.185070
0.199075  0.218974  0.179796
0.234433  0.245837  0.177295
0.279175  0.272277  0.172083
0.320289  0.295304  0.161361
0.370890  0.333156  0.163775
0.427945  0.350399  0.147915
0.486443  0.363888  0.137581
0.545736  0.384206  0.125765
0.602018  0.410338  0.129641
0.660901  0.429142  0.112467
0.721287  0.456165  0.118103
0.789022  0.458023  0.100749
0.865687  0.479849  0.094557
0.921788  0.488540  0.082558
0.202141  0.229343  0.192318
0.246481  0.252196  0.183422
0.291564  0.283592  0.181317
0.320036  0.301032  0.161861
0.360515  0.342107  0.157939
0.398734  0.363927  0.164453
0.453972  0.393677  0.146042
0.507624  0.405828  0.135123
0.556494  0.428412  0.130667
0.615629  0.453911  0.139624
0.680116  0.468799  0.131048
0.743991  0.475907  0.139617
0.808065  0.493937  0.125866
0.879935  0.515012  0.115252
0.937173  0.529579  0.098514
0.256177  0.263025  0.196782
0.282801  0.290499  0.195635
0.319196  0.313817  0.177303
0.359131  0.342072  0.170454
0.395977  0.378363  0.179079
0.423921  0.396118  0.164174
0.474722  0.439193  0.153476
0.534822  0.461062  0.134193
0.588309  0.473739  0.131129
0.645874  0.499725  0.132014
0.689768  0.509218  0.139876
0.750854  0.532915  0.138669
0.814531  0.542740  0.140207
0.896392  0.556936  0.120246
0.951355  0.566438  0.113079
0.277652  0.291711  0.198535
0.322795  0.331028  0.191287
0.351905  0.351161  0.176796
0.397162  0.384980  0.181088
0.425233  0.409822  0.179770
0.462895  0.442996  0.166532
0.502442  0.485374  0.156814
0.549677  0.516778  0.144950
0.602263  0.538216  0.121897
0.654524  0.551421  0.133761
0.716342  0.567535  0.137493
0.764434  0.584846  0.138549
0.833351  0.597761  0.140413
0.892013  0.606915  0.123365
0.965057  0.621421  0.124747
0.310736  0.326818  0.208406
0.358442  0.359949  0.183919
0.391087  0.391678  0.175211
0.416745  0.418739  0.187691
0.452842  0.448767  0.182836
0.493819  0.482171  0.167838
0.536975  0.520134  0.153425
0.578086  0.545492  0.145618
0.620148  0.584242  0.144647
0.679798  0.602740  0.135699
0.730794  0.626848  0.138355
0.785761  0.642713  0.140819
0.845908  0.653981  0.137003
0.903863  0.665473  0.138294
0.966799  0.669283  0.126876
0.352580  0.362380  0.193014
0.377994  0.400937  0.179145
0.417808  0.433148  0.185314
0.462465  0.455870  0.172206
0.490225  0.483801  0.163704
0.532036  0.518551  0.158827
0.561909  0.550853  0.162709
0.609860  0.576576  0.144117
0.656314  0.611529  0.131071
0.704917  0.635866  0.140624
0.745414  0.667184  0.140363
0.796426  0.689867  0.138724
0.847094  0.710557  0.137274
0.916258  0.717742  0.132949
0.995771  0.739046  0.129843
0.382981  0.403359  0.191662
0.413814  0.430369  0.186505
0.455928  0.472225  0.179998
0.491612  0.495289  0.172223
0.522634  0.525165  0.173530
0.565428  0.556000  0.168280
0.593728  0.575324  0.160067
0.638874  0.609396  0.144465
0.683935  0.643745  0.141204
0.741153  0.675444  0.133352
0.776846  0.698742  0.136790
0.821184  0.721220  0.142784
0.870938  0.750409  0.141881
0.931146  0.774152  0.139580
0.997638  0.788401  0.143543
0.412375  0.442189  0.187261
0.443578  0.471153  0.176058
0.482335  0.495686  0.164642
0.513949  0.529889  0.183364
0.549467  0.551552  0.170016
0.601827  0.593456  0.164523
0.627430  0.618845  0.150567
0.675810  0.643297  0.140620
0.718241  0.668259  0.140125
0.761138  0.701003  0.144945
0.805990  0.719035  0.150390
0.852449  0.748809  0.138733
0.904180  0.783440  0.137081
0.952825  0.799397  0.150752
1.006169  0.818912  0.126552
0.444528  0.473795  0.191217
0.480227  0.499657  0.170243
0.508100  0.534680  0.184267
0.546761  0.558801  0.157145
0.583227  0.592691  0.162174
0.634915  0.623959  0.161347
0.671595  0.643537  0.148660
0.717191  0.680449  0.152030
0.751871  0.692932  0.143084
0.790916  0.726311  0.131759
0.834683  0.754182  0.145594
0.887570  0.781471  0.134345
0.931469  0.808448  0.143874
0.982311  0.836385  0.142760
1.027520  0.865100  0.155851
0.461538  0.499928  0.191605
0.512716  0.542580  0.181267
0.544100  0.580684  0.168526
0.581326  0.592360  0.158618
0.621550  0.627450  0.158498
0.659322  0.648080  0.157994
0.695076  0.675423  0.144022
0.743546  0.699311  0.143521
0.780998  0.731749  0.143432
0.827245  0.763755  0.156200
0.870453  0.778008  0.143338
0.913002  0.806126  0.145936
0.952888  0.831806  0.150375
1.009648  0.867768  0.143407
1.052547  0.879813  0.147176
0.082855  0.110200  0.095986
0.091405  0.121862  0.107094
0.122778  0.140963  0.123979
0.156109  0.162854  0.118895
0.209199  0.185691  0.100705
0.277724  0.204115  0.085715
0.351832  0.227132  0.080995
0.413248  0.241647  0.072257
0.462535  0.244061  0.071728
0.532807  0.263443  0.064463
0.593134  0.272496  0.072228
0.660658  0.282692  0.063259
0.728006  0.293190  0.056650
0.807391  0.287519  0.044610
0.875092  0.299213  0.056143
0.097893  0.126898  0.118618
0.112334  0.142872  0.139060
0.131751  0.159719  0.146786
0.167751  0.181497  0.140019
0.225315  0.206575  0.137634
0.289509  0.231064  0.117703
0.357808  0.255613  0.101749
0.426787  0.278993  0.103328
0.475232  0.287768  0.091494
0.541788  0.304254  0.086955
0.606603  0.319678  0.086683
0.669430  0.324395  0.077322
0.739402  0.345502  0.077105
0.806487  0.339412  0.064062
0.883697  0.338507  0.057058
0.113766  0.150422  0.143569
0.135727  0.169121  0.168815
0.154831  0.192011  0.178862
0.187278  0.209379  0.185972
0.239450  0.233228  0.161840
0.301386  0.254665  0.145920
0.370138  0.281677  0.131196
0.427635  0.295193  0.129195
0.490343  0.310719  0.117238
0.555141  0.337641  0.102717
0.616805  0.351470  0.112933
0.681531  0.360151  0.087743
0.743895  0.368725  0.094605
0.808522  0.376190  0.088365
0.896541  0.392016  0.077121
0.128543  0.175948  0.178240
0.143331  0.190242  0.196469
0.159784  0.207852  0.206542
0.197234  0.229171  0.212013
0.262164  0.265858  0.205742
0.317364  0.285735  0.172455
0.388637  0.316038  0.166400
0.441924  0.326474  0.154277
0.508386  0.344258  0.145927
0.573464  0.365755  0.130748
0.624678  0.379891  0.129527
0.687119  0.401544  0.125724
0.768640  0.415981  0.116087
0.822319  0.425225  0.103725
0.890092  0.438777  0.110466
0.148970  0.202438  0.217330
0.174374  0.224183  0.231081
0.195466  0.233295  0.218744
0.230896  0.259551  0.227918
0.283532  0.279013  0.211592
0.335043  0.309934  0.201172
0.386326  0.330327  0.185541
0.463203  0.350801  0.173918
0.512226  0.368991  0.169150
0.587451  0.392473  0.144491
0.639432  0.404701  0.149312
0.702433  0.431324  0.149449
0.762215  0.449430  0.143977
0.840048  0.461479  0.139140
0.910399  0.481114  0.123728
0.165715  0.224185  0.234814
0.191846  0.239470  0.234471
0.223994  0.266791  0.246343
0.256310  0.278663  0.240203
0.308015  0.308993  0.238756
0.357114  0.334615  0.220301
0.424100  0.365221  0.193997
0.468446  0.383578  0.205758
0.537390  0.398588  0.191949
0.577858  0.418989  0.177778
0.668054  0.437825  0.174151
0.717492  0.468612  0.173322
0.788021  0.472712  0.158081
0.845137  0.496661  0.150711
0.908573  0.513901  0.151101
0.196123  0.247695  0.252473
0.232712  0.269773  0.249444
0.264095  0.292429  0.247242
0.303910  0.313497  0.245215
0.341890  0.336909  0.234366
0.395752  0.375125  0.228210
0.440448  0.394049  0.210710
0.496736  0.424173  0.220986
0.550413  0.442719  0.205092
0.611854  0.453664  0.190555
0.677259  0.473244  0.190934
0.743290  0.499793  0.181066
0.795342  0.506684  0.183312
0.856735  0.528438  0.176507
0.933571  0.549026  0.169626
0.215691  0.277946  0.272111
0.272196  0.302194  0.260801
0.316248  0.331147  0.259567
0.344562  0.349155  0.259391
0.383493  0.384572  0.243808
0.431705  0.406995  0.212493
0.468642  0.450734  0.225008
0.520876  0.465334  0.220803
0.571008  0.480341  0.225651
0.636931  0.499522  0.207999
0.692527  0.533828  0.191035
0.760030  0.539218  0.200117
0.822008  0.555416  0.191450
0.872648  0.562527  0.190450
0.938129  0.581893  0.185002
0.267229  0.302681  0.264255
0.301790  0.322519  0.268954
0.342330  0.351630  0.264601
0.374306  0.383196  0.251810
0.421241  0.415938  0.241950
0.454711  0.454527  0.233072
0.495828  0.481429  0.223747
0.531280  0.505381  0.224312
0.591245  0.526224  0.226126
0.662907  0.547046  0.205667
0.723239  0.567101  0.192359
0.780660  0.586196  0.207580
0.819024  0.596126  0.206938
0.897230  0.619808  0.208664
0.964448  0.621220  0.202537
0.293972  0.332425  0.275880
0.336554  0.361996  0.264915
0.382571  0.400319  0.268095
0.413334  0.413644  0.249769
0.457298  0.460585  0.232799
0.493330  0.482643  0.235499
0.521324  0.513844  0.242755
0.568073  0.553513  0.223678
0.620480  0.581137  0.216079
0.672179  0.601878  0.213093
0.737424  0.620608  0.207085
0.788206  0.645376  0.207008
0.834521  0.647011  0.200036
0.917857  0.672945  0.204270
