LUT/LUT_10.CUBE
TITLE "LUT_10" 
#LUT size 
LUT_3D_SIZE 15 
DOMAIN_MIN 0.0 0.0 0.0 
DOMAIN_MAX 1.0 1.0 1.0 
#data point 
0.037560  0.035551  0.015642
0.057894  0.058873  0.026961
0.096633  0.086182  0.039402
0.143553  0.119408  0.050730
0.213193  0.155511  0.045768
0.267790  0.180286  0.033679
0.344513  0.204201  0.029413
0.397809  0.214532  0.027399
0.461796  0.238773  0.023750
0.532496  0.258616  0.023572
0.591049  0.268414  0.020516
0.639967  0.280857  0.021205
0.725525  0.295047  0.020741
0.779536  0.302308  0.016540
0.855049  0.311749  0.008377
0.058857  0.055229  0.021082
0.081624  0.074962  0.031966
0.106556  0.097824  0.045949
0.170990  0.139791  0.055714
0.220758  0.171155  0.046323
0.290342  0.200546  0.039385
0.354379  0.228613  0.041594
0.410970  0.244098  0.036577
0.475633  0.261129  0.033928
0.525179  0.273301  0.027754
0.597989  0.297096  0.031805
0.669953  0.321259  0.034861
0.737898  0.325043  0.021652
0.796644  0.333376  0.024096
0.862545  0.349872  0.019190
0.093526  0.087898  0.042518
0.101505  0.097009  0.047644
0.136949  0.122213  0.053696
0.188646  0.154989  0.056075
0.261715  0.196724  0.050787
0.308266  0.215894  0.046563
0.370423  0.245454  0.044042
0.426873  0.263020  0.041984
0.489940  0.291374  0.046375
0.552460  0.298339  0.037359
0.608044  0.320695  0.034603
0.681783  0.348109  0.028093
0.750349  0.364546  0.029907
0.809310  0.373960  0.029960
0.875789  0.386728  0.028219
0.118005  0.117233  0.062257
0.136072  0.120796  0.063094
0.175913  0.154356  0.063070
0.226370  0.183712  0.063653
0.286883  0.226905  0.062926
0.338594  0.242405  0.049704
0.394790  0.261400  0.050969
0.457101  0.288650  0.044504
0.512653  0.310814  0.044160
0.570763  0.327689  0.039181
0.624856  0.355155  0.037264
0.691459  0.366441  0.037948
0.762112  0.385215  0.036199
0.820724  0.394981  0.034038
0.893482  0.420996  0.034431
0.147761  0.133877  0.071458
0.185141  0.152832  0.073248
0.224819  0.187713  0.077349
0.259306  0.210158  0.063673
0.309132  0.246532  0.059134
0.362059  0.279764  0.067244
0.410289  0.296321  0.059689
0.472325  0.326610  0.047162
0.534361  0.340580  0.049855
0.597501  0.356449  0.040044
0.640359  0.386299  0.048627
0.721866  0.407571  0.041126
0.779012  0.407900  0.045742
0.841309  0.431522  0.038397
0.904947  0.452847  0.046144
0.191556  0.172787  0.087312
0.222492  0.183265  0.075676
0.259087  0.221073  0.074914
0.307801  0.256524  0.057564
0.341376  0.284284  0.055617
0.379558  0.304036  0.058968
0.443913  0.343524  0.056343
0.491220  0.362651  0.054775
0.542194  0.370791  0.050062
0.596184  0.389865  0.045130
0.667530  0.414166  0.045183
0.725404  0.433407  0.053290
0.797248  0.446355  0.042806
0.858785  0.464694  0.054634
0.914457  0.484956  0.051211
0.231663  0.202017  0.080852
0.267840  0.227962  0.078025
0.306382  0.257166  0.065658
0.346543  0.301539  0.064646
0.374383  0.322068  0.061196
0.416197  0.358193  0.061469
0.458977  0.379097  0.058471
0.516840  0.409602  0.058444
0.565038  0.419730  0.054981
0.622359  0.456214  0.049657
0.677872  0.469933  0.046647
0.733592  0.474434  0.051845
0.802177  0.485637  0.044606
0.866127  0.494857  0.053644
0.937211  0.509884  0.051764
0.276206  0.243772  0.092755
0.305110  0.271311  0.069717
0.335617  0.293238  0.061575
0.379272  0.329003  0.060989
0.414471  0.371671  0.063392
0.453907  0.399226  0.055471
0.480624  0.424913  0.055461
0.522301  0.449539  0.049792
0.588129  0.477198  0.048221
0.638707  0.502769  0.051129
0.702087  0.514712  0.052910
0.751036  0.539561  0.059174
0.816006  0.546126  0.057990
0.886109  0.560190  0.058041
0.954765  0.574912  0.059317
0.297170  0.271168  0.087520
0.346207  0.315920  0.076639
0.376702  0.341481  0.064538
0.402164  0.365295  0.062522
0.448491  0.409835  0.064453
0.472682  0.432184  0.058969
0.524848  0.466314  0.059633
0.561570  0.498612  0.066122
0.608137  0.521551  0.056598
0.656218  0.544986  0.052670
0.705079  0.569080  0.054410
0.766308  0.574458  0.058387
0.831944  0.591009  0.053467
0.890162  0.613029  0.058874
0.951338  0.626824  0.062672
0.352461  0.318268  0.082538
0.377013  0.344564  0.073039
0.408453  0.379954  0.062224
0.448402  0.401273  0.062443
0.475693  0.444158  0.067114
0.513893  0.462743  0.060569
0.558131  0.501401  0.056437
0.594227  0.532013  0.062609
0.635547  0.562492  0.057823
0.676684  0.591501  0.055022
0.728848  0.621131  0.053187
0.783875  0.638462  0.052002
0.834686  0.652070  0.058005
0.901956  0.659038  0.058161
0.964709  0.685027  0.062776
0.368145  0.348896  0.074796
0.406607  0.376869  0.069344
0.445574  0.414398  0.062892
0.469425  0.448304  0.068863
0.529291  0.484001  0.064322
0.549003  0.516881  0.062492
0.587761  0.538415  0.068031
0.634176  0.566878  0.057804
0.679143  0.604289  0.053362
0.704579  0.626795  0.059404
0.759158  0.660556  0.062354
0.803639  0.677361  0.056351
0.856819  0.705270  0.061667
0.911291  0.729954  0.055145
0.973097  0.733391  0.067597
0.407331  0.392557  0.069745
0.436914  0.415906  0.065683
0.471249  0.447545  0.067414
0.502896  0.472168  0.057772
0.548508  0.516675  0.062884
0.593929  0.542482  0.057298
0.615863  0.567115  0.053660
0.657053  0.593526  0.054014
0.704458  0.627808  0.061972
0.744096  0.654583  0.057713
0.781904  0.684835  0.057552
0.838096  0.712158  0.066621
0.887779  0.738420  0.058320
0.945340  0.769772  0.061621
0.992038  0.789438  0.061447
0.432667  0.424650  0.073992
0.470261  0.455216  0.063007
0.503996  0.487672  0.059650
0.539580  0.514539  0.056002
0.579066  0.552664  0.054987
0.610413  0.579384  0.066374
0.649412  0.606003  0.058599
0.690357  0.632641  0.062043
0.738172  0.659708  0.060506
0.772351  0.676690  0.063675
0.814738  0.712920  0.064754
0.861359  0.741376  0.062056
0.903268  0.762854  0.065559
0.949903  0.793727  0.058182
1.019554  0.814845  0.066899
0.469749  0.469609  0.056460
0.506683  0.501479  0.061798
0.546386  0.528261  0.062950
0.580782  0.553523  0.062354
0.609609  0.582718  0.064602
0.647530  0.606987  0.051206
0.683526  0.627855  0.061632
0.731062  0.665613  0.058249
0.759295  0.681156  0.062541
0.800812  0.705787  0.063799
0.839449  0.737632  0.062007
0.899417  0.763109  0.062243
0.937860  0.789019  0.065854
0.986769  0.815362  0.067349
1.033720  0.836899  0.060946
0.494393  0.498539  0.063679
0.526755  0.526671  0.064797
0.565596  0.554424  0.063946
0.616180  0.585426  0.061272
0.645666  0.610266  0.065797
0.674778  0.632120  0.061388
0.712728  0.663017  0.066359
0.755965  0.683311  0.059307
0.788179  0.710381  0.060739
0.835969  0.737123  0.066556
0.874688  0.763337  0.062848
0.924737  0.785554  0.068504
0.966851  0.816878  0.069601
1.024850  0.847677  0.064963
1.074751  0.867245  0.065430
0.051749  0.053014  0.025511
0.065825  0.064850  0.031609
0.102128  0.093871  0.043733
0.133637  0.114935  0.045987
0.197782  0.154862  0.049915
0.272775  0.183346  0.035940
0.348765  0.206661  0.033480
0.398118  0.219407  0.031292
0.474217  0.244586  0.025898
0.517608  0.249535  0.023480
0.585543  0.274419  0.022846
0.655719  0.287191  0.022564
0.729188  0.303261  0.020229
0.778031  0.305898  0.012960
0.846974  0.305748  0.011224
0.072913  0.076345  0.041318
0.087290  0.084579  0.040183
0.114400  0.106185  0.049240
0.169525  0.145072  0.059399
0.233728  0.181677  0.058190
0.294119  0.209286  0.047710
0.355972  0.222656  0.035558
0.410708  0.249095  0.037890
0.478837  0.266362  0.029548
0.539345  0.283258  0.035312
0.597990  0.302079  0.026504
0.663829  0.319801  0.029188
0.724711  0.331653  0.030861
0.798923  0.341981  0.022813
0.853561  0.363419  0.024698
0.092516  0.090328  0.059259
0.105221  0.102983  0.057518
0.146326  0.136866  0.072794
0.191929  0.167926  0.071959
0.243626  0.197585  0.067200
0.314498  0.229817  0.057173
0.369125  0.250016  0.049275
0.429185  0.269180  0.045012
0.484936  0.291680  0.036857
0.545402  0.309717  0.040742
0.613854  0.333172  0.035666
0.681244  0.346242  0.033680
0.754737  0.362987  0.031812
0.808135  0.381301  0.033353
0.880127  0.396522  0.028116
0.118234  0.124763  0.085510
0.144866  0.138410  0.078296
0.184343  0.167321  0.086117
0.208941  0.191499  0.094728
0.276447  0.212410  0.079442
0.332112  0.252796  0.067959
0.381375  0.273374  0.068137
0.446692  0.304306  0.062352
0.508334  0.318247  0.051244
0.566495  0.332410  0.052897
0.635788  0.352921  0.049567
0.692807  0.384042  0.047724
0.751289  0.384183  0.038511
0.819803  0.409644  0.040585
0.886737  0.429468  0.040477
0.151756  0.148087  0.094987
0.184825  0.166214  0.092765
0.213476  0.187315  0.095127
0.257303  0.217962  0.093943
0.305819  0.250703  0.094053
0.350844  0.275521  0.083532
0.408254  0.307497  0.072521
0.457388  0.319109  0.066527
0.521450  0.343983  0.074983
0.579240  0.368346  0.069218
0.634868  0.384594  0.048140
0.706803  0.405394  0.047395
0.765963  0.420522  0.050021
0.829865  0.437972  0.046166
0.897726  0.456593  0.045984
0.184443  0.178468  0.103641
0.223586  0.201935  0.101607
0.268768  0.238273  0.119528
0.292894  0.255199  0.112034
0.341482  0.288971  0.082828
0.383902  0.315371  0.086122
0.446394  0.346108  0.080155
0.477281  0.361911  0.094418
0.535064  0.388389  0.076454
0.591420  0.405061  0.075889
0.662697  0.419737  0.069067
0.723308  0.444718  0.056824
0.784801  0.455712  0.052425
0.860953  0.472592  0.058101
0.923811  0.495634  0.054610
0.234254  0.216725  0.133550
0.272553  0.241565  0.111733
0.296118  0.266818  0.116086
0.329325  0.291406  0.120064
0.376577  0.324702  0.094335
0.417117  0.364516  0.082662
0.454316  0.389858  0.077588
0.514746  0.409934  0.085851
0.560673  0.428129  0.077350
0.618196  0.435051  0.075615
0.681894  0.464284  0.073574
0.742306  0.477605  0.060680
0.804381  0.499351  0.066297
0.886088  0.505027  0.060263
0.940788  0.526773  0.061009
0.266678  0.248668  0.128276
0.294374  0.272169  0.119477
0.336915  0.305399  0.123705
0.367089  0.333002  0.108977
0.411831  0.364482  0.084831
0.446564  0.397372  0.088596
0.494384  0.436405  0.077153
0.539384  0.461125  0.077747
0.585153  0.481163  0.077913
0.628121  0.496431  0.075177
0.690443  0.510855  0.071300
0.754238  0.533752  0.065313
0.817864  0.545226  0.063173
0.881337  0.559885  0.069223
0.956433  0.567076  0.060881
0.299763  0.277762  0.124543
0.338555  0.304305  0.125322
0.367601  0.333627  0.124325
0.396041  0.368100  0.113361
0.435470  0.397973  0.095700
0.482273  0.434510  0.076638
0.516419  0.465899  0.086773
0.553655  0.493254  0.075200
0.608059  0.529496  0.072794
0.666127  0.557734  0.080766
0.714315  0.570791  0.078285
0.767812  0.577169  0.074603
0.834965  0.603915  0.073487
0.902996  0.614834  0.075929
0.956749  0.620666  0.068306
0.329733  0.304636  0.130102
0.378983  0.352395  0.120943
0.417555  0.380475  0.114699
0.438344  0.400677  0.097225
0.476037  0.441142  0.100170
0.523543  0.483862  0.083580
0.557981  0.511136  0.085916
0.587705  0.536125  0.085283
0.628030  0.568563  0.087257
0.678458  0.595819  0.075890
0.731332  0.629315  0.072887
0.783835  0.644417  0.070496
0.841171  0.652453  0.069179
0.912913  0.670185  0.074006
0.972345  0.689998  0.073800
0.364210  0.349992  0.125384
0.390286  0.368793  0.124225
0.431269  0.410759  0.116534
0.476075  0.456524  0.103303
0.515206  0.480929  0.094254
0.553463  0.515544  0.090460
0.583022  0.546501  0.087907
0.627076  0.574938  0.078672
0.673453  0.595646  0.089040
0.713389  0.624682  0.087111
0.761084  0.653497  0.078945
0.805738  0.681295  0.079743
0.863190  0.707670  0.063078
0.918476  0.736108  0.076675
0.980162  0.717023  0.075628
0.397141  0.381908  0.121875
0.433216  0.417955  0.114907
0.472176  0.453470  0.106387
0.501223  0.482318  0.092157
0.546535  0.520046  0.092327
0.584510  0.554796  0.087695
0.615804  0.571824  0.086335
0.658225  0.595607  0.095964
0.691192  0.627617  0.088217
0.734220  0.647322  0.084913
0.781343  0.681161  0.072804
0.830030  0.711904  0.095880
0.877319  0.741929  0.077132
0.930504  0.764012  0.074867
0.993899  0.790253  0.069075
0.434792  0.426659  0.117180
0.477323  0.463139  0.086702
0.497935  0.481320  0.095453
0.543000  0.521818  0.093048
0.574916  0.548091  0.089442
0.606829  0.575970  0.092827
0.659467  0.611988  0.090348
0.691084  0.625652  0.085559
0.739151  0.661358  0.093955
0.770271  0.679838  0.096285
0.817208  0.711624  0.085960
0.870148  0.747091  0.085744
0.899971  0.763479  0.080475
0.966771  0.794697  0.087303
1.014878  0.817261  0.080310
0.458432  0.460728  0.113098
0.489643  0.486382  0.095884
0.542024  0.520106  0.086651
0.566335  0.545517  0.087644
0.611703  0.585685  0.077257
0.649779  0.601804  0.077055
0.682091  0.639554  0.095643
0.729455  0.662908  0.091478
0.768652  0.691789  0.085234
0.799125  0.709014  0.094371
0.848413  0.741573  0.087105
0.894027  0.764326  0.095813
0.944397  0.794019  0.089608
0.987096  0.819941  0.076780
1.032236  0.845527  0.078232
0.497310  0.500624  0.113814
0.534504  0.530986  0.092029
0.558696  0.553730  0.096284
0.602600  0.578443  0.086118
0.636654  0.607760  0.083281
0.684327  0.638427  0.095038
0.717218  0.660969  0.084281
0.764261  0.686795  0.080319
0.788836  0.710724  0.093153
0.831254  0.737914  0.097301
0.879014  0.768495  0.089620
0.913269  0.781860  0.089038
0.967499  0.818433  0.083657
1.016928  0.843379  0.084143
1.070865  0.879912  0.092998
0.072831  0.077124  0.047254
0.095881  0.092442  0.053317
0.114503  0.110795  0.057766
0.155951  0.139594  0.066877
0.208214  0.168703  0.063109
0.278637  0.196188  0.054815
0.328276  0.221800  0.046521
0.402384  0.246504  0.043971
0.467028  0.258683  0.040621
0.515304  0.269023  0.036510
0.579407  0.274054  0.034152
0.652136  0.297380  0.031853
0.708159  0.308679  0.028097
0.794094  0.324511  0.024998
0.855602  0.324482  0.029103
0.095328  0.105635  0.079882
0.106351  0.119171  0.084441
0.132165  0.136050  0.093911
0.166847  0.158754  0.099679
0.227879  0.198314  0.092343
0.294831  0.223982  0.069977
0.349576  0.245861  0.065557
0.403985  0.262280  0.062040
0.481849  0.282115  0.053200
0.539388  0.300126  0.046304
0.597040  0.318027  0.042059
0.662200  0.332714  0.038098
0.727389  0.349774  0.041004
0.802526  0.360219  0.029639
0.862922  0.369056  0.035076
0.102098  0.123922  0.102549
0.120663  0.144140  0.120148
0.147503  0.154257  0.123413
0.193965  0.182018  0.109290
0.239452  0.211964  0.110765
0.307355  0.247477  0.100498
0.370642  0.270148  0.085909
0.424292  0.287948  0.069076
0.483637  0.314688  0.075115
0.548424  0.328549  0.080885
0.607636  0.350685  0.055653
0.668730  0.365237  0.047900
0.743829  0.374677  0.045620
0.807870  0.396317  0.044368
0.867427  0.397933  0.036791
0.119558  0.151030  0.129962
0.148576  0.163887  0.137258
0.169557  0.185118  0.154304
0.205738  0.201389  0.134453
0.247751  0.229355  0.138521
0.324805  0.267483  0.120862
0.392568  0.293877  0.107821
0.433866  0.314772  0.097985
0.506564  0.342069  0.080335
0.568398  0.359277  0.095005
0.614865  0.373316  0.076931
0.679143  0.394666  0.073167
0.751791  0.403049  0.055518
0.813844  0.425200  0.052120
0.881551  0.440921  0.049928
0.143508  0.174477  0.162087
0.173982  0.199622  0.178184
0.209787  0.213337  0.155764
0.238841  0.231427  0.152606
0.298278  0.266748  0.145034
0.331063  0.286234  0.143325
0.404051  0.307596  0.138403
0.465791  0.346800  0.114585
0.515755  0.364985  0.111277
0.574923  0.381348  0.103395
0.639797  0.408069  0.101864
0.705229  0.429717  0.094522
0.770597  0.442595  0.085666
0.826874  0.461442  0.066632
0.901191  0.477327  0.065191
0.165133  0.201380  0.188077
0.203237  0.215988  0.176767
0.239730  0.246459  0.179611
0.275530  0.266874  0.171395
0.322472  0.290607  0.161526
0.371472  0.330078  0.163229
0.430322  0.350207  0.141297
0.486218  0.369679  0.138458
0.543592  0.391389  0.122117
0.595928  0.417143  0.126749
0.654266  0.437549  0.105742
0.717843  0.464112  0.120870
0.779818  0.467551  0.092376
0.850075  0.494141  0.091432
0.907355  0.501007  0.084537
0.201287  0.228889  0.192532
0.242630  0.246326  0.183969
0.289913  0.278741  0.183837
0.322254  0.302239  0.168618
0.364793  0.333551  0.161843
0.400226  0.358684  0.162715
0.454721  0.386310  0.143816
0.507427  0.407932  0.142225
0.552770  0.427724  0.131325
0.612676  0.452393  0.135895
0.672863  0.476296  0.130063
0.734620  0.483950  0.137504
0.799235  0.501277  0.124988
0.870007  0.528030  0.114404
0.926713  0.545596  0.096619
0.257795  0.263661  0.196727
0.285695  0.279016  0.201832
0.321069  0.306227  0.183817
0.357949  0.333708  0.171074
0.401992  0.372997  0.183102
0.427821  0.390056  0.163938
0.479425  0.433019  0.154093
0.532567  0.455444  0.138034
0.589526  0.470209  0.135147
0.647755  0.501192  0.127373
0.683849  0.519353  0.137223
0.744389  0.540555  0.144484
0.804580  0.548546  0.134853
0.888744  0.565136  0.116477
0.939502  0.579120  0.114907
0.278613  0.285898  0.201259
0.325339  0.317493  0.199476
0.353823  0.342894  0.175207
0.404437  0.377957  0.183635
0.430419  0.399973  0.185054
0.468972  0.430335  0.173122
0.511844  0.475176  0.155338
0.553727  0.503732  0.144625
0.606779  0.531685  0.117777
0.655382  0.546070  0.130561
0.715286  0.565053  0.137138
0.757939  0.587722  0.138190
0.827915  0.602899  0.137889
0.888615  0.611776  0.122903
0.963219  0.628385  0.126484
0.312276  0.310481  0.207440
0.360884  0.352535  0.189312
0.400844  0.382161  0.183706
0.422422  0.404102  0.190742
0.456266  0.437444  0.183109
0.501553  0.475483  0.164597
0.547871  0.509755  0.156044
0.585948  0.536077  0.143929
0.626929  0.577415  0.141695
0.683204  0.595883  0.133134
0.734757  0.619936  0.140463
0.782656  0.640483  0.140281
0.840810  0.652460  0.132765
0.896567  0.670193  0.134144
0.955980  0.677111  0.124956
0.357511  0.348849  0.200536
0.388674  0.390638  0.179213
0.423835  0.419669  0.191854
0.470385  0.446755  0.172907
0.498552  0.476265  0.166111
0.535433  0.503010  0.157733
0.569285  0.541884  0.166953
0.623523  0.571555  0.146512
0.666820  0.606209  0.133510
0.711472  0.627983  0.143236
0.754358  0.659441  0.139133
0.798841  0.683700  0.138840
0.852155  0.708405  0.135288
0.910451  0.715740  0.130426
0.992245  0.743596  0.130074
0.392207  0.388581  0.192093
0.420313  0.416108  0.190645
0.466598  0.455892  0.188994
0.506347  0.483105  0.173928
0.537353  0.513306  0.173919
0.578169  0.543492  0.169821
0.601672  0.560939  0.158501
0.647385  0.603342  0.141321
0.691116  0.634079  0.143622
0.751670  0.665817  0.132078
0.782739  0.688061  0.139215
0.828719  0.714561  0.142429
0.871882  0.743643  0.143800
0.932356  0.771775  0.137748
0.991633  0.786942  0.143244
0.427567  0.424925  0.191090
0.451698  0.457367  0.179640
0.491651  0.479231  0.166139
0.522121  0.516051  0.183373
0.556912  0.539381  0.171029
0.614924  0.579638  0.160451
0.635269  0.607839  0.145766
0.687046  0.633137  0.140135
0.730823  0.661079  0.139714
0.770467  0.692203  0.143309
0.811097  0.713245  0.152597
0.852058  0.744165  0.135180
0.907996  0.774751  0.136453
0.961782  0.793447  0.147913
1.005500  0.818383  0.127258
0.454948  0.458689  0.195872
0.488701  0.484101  0.167757
0.517170  0.518933  0.188121
0.556375  0.539325  0.159424
0.595634  0.580211  0.159706
0.648427  0.612875  0.158097
0.678809  0.631717  0.144389
0.730966  0.669370  0.146760
0.756821  0.684452  0.140992
0.796854  0.716013  0.130968
0.839701  0.744391  0.141495
0.899662  0.769199  0.132952
0.932708  0.799940  0.139856
0.987387  0.823245  0.142504
1.028491  0.852170  0.156514
0.477890  0.486598  0.192023
0.522834  0.527158  0.185310
0.558273  0.564769  0.170795
0.588683  0.577115  0.155781
0.637720  0.611738  0.155075
0.671664  0.635192  0.151129
0.709248  0.662254  0.141399
0.753918  0.686106  0.143197
0.794210  0.722966  0.145084
0.837183  0.748603  0.157591
0.875841  0.767282  0.141879
0.918113  0.791058  0.147660
0.957676  0.819903  0.147861
1.014784  0.851863  0.146073
1.059471  0.870899  0.147910
0.092640  0.113732  0.088217
0.097369  0.122356  0.104225
0.125350  0.143440  0.117600
0.156248  0.163451  0.117422
0.204496  0.183978  0.099270
0.272600  0.209398  0.083295
0.347592  0.240123  0.084120
0.410017  0.256018  0.070629
0.444415  0.260585  0.066378
0.518369  0.286462  0.060420
0.572538  0.305286  0.063750
0.643830  0.309659  0.061421
0.701900  0.328707  0.049263
0.789183  0.326589  0.039256
0.852013  0.338493  0.042879
0.105932  0.131001  0.110178
0.122382  0.149278  0.141050
0.134327  0.162316  0.144300
0.170007  0.180220  0.139827
0.224701  0.207789  0.136509
0.281463  0.231980  0.121918
0.354734  0.267637  0.105037
0.419145  0.285777  0.103780
0.464542  0.293557  0.088856
0.530673  0.314950  0.080606
0.586988  0.336491  0.079936
0.653318  0.345086  0.071978
0.724408  0.370046  0.069775
0.788670  0.371704  0.050984
0.859950  0.379550  0.047308
0.122441  0.153895  0.141770
0.138768  0.173425  0.166377
0.161381  0.195710  0.178058
0.186243  0.212656  0.187518
0.236981  0.231159  0.160084
0.299612  0.258255  0.140958
0.365467  0.286553  0.133362
0.419917  0.303328  0.126278
0.479676  0.319712  0.108944
0.548039  0.347994  0.101992
0.608066  0.367917  0.110995
0.667627  0.375659  0.083008
0.724618  0.387681  0.091463
0.793154  0.405398  0.079317
0.880740  0.425632  0.070594
0.135271  0.177102  0.176579
0.150501  0.190696  0.189285
0.163290  0.212038  0.203823
0.198878  0.229158  0.207166
0.258625  0.266899  0.202435
0.316897  0.285852  0.173894
0.387922  0.320806  0.163017
0.436124  0.328237  0.148548
0.503438  0.353843  0.135377
0.567693  0.375601  0.129637
0.614848  0.389931  0.128072
0.674314  0.411367  0.124513
0.756128  0.431524  0.113811
0.807229  0.443025  0.094965
0.877346  0.460204  0.109176
0.151229  0.206478  0.211400
0.173796  0.223062  0.224554
0.191587  0.230479  0.212961
0.236694  0.262833  0.229923
0.281047  0.283597  0.206718
0.334006  0.310538  0.196930
0.383134  0.329841  0.185949
0.457431  0.354116  0.175796
0.507905  0.376199  0.163295
0.578844  0.399349  0.136445
0.634234  0.416260  0.145853
0.688951  0.442180  0.143312
0.747056  0.464721  0.142416
0.829106  0.473953  0.134512
0.899676  0.501418  0.117139
0.175419  0.225138  0.230099
0.193079  0.241521  0.237266
0.225023  0.266872  0.243801
0.253639  0.280922  0.238746
0.307321  0.310760  0.236416
0.354636  0.333937  0.218090
0.423539  0.361937  0.189095
0.465457  0.385868  0.206071
0.527132  0.404508  0.189652
0.571507  0.421564  0.173059
0.658357  0.444998  0.167119
0.704586  0.476233  0.165451
0.779463  0.485054  0.152610
0.838466  0.510135  0.147806
0.893102  0.528318  0.145939
0.199300  0.250211  0.249876
0.226367  0.270603  0.245615
0.259408  0.288668  0.250095
0.301748  0.309292  0.253345
0.341390  0.335671  0.234736
0.397049  0.373434  0.231346
0.441943  0.393504  0.210738
0.497199  0.423299  0.225955
0.549936  0.444911  0.203399
0.609887  0.455234  0.184559
0.670519  0.476315  0.184399
0.735503  0.508146  0.172604
0.783354  0.520563  0.182695
0.845768  0.538834  0.173280
0.922184  0.560210  0.164558
0.218956  0.273197  0.270861
0.269262  0.303165  0.260754
0.320479  0.329681  0.265509
0.342965  0.345986  0.259378
0.382376  0.376242  0.251541
0.430667  0.399128  0.212234
0.475986  0.444235  0.224501
0.525946  0.463357  0.225584
0.568247  0.477316  0.227349
0.637849  0.506014  0.207986
0.694773  0.540008  0.186403
0.752641  0.542067  0.197076
0.815676  0.565042  0.187832
0.860659  0.575929  0.187999
0.928536  0.594897  0.185424
0.269333  0.306038  0.264313
0.301757  0.324289  0.269303
0.343055  0.349568  0.273179
0.377698  0.375654  0.252370
0.425156  0.408282  0.245021
0.457683  0.444493  0.236435
0.497173  0.472294  0.229154
0.539905  0.497947  0.225424
0.592670  0.515010  0.228401
0.663735  0.548946  0.207522
0.721197  0.569953  0.187877
0.782266  0.589122  0.205375
0.814341  0.598613  0.199316
0.886200  0.626269  0.206666
0.956566  0.634868  0.203433
0.290420  0.328092  0.282051
0.337522  0.356250  0.269910
0.385652  0.395670  0.273282
0.418470  0.402965  0.254537
0.465021  0.452264  0.235516
0.496537  0.473767  0.237400
0.530405  0.503321  0.247037
0.569785  0.540530  0.224423
0.628986  0.572880  0.217470
0.672381  0.590212  0.209357
0.737474  0.619648  0.203192
0.787524  0.646187  0.202429
0.831635  0.649010  0.197721
0.910563  0.679356  0.201355
