LUT/LUT_8.CUBE
TITLE "LUT_8" 
#LUT size 
LUT_3D_SIZE 5 
#data point 
DOMAIN_MIN 0.000000 0.000000 0.000000
DOMAIN_MAX 0.857143 0.857143 0.857143
0.034237  0.031887  0.010797
0.148327  0.119636  0.043533
0.354967  0.188224  0.024102
0.541083  0.233132  0.015813
0.748560  0.258049  0.012141
0.119947  0.111279  0.059162
0.227883  0.183365  0.054097
0.401117  0.253083  0.043927
0.577420  0.317338  0.038061
0.772038  0.362594  0.033202
0.232080  0.207136  0.075299
0.341166  0.306246  0.058353
0.454265  0.380169  0.055132
0.624945  0.452872  0.046196
0.810125  0.476513  0.043116
0.342459  0.329174  0.076411
0.438316  0.417424  0.056430
0.551075  0.511158  0.052104
0.674875  0.598614  0.045426
0.837926  0.648630  0.053542
0.423282  0.440967  0.070970
0.531538  0.531560  0.052186
0.636698  0.617975  0.056644
0.763064  0.688358  0.059765
0.899774  0.766005  0.058735
0.082855  0.110200  0.095986
0.156109  0.162854  0.118895
0.351832  0.227132  0.080995
0.532807  0.263443  0.064463
0.728006  0.293190  0.056650
0.128543  0.175948  0.178240
0.197234  0.229171  0.212013
0.388637  0.316038  0.166400
0.573464  0.365755  0.130748
0.768640  0.415981  0.116087
0.196123  0.247695  0.252473
0.303910  0.313497  0.245215
0.440448  0.394049  0.210710
0.611854  0.453664  0.190555
0.795342  0.506684  0.183312
0.293972  0.332425  0.275880
0.413334  0.413644  0.249769
0.521324  0.513844  0.242755
0.672179  0.601878  0.213093
0.834521  0.647011  0.200036
0.394404  0.438140  0.275808
0.516211  0.534079  0.241693
0.622536  0.620580  0.239020
0.762196  0.709931  0.220789
0.907453  0.782608  0.203311
0.113035  0.177479  0.199558
0.168585  0.229604  0.244373
0.329097  0.299748  0.228888
0.543605  0.330016  0.197214
0.739182  0.335514  0.194003
0.170838  0.246607  0.282913
0.228284  0.303334  0.328880
0.357206  0.376614  0.334441
0.545917  0.434892  0.293620
0.752388  0.479588  0.261128
0.222270  0.324091  0.367840
0.282943  0.384676  0.431561
0.414174  0.441833  0.408203
0.590858  0.521721  0.376955
0.787822  0.573854  0.341907
0.281133  0.395222  0.447880
0.366507  0.460449  0.481115
0.508034  0.530856  0.458159
0.651980  0.618457  0.452149
0.833272  0.676100  0.423018
0.337368  0.458862  0.500223
0.479825  0.535487  0.486670
0.604935  0.620018  0.464530
0.736604  0.709566  0.448153
0.891765  0.797355  0.445069
0.112471  0.257996  0.348948
0.209528  0.313233  0.370716
0.332213  0.371125  0.368069
0.524383  0.382660  0.349175
0.758191  0.383118  0.334713
0.204169  0.338362  0.411125
0.273774  0.393440  0.449075
0.355953  0.450688  0.467471
0.532940  0.514502  0.439644
0.740197  0.543983  0.397388
0.272060  0.403366  0.477472
0.341430  0.465443  0.517998
0.409677  0.524747  0.563697
0.561335  0.586994  0.534232
0.756607  0.656683  0.502775
0.333738  0.480361  0.545981
0.400978  0.542237  0.596637
0.474585  0.604364  0.645574
0.633347  0.678120  0.622949
0.801163  0.741997  0.590293
0.383654  0.545467  0.617131
0.455732  0.600529  0.655960
0.545676  0.670639  0.696465
0.720096  0.742373  0.673049
0.878078  0.814273  0.667147
0.074978  0.297716  0.554993
0.193882  0.378549  0.552249
0.302862  0.439471  0.567029
0.526476  0.432183  0.514032
0.738429  0.413082  0.513745
0.155082  0.407551  0.584431
0.293895  0.483987  0.579238
0.374420  0.544224  0.616270
0.527358  0.580120  0.574559
0.728961  0.608192  0.565746
0.268823  0.484847  0.602346
0.383537  0.553883  0.625563
0.458747  0.620558  0.687496
0.564080  0.679018  0.696331
0.757016  0.729468  0.641462
0.339912  0.541066  0.656460
0.450146  0.621874  0.687557
0.511769  0.678268  0.753392
0.616717  0.756417  0.810269
0.779556  0.806603  0.750615
0.409185  0.607526  0.719949
0.495024  0.672434  0.761319
0.587516  0.746265  0.828299
0.690191  0.806875  0.867314
0.833417  0.879421  0.873490
