LUT/LUT_40.CUBE
TITLE "LUT_40" 
#LUT size 
LUT_3D_SIZE 8 
DOMAIN_MIN 0.0 0.0 0.0 
DOMAIN_MAX 1.0 1.0 1.0 
#data point 
0.079408  0.078271  0.037612
0.103545  0.101882  0.053583
0.169443  0.150930  0.073477
0.304244  0.235861  0.075695
0.401521  0.302818  0.083011
0.504827  0.375394  0.071952
0.609041  0.433283  0.068592
0.714403  0.503558  0.065215
0.119816  0.108770  0.054958
0.125911  0.112724  0.052310
0.221697  0.201956  0.098903
0.348362  0.276626  0.090023
0.457756  0.342079  0.088353
0.532158  0.396614  0.082865
0.641809  0.466784  0.080286
0.738416  0.538004  0.065977
0.137293  0.138372  0.080072
0.199581  0.186865  0.096735
0.288104  0.242650  0.098762
0.392079  0.313912  0.090222
0.487303  0.363255  0.080336
0.592979  0.452579  0.088879
0.681293  0.522514  0.079813
0.794394  0.579590  0.073560
0.219339  0.192027  0.094696
0.305448  0.260728  0.107099
0.376526  0.296248  0.106264
0.451492  0.351869  0.086187
0.543129  0.421628  0.085319
0.642882  0.490168  0.080585
0.734214  0.558518  0.092624
0.843334  0.622459  0.079367
0.302305  0.262355  0.125718
0.380076  0.296922  0.097268
0.470226  0.364239  0.094782
0.525563  0.405017  0.093701
0.612777  0.482775  0.082405
0.692121  0.557556  0.084776
0.799107  0.616229  0.092205
0.907734  0.694902  0.092566
0.380970  0.306622  0.123376
0.466433  0.368554  0.103898
0.553004  0.435284  0.100798
0.610073  0.474451  0.097837
0.711018  0.577986  0.086936
0.781443  0.638890  0.081256
0.858705  0.698678  0.087880
0.947335  0.750000  0.101057
0.466369  0.361880  0.096141
0.523534  0.419995  0.101880
0.622780  0.490799  0.091406
0.696611  0.563518  0.080370
0.760394  0.619888  0.096869
0.827307  0.667377  0.081297
0.908517  0.733664  0.088311
1.018267  0.787037  0.093404
0.537905  0.430192  0.099505
0.633504  0.501572  0.100473
0.689575  0.553014  0.086147
0.743700  0.604788  0.095793
0.799461  0.647282  0.083190
0.884160  0.707244  0.098208
0.972488  0.764887  0.102143
1.080416  0.823970  0.087655
0.110346  0.101142  0.050507
0.121846  0.112608  0.066973
0.184722  0.163091  0.083932
0.280571  0.234384  0.094777
0.404849  0.310946  0.084520
0.505343  0.382828  0.071726
0.591648  0.447586  0.079471
0.723892  0.492630  0.076035
0.134449  0.128100  0.068764
0.164020  0.156343  0.093591
0.215188  0.201173  0.112430
0.308534  0.263016  0.114940
0.430648  0.337394  0.096344
0.550197  0.411127  0.088728
0.654898  0.488390  0.076163
0.732517  0.534273  0.073746
0.160688  0.165051  0.116765
0.198039  0.200138  0.151883
0.276853  0.257968  0.157308
0.383282  0.313672  0.128959
0.493338  0.381143  0.123879
0.587057  0.447562  0.110423
0.682866  0.509415  0.090821
0.791867  0.595626  0.094836
0.205337  0.232204  0.187900
0.262921  0.261868  0.194998
0.332986  0.295667  0.161732
0.443344  0.361685  0.149436
0.526448  0.404432  0.132852
0.626747  0.495819  0.133360
0.742196  0.565831  0.130335
0.832465  0.640795  0.096451
0.291849  0.277078  0.199477
0.330431  0.303129  0.182350
0.422139  0.372175  0.195180
0.529152  0.441317  0.177438
0.618463  0.492479  0.124035
0.709649  0.568590  0.106480
0.788721  0.625608  0.124446
0.904226  0.694807  0.118226
0.364509  0.329979  0.196762
0.434123  0.379666  0.195784
0.501130  0.420770  0.164989
0.578636  0.470882  0.145892
0.686835  0.565786  0.110435
0.766372  0.627481  0.117244
0.871490  0.702453  0.133613
0.972616  0.760637  0.135409
0.421105  0.372574  0.210238
0.525244  0.424956  0.180583
0.598184  0.484181  0.179345
0.675493  0.557429  0.121655
0.750675  0.610639  0.123936
0.829105  0.681659  0.120379
0.928388  0.748132  0.118229
0.991578  0.779040  0.118380
0.504836  0.425542  0.211050
0.594244  0.487999  0.164535
0.680029  0.550049  0.171133
0.764545  0.620068  0.130411
0.824374  0.673150  0.122910
0.895442  0.731664  0.121721
0.976099  0.768851  0.125985
1.065681  0.822694  0.142850
0.140938  0.149921  0.097129
0.148359  0.157489  0.123160
0.194131  0.201746  0.144591
0.304971  0.259119  0.128509
0.424326  0.334692  0.101745
0.510049  0.387252  0.102943
0.617371  0.460150  0.088272
0.698594  0.512818  0.084215
0.163505  0.185746  0.138466
0.191714  0.220105  0.180961
0.226366  0.254658  0.216747
0.337035  0.308854  0.179118
0.462036  0.380756  0.150213
0.534138  0.422472  0.139379
0.653817  0.490694  0.105256
0.765903  0.568505  0.113495
0.218276  0.249847  0.226868
0.237469  0.269533  0.245805
0.238451  0.277135  0.251172
0.362653  0.358039  0.258096
0.478455  0.424176  0.230879
0.582110  0.461559  0.148862
0.684353  0.535847  0.140571
0.795561  0.608552  0.145549
0.227420  0.273576  0.264009
0.267398  0.323120  0.318303
0.314698  0.353264  0.330244
0.405427  0.400887  0.307599
0.517954  0.453137  0.263024
0.617258  0.506471  0.213425
0.750011  0.587666  0.194574
0.829366  0.647526  0.197578
0.257826  0.312955  0.313555
0.328526  0.365929  0.343723
0.388453  0.399336  0.333898
0.474719  0.457629  0.335763
0.565322  0.494021  0.307198
0.694171  0.576011  0.282337
0.827254  0.659741  0.223711
0.912185  0.718306  0.236084
0.312455  0.364980  0.348769
0.387199  0.421039  0.377850
0.467047  0.450215  0.331456
0.551809  0.501855  0.328227
0.662370  0.570221  0.334026
0.763533  0.632937  0.275988
0.854604  0.699028  0.252668
0.955776  0.763760  0.253004
0.353031  0.398334  0.370092
0.455783  0.455245  0.363902
0.551989  0.512447  0.346620
0.628092  0.554920  0.339710
0.740407  0.617691  0.310732
0.805684  0.668325  0.294901
0.904782  0.732002  0.261366
1.011065  0.793819  0.236895
0.433484  0.450468  0.382989
0.546103  0.509620  0.354167
0.624458  0.554142  0.329832
0.722847  0.615696  0.313114
0.792229  0.663187  0.304794
0.913568  0.738034  0.269692
0.966565  0.777093  0.273385
1.086000  0.843144  0.255203
0.164639  0.191271  0.161475
0.184113  0.220155  0.201523
0.233187  0.257137  0.220216
0.269687  0.293854  0.243534
0.442212  0.362351  0.176682
0.532578  0.428841  0.149699
0.641826  0.483460  0.133944
0.720871  0.556212  0.134778
0.191731  0.224668  0.201698
0.223680  0.264248  0.250905
0.259089  0.298417  0.274789
0.329238  0.345513  0.297756
0.464608  0.399661  0.218072
0.545658  0.455693  0.192631
0.675834  0.525108  0.183571
0.762576  0.596616  0.174505
0.235388  0.283340  0.266072
0.270038  0.321554  0.314909
0.287323  0.354303  0.352377
0.381991  0.412262  0.378753
0.453523  0.458064  0.371612
0.581673  0.503119  0.272636
0.708921  0.574233  0.256579
0.815345  0.651284  0.242710
0.265398  0.326398  0.327704
0.290925  0.363864  0.363107
0.319962  0.396771  0.408203
0.391267  0.442463  0.415417
0.495576  0.496217  0.415215
0.626926  0.558476  0.343339
0.727520  0.620819  0.315657
0.848539  0.674092  0.300311
0.315977  0.398390  0.405047
0.352919  0.438061  0.448758
0.371103  0.452201  0.460913
0.469417  0.501162  0.462932
0.557839  0.565747  0.482273
0.643535  0.590893  0.428872
0.773914  0.668322  0.395857
0.903977  0.749909  0.366744
0.337079  0.428778  0.442212
0.365527  0.451908  0.472156
0.434885  0.488393  0.460717
0.511407  0.545040  0.497953
0.588320  0.591077  0.490176
0.704073  0.660094  0.493488
0.860574  0.738680  0.436042
0.927723  0.770216  0.430954
0.371398  0.468920  0.488225
0.431819  0.508877  0.503334
0.504685  0.532152  0.472268
0.576671  0.584491  0.504829
0.688791  0.652416  0.499816
0.794168  0.711313  0.480733
0.903371  0.763883  0.460987
0.984938  0.816432  0.495355
0.403468  0.500685  0.523545
0.487503  0.524232  0.491897
0.554922  0.582807  0.524832
0.663992  0.636097  0.496052
0.784848  0.705142  0.493007
0.869000  0.745468  0.466669
0.964905  0.802175  0.492676
1.050345  0.846474  0.492265
0.198820  0.229826  0.212733
0.224404  0.275955  0.271827
0.252649  0.304920  0.292824
0.302541  0.342146  0.313618
0.406057  0.396312  0.298879
0.537462  0.460243  0.244667
0.645960  0.523507  0.192517
0.751445  0.573899  0.174966
0.247662  0.293376  0.279305
0.253233  0.317005  0.317729
0.294058  0.359203  0.357939
0.337682  0.408601  0.400246
0.424935  0.439758  0.384934
0.546034  0.496135  0.334279
0.676507  0.545847  0.276527
0.781094  0.619682  0.250374
0.267650  0.337092  0.345170
0.306604  0.373992  0.379764
0.327411  0.414872  0.423108
0.374386  0.454428  0.454212
0.462330  0.503002  0.461517
0.548117  0.543656  0.437737
0.706917  0.611175  0.381924
0.810631  0.659046  0.325355
0.302653  0.380807  0.395581
0.340250  0.420786  0.431754
0.363089  0.457076  0.487690
0.383788  0.491723  0.521582
0.498398  0.537300  0.500624
0.601497  0.599626  0.508002
0.736837  0.667620  0.454264
0.849844  0.711525  0.397329
0.345802  0.431915  0.447360
0.363865  0.470489  0.502710
0.407996  0.514090  0.535463
0.451788  0.560852  0.586601
0.522562  0.595405  0.580298
0.637672  0.655817  0.582110
0.773613  0.709454  0.524596
0.911610  0.775895  0.482047
0.372143  0.479113  0.496978
0.409252  0.510413  0.537101
0.442858  0.561040  0.583584
0.489796  0.598746  0.621301
0.565572  0.622911  0.588935
0.692034  0.715498  0.641865
0.807961  0.759331  0.608854
0.947576  0.810811  0.550907
0.406771  0.521909  0.550517
0.446511  0.556596  0.579811
0.485150  0.605885  0.637554
0.554230  0.631608  0.621616
0.673729  0.689195  0.614222
0.777332  0.759351  0.641592
0.883171  0.809778  0.632758
0.994417  0.847913  0.610711
0.453193  0.572982  0.601555
0.489414  0.608352  0.643665
0.536663  0.625905  0.629560
0.646114  0.689554  0.638097
0.732878  0.732870  0.638089
0.835361  0.780117  0.624435
0.937543  0.838847  0.648137
1.039024  0.868758  0.614703
0.256885  0.307372  0.309105
0.270257  0.328046  0.323763
0.290468  0.365321  0.381861
0.327151  0.399338  0.400049
0.412523  0.435929  0.381084
0.515246  0.488516  0.373044
0.635960  0.538358  0.295252
0.758757  0.608845  0.265481
0.281807  0.346552  0.356210
0.304880  0.392532  0.407128
0.323021  0.409407  0.426647
0.370642  0.450499  0.460609
0.435515  0.501866  0.483517
0.544169  0.556700  0.479546
0.663940  0.602514  0.401974
0.787178  0.655642  0.367535
0.311918  0.400775  0.413448
0.348703  0.430221  0.439082
0.384138  0.486806  0.507122
0.406226  0.500127  0.521080
0.461117  0.544213  0.535052
0.572647  0.602303  0.547935
0.675044  0.629393  0.482678
0.825357  0.716553  0.465923
0.336450  0.432481  0.462865
0.380096  0.465406  0.481671
0.419664  0.533966  0.565108
0.430330  0.550030  0.575101
0.491282  0.600098  0.619536
0.597216  0.642783  0.604260
0.732651  0.691875  0.545409
0.837951  0.762691  0.571653
0.390007  0.498875  0.529580
0.420332  0.537196  0.568647
0.450412  0.574152  0.605084
0.483036  0.602550  0.640222
0.537219  0.654490  0.682632
0.648431  0.699526  0.657663
0.741228  0.734843  0.629364
0.908264  0.808374  0.608873
0.416954  0.530415  0.558091
0.456374  0.569773  0.604233
0.486455  0.612654  0.646705
0.513840  0.639942  0.674990
0.582637  0.701817  0.737951
0.684758  0.749661  0.724346
0.816523  0.804763  0.708913
0.945298  0.847274  0.679476
0.454281  0.572674  0.606735
0.493454  0.618502  0.650311
0.549259  0.676295  0.698815
0.573963  0.684664  0.719211
0.633379  0.743425  0.774230
0.733291  0.789222  0.772623
0.867526  0.833732  0.748941
0.969817  0.874185  0.719813
0.491854  0.615876  0.646671
0.530207  0.647280  0.673533
0.570034  0.694090  0.727423
0.600404  0.717274  0.750309
0.692904  0.790500  0.799439
0.810312  0.817827  0.757071
0.899463  0.861524  0.750920
1.031247  0.911639  0.742780
0.290891  0.373196  0.391316
0.315262  0.392802  0.406835
0.345749  0.441838  0.465520
0.374784  0.479380  0.510997
0.424562  0.487140  0.473435
0.513851  0.535446  0.474198
0.613865  0.570041  0.423110
0.760408  0.656129  0.381443
0.324097  0.410315  0.425891
0.342182  0.445977  0.478064
0.363941  0.471557  0.496317
0.409828  0.522865  0.555743
0.439329  0.551866  0.576438
0.542100  0.577965  0.523760
0.644974  0.633759  0.526287
0.793739  0.698931  0.475544
0.356150  0.457021  0.480471
0.378782  0.484627  0.512812
0.418343  0.524771  0.551793
0.447044  0.563940  0.595463
0.491042  0.606283  0.632509
0.578515  0.647040  0.615459
0.689726  0.701939  0.622381
0.800667  0.747709  0.577168
0.385768  0.492782  0.514008
0.400046  0.512795  0.541363
0.463967  0.587934  0.625827
0.493608  0.617469  0.651903
0.536871  0.669613  0.700466
0.590869  0.688883  0.694744
0.740503  0.742978  0.658713
0.866837  0.796491  0.642952
0.426603  0.533975  0.560998
0.467340  0.589967  0.619407
0.500794  0.623940  0.649800
0.543878  0.671644  0.696911
0.595525  0.726715  0.768240
0.636416  0.741053  0.766249
0.748294  0.776737  0.725594
0.891988  0.833838  0.709206
0.451240  0.571864  0.609362
0.500324  0.622109  0.660015
0.532992  0.665479  0.700499
0.608460  0.730337  0.767573
0.642598  0.766627  0.809021
0.696777  0.804907  0.848121
0.793943  0.838719  0.810802
0.931708  0.874303  0.763743
0.500745  0.621342  0.656023
0.535730  0.658032  0.686049
0.575238  0.697753  0.730803
0.637887  0.761895  0.805758
0.681263  0.798699  0.840266
0.738409  0.849688  0.881615
0.828519  0.894496  0.899657
0.953566  0.896478  0.796200
0.528572  0.660398  0.694735
0.572007  0.700604  0.733777
0.609537  0.738498  0.786296
0.679578  0.807303  0.848859
0.737945  0.836334  0.883194
0.801618  0.884670  0.916071
0.875778  0.924425  0.937476
1.003641  0.941615  0.861592
0.334854  0.422844  0.445030
0.340972  0.445265  0.473646
0.386829  0.495269  0.526715
0.411474  0.531238  0.567470
0.459456  0.578744  0.606458
0.504072  0.593532  0.580089
0.625085  0.644742  0.564672
0.778972  0.704831  0.496068
0.350849  0.450158  0.480670
0.380085  0.491423  0.522490
0.427264  0.551294  0.583328
0.468143  0.589442  0.623530
0.505724  0.628429  0.653658
0.549265  0.658091  0.682687
0.639853  0.680784  0.636705
0.792194  0.737975  0.590481
0.380349  0.493321  0.534360
0.418437  0.538521  0.567562
0.463567  0.586025  0.615758
0.518712  0.640189  0.676980
0.552765  0.677954  0.715804
0.604433  0.724659  0.754414
0.693696  0.743714  0.704771
0.822716  0.788461  0.668688
0.427431  0.544859  0.574195
0.456432  0.576862  0.618526
0.507504  0.628619  0.657506
0.566859  0.685849  0.712283
0.589846  0.721845  0.766616
0.636963  0.762238  0.798979
0.694873  0.795586  0.817414
0.849168  0.833059  0.739564
0.448379  0.571601  0.613295
0.504595  0.632654  0.653335
0.541999  0.670597  0.706143
0.593481  0.720429  0.756498
0.633267  0.759575  0.799187
0.685702  0.806169  0.855195
0.758711  0.859678  0.894458
0.861172  0.881465  0.842554
0.485581  0.602622  0.637190
0.528589  0.654592  0.685997
0.579198  0.705884  0.739861
0.635768  0.759887  0.802733
0.660280  0.781385  0.826590
0.743212  0.849705  0.888653
0.801214  0.892948  0.921339
0.882695  0.934074  0.935266
0.531224  0.665206  0.696076
0.580468  0.704400  0.746002
0.614800  0.742796  0.790832
0.649006  0.775514  0.823104
0.717073  0.829030  0.871181
0.788442  0.880413  0.911130
0.850828  0.920528  0.949372
0.911427  0.948065  0.972013
0.571937  0.697835  0.725887
0.593880  0.727154  0.772568
0.647028  0.777097  0.821236
0.711205  0.828186  0.870801
0.764233  0.868687  0.902621
0.833152  0.909038  0.941809
0.883101  0.938694  0.960799
0.944602  0.965617  0.985865
