LUT/LUT_4.CUBE
TITLE "LUT_4" 
#LUT size 
LUT_3D_SIZE 15 
DOMAIN_MIN 0.0 0.0 0.0 
DOMAIN_MAX 1.0 1.0 1.0 
#data point 
0.019773  0.016541  0.013029
0.048163  0.044188  0.015273
0.096735  0.077000  0.024273
0.171089  0.097388  0.022685
0.243871  0.121920  0.012291
0.302716  0.119424  0.010321
0.383611  0.133694  0.003810
0.443570  0.135676  -0.003701
0.515907  0.144371  -0.005434
0.585560  0.149803  -0.008345
0.651608  0.156359  -0.008188
0.716581  0.158218  -0.011655
0.793463  0.155017  -0.014309
0.861484  0.161018  -0.020135
0.936209  0.158212  -0.021217
0.042482  0.042949  0.021716
0.074681  0.070820  0.025542
0.114488  0.092380  0.035223
0.185553  0.131726  0.025889
0.254426  0.141323  0.021225
0.318938  0.156087  0.017476
0.386910  0.170843  0.016978
0.449598  0.182834  0.017770
0.515342  0.190424  0.009545
0.582868  0.191454  0.004880
0.654470  0.203843  0.004665
0.730467  0.207941  -0.005630
0.801578  0.210930  -0.009938
0.867949  0.211783  -0.016102
0.934075  0.228590  -0.015315
0.081058  0.082701  0.039508
0.104586  0.094887  0.040768
0.149761  0.118279  0.046477
0.204673  0.151757  0.037169
0.270382  0.177345  0.025908
0.333374  0.187102  0.027661
0.399526  0.199585  0.022638
0.456528  0.215005  0.018938
0.528933  0.231024  0.018153
0.594508  0.237565  0.017028
0.658416  0.241577  0.010781
0.732326  0.250478  0.010032
0.803832  0.260736  0.008565
0.871914  0.265851  0.005912
0.939057  0.272786  0.004216
0.116844  0.109989  0.049567
0.142458  0.131206  0.056957
0.180179  0.162896  0.048221
0.232457  0.187704  0.040175
0.281743  0.210250  0.038348
0.346555  0.227495  0.035163
0.415469  0.236311  0.028813
0.480546  0.259030  0.030175
0.538661  0.274353  0.026664
0.606682  0.283468  0.024105
0.669271  0.289813  0.024242
0.740643  0.296467  0.018068
0.811757  0.300522  0.016234
0.880101  0.301855  0.013295
0.952571  0.323712  0.014125
0.146182  0.147073  0.056712
0.178970  0.175851  0.059445
0.221746  0.205078  0.057737
0.260511  0.237116  0.040481
0.298813  0.264560  0.037015
0.360375  0.280585  0.039491
0.415899  0.289458  0.038769
0.484558  0.303685  0.034636
0.550215  0.315574  0.035576
0.616340  0.326021  0.033611
0.676528  0.335745  0.032615
0.753196  0.359742  0.025330
0.815546  0.352428  0.026229
0.884886  0.358127  0.020973
0.947457  0.367747  0.019670
0.179593  0.193377  0.063080
0.211198  0.220750  0.051555
0.243924  0.246262  0.049587
0.290156  0.287615  0.036873
0.325246  0.308501  0.035764
0.370798  0.332127  0.038588
0.435575  0.347208  0.036899
0.501673  0.363951  0.038078
0.562429  0.367117  0.038728
0.617482  0.374027  0.031544
0.689186  0.383979  0.032594
0.759984  0.391196  0.036096
0.822586  0.404537  0.033867
0.898566  0.417063  0.030434
0.959586  0.432662  0.026196
0.208257  0.235670  0.059966
0.242521  0.266058  0.054550
0.288912  0.302971  0.045874
0.321175  0.330102  0.043940
0.348606  0.355937  0.043557
0.396617  0.381378  0.041882
0.444970  0.396532  0.041469
0.504486  0.419111  0.044212
0.566965  0.423776  0.038364
0.627086  0.444792  0.040940
0.696037  0.447993  0.032350
0.760801  0.448710  0.038724
0.836270  0.454123  0.041081
0.902704  0.460326  0.044106
0.973049  0.471742  0.041794
0.236880  0.291182  0.069142
0.273154  0.313448  0.054029
0.307165  0.340956  0.048544
0.346266  0.363449  0.039802
0.384039  0.405207  0.044471
0.424886  0.435919  0.037050
0.464307  0.463753  0.041286
0.513332  0.472093  0.035360
0.576113  0.491792  0.038095
0.640264  0.494546  0.037053
0.712198  0.502272  0.038824
0.773321  0.522600  0.045238
0.839288  0.521300  0.041530
0.914858  0.523787  0.046234
0.981696  0.527955  0.041502
0.266528  0.333471  0.063462
0.297774  0.364158  0.069562
0.340932  0.384386  0.047845
0.375361  0.408677  0.037305
0.414127  0.447785  0.040346
0.450693  0.469402  0.038421
0.490307  0.507855  0.040221
0.533336  0.531276  0.040278
0.591245  0.539778  0.039604
0.654544  0.560794  0.035937
0.706168  0.571022  0.034917
0.775118  0.569548  0.039870
0.852227  0.578200  0.039861
0.909107  0.590765  0.042054
0.979936  0.592259  0.049093
0.289261  0.379127  0.062594
0.327017  0.403084  0.053882
0.370071  0.426576  0.051306
0.411900  0.460274  0.044846
0.441395  0.481578  0.046323
0.478061  0.510288  0.035767
0.520352  0.537832  0.040193
0.558302  0.575261  0.040035
0.610254  0.598845  0.038698
0.665618  0.612342  0.033273
0.725181  0.630054  0.036081
0.784338  0.644083  0.039260
0.845791  0.650918  0.041980
0.917243  0.655827  0.044612
0.979008  0.659982  0.045049
0.314395  0.418689  0.054806
0.353030  0.445519  0.059045
0.402097  0.471292  0.046860
0.435161  0.500061  0.046803
0.481282  0.526182  0.040753
0.510913  0.558526  0.042031
0.552860  0.581939  0.044378
0.595224  0.612086  0.037648
0.644076  0.639633  0.036990
0.679775  0.653113  0.039498
0.741117  0.680697  0.037858
0.798772  0.687170  0.038997
0.855038  0.712105  0.039762
0.919030  0.726329  0.045917
0.987229  0.723781  0.043657
0.337743  0.465545  0.057749
0.381624  0.487292  0.047767
0.417381  0.512702  0.044905
0.459823  0.533598  0.037757
0.510126  0.561678  0.042330
0.545271  0.592866  0.044136
0.579339  0.617712  0.041454
0.622914  0.643418  0.036109
0.665097  0.666032  0.040901
0.714839  0.689230  0.039127
0.760618  0.715873  0.037693
0.817021  0.736084  0.041580
0.877191  0.754169  0.039666
0.936364  0.775526  0.043393
0.992965  0.790770  0.043830
0.351254  0.524192  0.056779
0.400069  0.535999  0.046275
0.442276  0.561031  0.043171
0.491668  0.576106  0.034479
0.529830  0.599493  0.042224
0.573237  0.629770  0.045768
0.607339  0.654573  0.039386
0.652327  0.677907  0.041937
0.694768  0.710050  0.044039
0.741343  0.732594  0.045944
0.788218  0.755141  0.043545
0.837287  0.780548  0.043615
0.886722  0.795274  0.046270
0.947628  0.813091  0.041168
1.011437  0.835853  0.038812
0.347280  0.590909  0.039875
0.417817  0.596808  0.049363
0.468996  0.607293  0.040058
0.509799  0.632554  0.036984
0.554402  0.643903  0.041169
0.596327  0.673094  0.034321
0.642265  0.695046  0.039771
0.679398  0.722825  0.045034
0.725646  0.739943  0.038310
0.763257  0.765464  0.041248
0.809203  0.794289  0.041801
0.865831  0.816972  0.042162
0.912407  0.836847  0.042130
0.966962  0.860580  0.042977
1.023759  0.869996  0.044712
0.366552  0.638162  0.037954
0.422154  0.644927  0.041387
0.474383  0.657143  0.036117
0.528761  0.683273  0.031955
0.573657  0.698628  0.038304
0.621822  0.715871  0.033171
0.666940  0.730516  0.040299
0.705568  0.758225  0.037569
0.749449  0.785550  0.040280
0.791196  0.807310  0.042504
0.836051  0.828779  0.037594
0.888260  0.852526  0.043854
0.938053  0.871338  0.044214
0.991187  0.893115  0.043741
1.049110  0.911609  0.040940
0.036316  0.039333  0.018187
0.060970  0.054697  0.021039
0.098523  0.082590  0.032518
0.159498  0.104593  0.029704
0.228593  0.120787  0.027720
0.304706  0.131501  0.017863
0.376914  0.139995  0.016333
0.439304  0.149602  0.010213
0.515278  0.149988  0.005410
0.578608  0.148540  0.004208
0.650600  0.146554  0.000014
0.728423  0.162620  0.004298
0.792666  0.165036  -0.000727
0.859152  0.159892  0.003263
0.932735  0.150225  -0.005346
0.059973  0.063226  0.046574
0.078837  0.080298  0.048097
0.119226  0.109370  0.051462
0.177741  0.136687  0.052378
0.248108  0.162004  0.039440
0.315911  0.168167  0.030998
0.379103  0.176030  0.029158
0.442888  0.190408  0.026297
0.512267  0.194956  0.021522
0.590914  0.206190  0.019251
0.653421  0.215099  0.011663
0.725091  0.218372  0.018049
0.790711  0.218218  0.011992
0.864975  0.218749  0.003562
0.930587  0.225357  0.008286
0.074696  0.092690  0.070096
0.103809  0.107320  0.064736
0.144866  0.134198  0.069165
0.194009  0.165173  0.071889
0.259960  0.185302  0.060165
0.328320  0.198320  0.054554
0.387443  0.222519  0.050063
0.459156  0.231495  0.035504
0.523539  0.239252  0.030596
0.590760  0.252521  0.026518
0.666392  0.257472  0.024589
0.731390  0.263656  0.022584
0.800816  0.269677  0.023368
0.873930  0.269524  0.020071
0.944094  0.280094  0.020768
0.106118  0.121421  0.090883
0.148811  0.147444  0.087525
0.178028  0.167444  0.087096
0.213455  0.185989  0.081665
0.279616  0.218043  0.074437
0.346217  0.241662  0.071323
0.404306  0.250853  0.061528
0.467805  0.267441  0.058129
0.537976  0.278064  0.049958
0.594035  0.287450  0.040865
0.665544  0.304736  0.039884
0.736488  0.318470  0.035109
0.805929  0.312614  0.027077
0.882154  0.329134  0.030318
0.949482  0.328765  0.027768
0.147349  0.156762  0.094413
0.183197  0.184343  0.090328
0.213780  0.205418  0.091416
0.249274  0.237954  0.083642
0.309051  0.263698  0.076427
0.353741  0.280818  0.079517
0.417503  0.293759  0.067525
0.479455  0.307636  0.063903
0.543792  0.320623  0.066507
0.612635  0.334813  0.057120
0.673392  0.347882  0.046795
0.746280  0.360960  0.043693
0.806424  0.361200  0.035601
0.881230  0.367600  0.040671
0.953532  0.377294  0.036539
0.176922  0.192261  0.107575
0.211349  0.216845  0.097492
0.246075  0.260938  0.106086
0.278796  0.279868  0.096954
0.327759  0.311408  0.075665
0.371834  0.334483  0.079462
0.434090  0.349706  0.073322
0.485777  0.360208  0.081126
0.548211  0.377387  0.077022
0.623809  0.385306  0.072570
0.690624  0.389785  0.065083
0.759045  0.408031  0.053125
0.821957  0.409873  0.057441
0.893622  0.419953  0.046394
0.961514  0.435417  0.044773
0.207876  0.247979  0.115262
0.241015  0.272091  0.103499
0.282647  0.296326  0.104181
0.313275  0.328080  0.100264
0.354195  0.359460  0.084127
0.393662  0.387465  0.074718
0.443472  0.409770  0.079118
0.509972  0.421789  0.076967
0.565576  0.425312  0.076671
0.634136  0.430379  0.064784
0.698290  0.451735  0.066104
0.769585  0.448936  0.057802
0.831272  0.460453  0.066716
0.911633  0.472982  0.060281
0.973117  0.484082  0.056126
0.233880  0.296767  0.105935
0.265159  0.320198  0.106261
0.303415  0.342955  0.108039
0.339999  0.367086  0.105835
0.389844  0.402914  0.079743
0.423334  0.437116  0.081810
0.470719  0.463591  0.071105
0.516401  0.477289  0.073360
0.577751  0.488777  0.080784
0.640356  0.500253  0.074790
0.707833  0.508225  0.073629
0.772142  0.512908  0.064366
0.838457  0.521944  0.067716
0.909225  0.526241  0.065202
0.981183  0.529130  0.062355
0.262578  0.333449  0.110087
0.295451  0.361253  0.111034
0.332300  0.384612  0.110337
0.368019  0.407785  0.100436
0.407654  0.442039  0.088756
0.449668  0.471666  0.076826
0.489101  0.501260  0.073607
0.525214  0.529605  0.069734
0.588294  0.542775  0.071593
0.650457  0.566047  0.074389
0.716325  0.570293  0.072673
0.777542  0.574703  0.075112
0.846008  0.587446  0.072762
0.918167  0.587043  0.066847
0.984563  0.594412  0.066958
0.274763  0.373989  0.113607
0.326519  0.403807  0.109698
0.366011  0.433337  0.110761
0.401838  0.457128  0.097441
0.442233  0.482656  0.092092
0.483113  0.517239  0.079303
0.526593  0.550655  0.080072
0.559129  0.573417  0.078302
0.609881  0.603896  0.082529
0.663437  0.616564  0.073612
0.723433  0.633334  0.071570
0.782232  0.642774  0.066034
0.849682  0.655071  0.068971
0.918839  0.655672  0.069216
0.986963  0.668051  0.068593
0.308717  0.421873  0.107155
0.340434  0.439917  0.107829
0.387080  0.468723  0.104255
0.433383  0.504347  0.104068
0.474156  0.528107  0.090782
0.511571  0.557357  0.087869
0.548281  0.587940  0.078456
0.591487  0.614730  0.081692
0.634949  0.635723  0.078029
0.681114  0.655351  0.088887
0.743427  0.682112  0.071744
0.793600  0.697883  0.073600
0.855392  0.713093  0.068331
0.919353  0.727929  0.075151
0.995870  0.711713  0.069285
0.330779  0.460633  0.108587
0.371382  0.481957  0.100946
0.419229  0.514436  0.092629
0.460870  0.535213  0.093850
0.502794  0.569534  0.093290
0.541224  0.593576  0.085970
0.577927  0.620688  0.080375
0.623851  0.643147  0.083938
0.662599  0.672277  0.078930
0.712105  0.687631  0.082185
0.762107  0.717727  0.076059
0.809626  0.738633  0.086723
0.874663  0.753207  0.071842
0.930676  0.769584  0.066138
0.990113  0.791063  0.068550
0.339696  0.525026  0.104863
0.402572  0.543329  0.088254
0.438856  0.551948  0.097250
0.488166  0.581013  0.091510
0.532693  0.598067  0.084399
0.568245  0.630218  0.083050
0.613614  0.652870  0.078176
0.651316  0.677456  0.083060
0.695726  0.711978  0.082558
0.737936  0.736224  0.089670
0.790956  0.756686  0.087453
0.841256  0.783370  0.078214
0.891043  0.795459  0.080738
0.956326  0.822852  0.074819
1.010202  0.840416  0.072493
0.352864  0.578175  0.100579
0.409883  0.586139  0.087947
0.461525  0.602085  0.090438
0.503009  0.621578  0.088671
0.551592  0.644510  0.077981
0.599016  0.663463  0.075931
0.637870  0.690379  0.084765
0.676428  0.724006  0.077102
0.728064  0.745217  0.082287
0.761328  0.765669  0.086757
0.816623  0.796932  0.084596
0.857075  0.822711  0.081978
0.918655  0.840305  0.081572
0.974279  0.857843  0.071791
1.028225  0.876896  0.077063
0.359548  0.644221  0.090778
0.422627  0.647920  0.087207
0.473431  0.658878  0.092326
0.529508  0.674696  0.079294
0.566419  0.694415  0.075053
0.620085  0.720657  0.080165
0.664811  0.729995  0.077706
0.711654  0.753818  0.084088
0.744834  0.784037  0.083933
0.787317  0.811672  0.077996
0.836148  0.837018  0.092864
0.879058  0.849635  0.084381
0.936853  0.875819  0.077345
0.987511  0.898530  0.077325
1.051611  0.915801  0.080529
0.047015  0.071731  0.070985
0.067813  0.086199  0.071009
0.106234  0.109359  0.073141
0.165307  0.125014  0.065663
0.233684  0.141088  0.057795
0.306297  0.144335  0.056815
0.369737  0.155371  0.055132
0.438651  0.154033  0.062191
0.510788  0.158049  0.062457
0.576744  0.161855  0.066162
0.649079  0.152714  0.053869
0.725227  0.160254  0.056700
0.790128  0.159355  0.058338
0.863835  0.166189  0.048251
0.937812  0.158869  0.054261
0.068958  0.101574  0.100078
0.079051  0.110244  0.104855
0.121976  0.136242  0.103856
0.175324  0.160799  0.095314
0.244414  0.178753  0.087778
0.311497  0.189518  0.079370
0.384906  0.199521  0.073050
0.443810  0.204888  0.067008
0.519567  0.216363  0.063584
0.577745  0.221193  0.064350
0.657036  0.224165  0.058274
0.723340  0.221468  0.057219
0.794926  0.236110  0.059030
0.871908  0.228846  0.047858
0.933747  0.230148  0.055593
0.078754  0.124042  0.125211
0.101229  0.137190  0.130208
0.134881  0.154598  0.130807
0.198425  0.186022  0.115128
0.249642  0.206059  0.108833
0.322425  0.219728  0.101716
0.388838  0.233375  0.091621
0.451710  0.252161  0.078821
0.519639  0.261704  0.087433
0.587528  0.269685  0.091399
0.658024  0.279017  0.075525
0.724427  0.282446  0.070558
0.797009  0.283254  0.063853
0.861592  0.290061  0.064168
0.932726  0.289466  0.058705
0.105214  0.144344  0.155141
0.131670  0.164532  0.151369
0.163383  0.183542  0.147814
0.214419  0.209799  0.141401
0.265109  0.227963  0.135785
0.335266  0.254584  0.124017
0.406107  0.274974  0.114832
0.456000  0.279110  0.109763
0.535005  0.294288  0.098196
0.588714  0.319163  0.103951
0.656285  0.315833  0.089797
0.722585  0.322543  0.092193
0.803150  0.333097  0.077717
0.869379  0.336457  0.073245
0.939340  0.345022  0.070055
0.130372  0.175439  0.172789
0.170305  0.199736  0.171904
0.206085  0.223301  0.164049
0.245167  0.243490  0.155644
0.295651  0.272578  0.144159
0.338077  0.283654  0.142443
0.410713  0.306560  0.134269
0.474332  0.320427  0.118887
0.538383  0.340724  0.114408
0.603250  0.349044  0.119153
0.668852  0.364432  0.113353
0.736462  0.374681  0.108187
0.814898  0.384124  0.103370
0.871660  0.388457  0.087327
0.952158  0.390231  0.089255
0.163009  0.200041  0.183102
0.198391  0.229705  0.174299
0.229151  0.261130  0.173294
0.272406  0.287452  0.167020
0.315418  0.316932  0.152991
0.362490  0.340313  0.152955
0.433432  0.354285  0.146206
0.492796  0.360516  0.136490
0.556352  0.375774  0.131128
0.619309  0.396258  0.137407
0.681153  0.409149  0.127321
0.746293  0.423127  0.125157
0.813416  0.424972  0.114797
0.889119  0.435838  0.106685
0.953243  0.447042  0.101089
0.195008  0.243378  0.184531
0.234067  0.270165  0.181350
0.270617  0.303325  0.174943
0.306549  0.334014  0.159108
0.344215  0.361613  0.149151
0.388100  0.389626  0.158495
0.446226  0.408512  0.144622
0.507769  0.417504  0.139322
0.558566  0.426826  0.131408
0.628151  0.447077  0.135195
0.694233  0.448981  0.140957
0.759351  0.455571  0.142119
0.833772  0.469801  0.134381
0.895719  0.482026  0.119972
0.956976  0.490097  0.106701
0.230614  0.294926  0.183702
0.258930  0.327378  0.182817
0.299133  0.346597  0.176885
0.339315  0.367801  0.164930
0.372919  0.403697  0.165390
0.406876  0.432543  0.157186
0.460220  0.456552  0.155121
0.520458  0.478601  0.143798
0.580653  0.483769  0.130803
0.641390  0.499800  0.134084
0.698600  0.507156  0.140542
0.761436  0.518002  0.143759
0.836620  0.526906  0.141053
0.912233  0.529928  0.131676
0.972164  0.540156  0.122405
0.251296  0.334705  0.180627
0.290346  0.363842  0.177525
0.325084  0.385846  0.171790
0.368677  0.418299  0.169915
0.403636  0.448843  0.171663
0.442140  0.475466  0.159245
0.490937  0.510586  0.150833
0.533605  0.533943  0.142458
0.589115  0.548998  0.134876
0.650086  0.557282  0.136972
0.715717  0.563670  0.139516
0.769282  0.583482  0.142459
0.838337  0.591263  0.139235
0.914033  0.588902  0.138351
0.978092  0.601624  0.130502
0.276343  0.377527  0.187037
0.323967  0.404177  0.176692
0.354738  0.432996  0.168622
0.390365  0.459179  0.178982
0.434702  0.481227  0.170105
0.467471  0.510759  0.159697
0.508757  0.547915  0.153558
0.555095  0.575889  0.148739
0.602582  0.604816  0.148407
0.665769  0.616093  0.140523
0.725628  0.631632  0.137846
0.787932  0.642500  0.144754
0.855067  0.649059  0.138107
0.908004  0.654990  0.142982
0.985737  0.656383  0.133219
0.299754  0.416060  0.187182
0.342650  0.446569  0.175773
0.385560  0.475971  0.172017
0.424141  0.496494  0.161108
0.464716  0.526896  0.163392
0.503802  0.556996  0.162008
0.541171  0.581327  0.164113
0.589547  0.607342  0.145306
0.628030  0.635020  0.139363
0.686235  0.663337  0.144893
0.736059  0.680307  0.145269
0.796900  0.701590  0.142381
0.851497  0.715098  0.140045
0.922212  0.720572  0.136805
0.999228  0.729657  0.137502
0.327731  0.465410  0.178596
0.371518  0.483109  0.178666
0.408199  0.515144  0.169406
0.456274  0.537163  0.168272
0.494467  0.561698  0.167934
0.539105  0.590898  0.166810
0.571548  0.617081  0.158136
0.611583  0.643337  0.148068
0.661215  0.674757  0.145740
0.715035  0.700556  0.136142
0.752541  0.717883  0.143453
0.810975  0.739594  0.143190
0.869992  0.763859  0.139709
0.927087  0.775260  0.146939
0.998311  0.786568  0.146177
0.338956  0.519678  0.171448
0.395048  0.533681  0.166887
0.436222  0.555132  0.163341
0.479112  0.577878  0.172394
0.520564  0.598504  0.166480
0.566315  0.628041  0.161800
0.601507  0.656124  0.156458
0.651727  0.684274  0.146050
0.690639  0.707333  0.147678
0.736163  0.734211  0.149377
0.786521  0.750064  0.145949
0.830711  0.776860  0.145530
0.894320  0.804985  0.137673
0.948586  0.815588  0.147750
1.006067  0.832358  0.134219
0.354806  0.572642  0.173735
0.411063  0.583500  0.158811
0.458724  0.596867  0.172753
0.501529  0.618733  0.157077
0.545960  0.643985  0.159501
0.592963  0.671586  0.158378
0.635504  0.683161  0.148757
0.682566  0.723703  0.156483
0.718907  0.741153  0.141841
0.765788  0.768846  0.140383
0.804829  0.795024  0.145841
0.862471  0.816826  0.138548
0.907506  0.839325  0.145511
0.972229  0.864857  0.145810
1.023164  0.883745  0.147324
0.354365  0.622766  0.164254
0.422410  0.641563  0.163101
0.477123  0.660322  0.160503
0.521884  0.669295  0.155947
0.570240  0.690471  0.156292
0.610257  0.714201  0.157187
0.658024  0.732255  0.146826
0.706711  0.755855  0.146259
0.740602  0.790055  0.146770
0.795096  0.816478  0.153132
0.835669  0.827108  0.147976
0.882658  0.851999  0.141921
0.931046  0.870694  0.142728
0.992269  0.899176  0.148640
1.041310  0.914118  0.145854
0.052530  0.094644  0.114913
0.070629  0.113146  0.125549
0.104148  0.141110  0.131719
0.162172  0.160374  0.126351
0.229680  0.163701  0.115781
0.301678  0.165891  0.106258
0.377327  0.167214  0.105706
0.446787  0.168227  0.102707
0.514147  0.165757  0.110753
0.577205  0.169184  0.111945
0.640994  0.166489  0.120404
0.717479  0.161274  0.123509
0.791866  0.165054  0.123563
0.863593  0.163529  0.109515
0.935205  0.162361  0.121367
0.071012  0.119155  0.135775
0.089670  0.137169  0.153473
0.123259  0.152714  0.151540
0.169751  0.182620  0.142752
0.235141  0.197848  0.141807
0.305410  0.206450  0.125528
0.379672  0.215330  0.117150
0.446979  0.231349  0.118153
0.510076  0.222886  0.119045
0.583261  0.229646  0.122021
0.651548  0.228205  0.124479
0.718885  0.231013  0.121503
0.787789  0.237212  0.123299
0.856886  0.228197  0.122998
0.935294  0.231465  0.112362
0.084400  0.145181  0.164234
0.115868  0.165373  0.179530
0.144145  0.185679  0.182934
0.186295  0.209725  0.181932
0.243000  0.227891  0.171467
0.314112  0.241960  0.153859
0.382085  0.254799  0.147219
0.444383  0.261214  0.134961
0.519424  0.272215  0.138778
0.589368  0.282647  0.124445
0.653519  0.288160  0.135667
0.722458  0.291910  0.121129
0.791724  0.296267  0.129995
0.857336  0.297260  0.128353
0.937094  0.300475  0.119617
0.105626  0.170545  0.196911
0.126800  0.187117  0.205829
0.157413  0.208377  0.207818
0.201963  0.234171  0.210036
0.263837  0.258058  0.199534
0.323547  0.280644  0.186488
0.403404  0.295389  0.173887
0.458335  0.300811  0.161804
0.526894  0.319130  0.155679
0.598241  0.331254  0.143055
0.654827  0.330587  0.144191
0.724734  0.343102  0.145719
0.798826  0.348815  0.142612
0.865108  0.354484  0.136138
0.929995  0.365115  0.141308
0.131958  0.200433  0.225644
0.156380  0.224722  0.236126
0.196147  0.236785  0.223083
0.226533  0.258655  0.228740
0.287465  0.283182  0.209213
0.341628  0.303967  0.203723
0.400947  0.322148  0.197415
0.473686  0.344860  0.184067
0.532022  0.352119  0.174953
0.606770  0.363179  0.158956
0.664753  0.378884  0.160442
0.731917  0.385740  0.159094
0.799938  0.395617  0.153511
0.872327  0.407256  0.161808
0.944514  0.412956  0.151394
0.158277  0.225832  0.249594
0.192172  0.240360  0.234114
0.227809  0.270786  0.234758
0.262426  0.293907  0.231503
0.304499  0.322928  0.230508
0.360991  0.348062  0.219295
0.428856  0.366197  0.202361
0.486906  0.372157  0.210245
0.551837  0.387598  0.194800
0.603513  0.402013  0.188529
0.683233  0.415676  0.181552
0.740074  0.433321  0.175387
0.813030  0.440557  0.168346
0.879435  0.450316  0.168928
0.943613  0.462111  0.166044
0.188004  0.249359  0.256574
0.224821  0.277524  0.246948
0.261845  0.311305  0.242636
0.299159  0.335113  0.240735
0.332089  0.360132  0.231919
0.391362  0.387268  0.221261
0.439134  0.410920  0.212999
0.497392  0.424603  0.216995
0.560094  0.435071  0.209831
0.620071  0.445190  0.203922
0.687275  0.465340  0.193204
0.757435  0.473879  0.194868
0.822044  0.477489  0.186054
0.881342  0.499125  0.188694
0.954483  0.504067  0.177901
0.217530  0.282184  0.265851
0.261435  0.322360  0.250958
0.297759  0.354498  0.245980
0.329204  0.374511  0.240996
0.366266  0.411305  0.233205
0.414081  0.438552  0.215862
0.462749  0.463603  0.220691
0.509213  0.480062  0.220804
0.571711  0.487991  0.220194
0.635146  0.503034  0.213877
0.702482  0.522828  0.198132
0.774584  0.511415  0.205539
0.835371  0.535929  0.205360
0.896697  0.543529  0.198353
0.958764  0.559553  0.194429
0.245487  0.327441  0.249230
0.282129  0.356725  0.254406
0.320844  0.392240  0.248401
0.354254  0.415309  0.241357
0.397153  0.447394  0.235867
0.439578  0.477710  0.221159
0.480228  0.506311  0.219179
0.520914  0.526502  0.222590
0.582126  0.545472  0.219826
0.652757  0.551458  0.210664
0.720910  0.570813  0.209202
0.783717  0.580001  0.209279
0.833132  0.581680  0.210106
0.911795  0.594993  0.212599
0.982149  0.596345  0.209665
0.269678  0.378288  0.259933
0.314959  0.403859  0.248621
0.357388  0.433291  0.251454
0.384537  0.453655  0.239475
0.431614  0.491760  0.231506
0.470411  0.523499  0.231715
0.507965  0.542570  0.231989
0.554690  0.576866  0.223541
0.602181  0.606478  0.215247
0.665676  0.622876  0.212250
0.726464  0.629466  0.211883
0.792129  0.643811  0.210779
0.841323  0.646277  0.205417
