LUT/LUT_6.CUBE
TITLE "LUT_6" 
#LUT size 
LUT_3D_SIZE 8 
DOMAIN_MIN 0.0 0.0 0.0 
DOMAIN_MAX 1.0 1.0 1.0 
#data point 
0.026079  0.029559  0.009987
0.091947  0.080478  0.032274
0.230473  0.140382  0.025803
0.370480  0.166534  0.013059
0.494330  0.184051  0.007965
0.630009  0.200996  0.000836
0.771491  0.212669  -0.007585
0.907289  0.223738  -0.021296
0.081805  0.086602  0.042057
0.139989  0.124412  0.050811
0.266637  0.181998  0.038242
0.387817  0.218304  0.033030
0.511645  0.256159  0.028606
0.644033  0.278624  0.018577
0.779800  0.304151  0.016186
0.918690  0.313008  0.011986
0.152556  0.134873  0.062191
0.224886  0.193664  0.066945
0.303707  0.255967  0.044046
0.415726  0.295269  0.044143
0.541945  0.328815  0.039926
0.661907  0.357529  0.039152
0.799123  0.375187  0.033751
0.927434  0.405048  0.029103
0.226951  0.217434  0.068689
0.298322  0.283892  0.059200
0.357251  0.347206  0.052661
0.449950  0.388330  0.049101
0.565562  0.424570  0.046785
0.686871  0.458374  0.037481
0.821933  0.466471  0.043634
0.958525  0.485641  0.047363
0.292143  0.299277  0.074721
0.358107  0.368017  0.051620
0.429443  0.432649  0.048280
0.504796  0.489423  0.050132
0.596235  0.532642  0.046648
0.706435  0.572268  0.046401
0.846001  0.581655  0.045736
0.969384  0.604741  0.051661
0.345656  0.383398  0.060845
0.421797  0.450488  0.051777
0.502092  0.509430  0.046495
0.567515  0.568390  0.052256
0.657460  0.626764  0.044067
0.748512  0.668138  0.050930
0.854994  0.708314  0.050631
0.983077  0.731011  0.053613
0.406528  0.464165  0.061518
0.480200  0.520623  0.051213
0.551231  0.580810  0.046644
0.625986  0.629654  0.049156
0.714886  0.688620  0.052829
0.804062  0.734059  0.055383
0.896362  0.778570  0.054753
1.011642  0.830645  0.050905
0.460433  0.541472  0.052727
0.531961  0.586845  0.050725
0.615614  0.647667  0.051674
0.691736  0.694519  0.049149
0.770840  0.752443  0.050567
0.855135  0.794437  0.049988
0.952358  0.840918  0.059103
1.060485  0.895679  0.049378
0.062411  0.075829  0.062412
0.106955  0.108148  0.067801
0.219047  0.159404  0.052144
0.351057  0.191971  0.044007
0.492554  0.205314  0.046708
0.619589  0.208983  0.028146
0.757948  0.229783  0.028523
0.906268  0.235150  0.023956
0.086534  0.119895  0.118277
0.138472  0.155889  0.126742
0.242750  0.209795  0.105971
0.380406  0.245705  0.083278
0.506532  0.287415  0.081201
0.634319  0.313207  0.062699
0.776764  0.317939  0.053832
0.907543  0.329893  0.041594
0.137693  0.176034  0.169273
0.205649  0.219035  0.161569
0.298225  0.266344  0.144070
0.406739  0.309073  0.129098
0.525429  0.349765  0.112044
0.656256  0.382748  0.104991
0.796613  0.412744  0.093889
0.929409  0.430158  0.069413
0.203397  0.232978  0.186626
0.284916  0.290490  0.180580
0.355267  0.348819  0.155131
0.451139  0.397751  0.146714
0.557660  0.428997  0.129401
0.684178  0.460799  0.138521
0.824760  0.478304  0.133090
0.944240  0.515523  0.099558
0.268260  0.303774  0.191304
0.342373  0.366645  0.176173
0.416861  0.426598  0.176345
0.497200  0.496816  0.153592
0.592934  0.539160  0.131420
0.715895  0.565735  0.138031
0.838367  0.595525  0.140884
0.969231  0.612816  0.124838
0.330084  0.386493  0.192674
0.408651  0.448920  0.177080
0.479344  0.503741  0.165477
0.553258  0.564601  0.161102
0.644577  0.620417  0.137185
0.746052  0.669637  0.147138
0.845838  0.713026  0.141119
0.996948  0.733694  0.132684
0.393851  0.464060  0.181712
0.467079  0.516501  0.166810
0.539950  0.569007  0.169057
0.618235  0.635140  0.155592
0.707963  0.684132  0.143673
0.798295  0.732142  0.147480
0.900746  0.790876  0.137383
1.005996  0.823749  0.132346
0.438043  0.533797  0.180527
0.529890  0.595415  0.167435
0.606554  0.649161  0.158618
0.682486  0.691269  0.144210
0.766002  0.756080  0.143430
0.857074  0.801958  0.149076
0.942114  0.842716  0.146661
1.048857  0.896040  0.142843
0.079821  0.131978  0.145938
0.116559  0.157844  0.163785
0.207511  0.204189  0.151387
0.353002  0.228012  0.135070
0.495780  0.233127  0.124940
0.623023  0.243876  0.126574
0.764227  0.248927  0.132721
0.905985  0.245793  0.139000
0.114073  0.172210  0.197205
0.151949  0.206851  0.221058
0.231042  0.254874  0.232028
0.365937  0.294905  0.187542
0.506396  0.324549  0.165973
0.628848  0.340056  0.167156
0.766045  0.356855  0.152466
0.898202  0.368778  0.150368
0.150388  0.233576  0.257402
0.190860  0.261920  0.280408
0.262419  0.294159  0.269165
0.393359  0.355730  0.252561
0.521065  0.391707  0.225021
0.654904  0.422985  0.199902
0.785936  0.451254  0.191429
0.915519  0.468422  0.186353
0.189110  0.275476  0.310090
0.258084  0.314822  0.320316
0.327082  0.358777  0.304865
0.425714  0.412766  0.298755
0.553051  0.446248  0.268924
0.676506  0.487382  0.256196
0.803275  0.517986  0.234952
0.930869  0.546396  0.225529
0.233983  0.323235  0.347587
0.320377  0.378277  0.328523
0.405227  0.432647  0.318052
0.485609  0.497821  0.305929
0.590620  0.547696  0.290536
0.703552  0.573275  0.281699
0.841380  0.605521  0.273589
0.970401  0.629276  0.265186
0.307779  0.381184  0.357394
0.393030  0.450956  0.339199
0.467948  0.510022  0.321526
0.548610  0.567890  0.301468
0.642758  0.635529  0.303561
0.737146  0.683981  0.286421
0.857163  0.707517  0.280930
0.989580  0.730326  0.284515
0.361690  0.445732  0.343903
0.445672  0.512691  0.329247
0.531662  0.573544  0.318985
0.605105  0.630913  0.311263
0.703628  0.702928  0.310830
0.788412  0.744094  0.301769
0.898808  0.796773  0.269557
1.015418  0.826251  0.268630
0.420116  0.529346  0.336907
0.511015  0.589594  0.312545
0.591352  0.639595  0.296683
0.667914  0.694538  0.308743
0.752072  0.744221  0.300084
0.856437  0.813352  0.298051
0.939200  0.853199  0.299333
1.051865  0.904156  0.275908
0.095865  0.174409  0.214550
0.128854  0.209338  0.239029
0.211822  0.252125  0.249476
0.340193  0.284070  0.242097
0.482556  0.277028  0.220917
0.628372  0.270825  0.219026
0.768931  0.266729  0.232470
0.899109  0.257783  0.254391
0.134249  0.222619  0.262856
0.173802  0.258659  0.295424
0.235346  0.310070  0.319127
0.347980  0.344589  0.298978
0.497132  0.371261  0.266964
0.621849  0.379748  0.266798
0.756360  0.376101  0.254591
0.896203  0.390009  0.267625
0.178740  0.275552  0.321665
0.216890  0.307942  0.350677
0.271991  0.353179  0.384419
0.385710  0.406184  0.356304
0.497002  0.437991  0.341379
0.647929  0.465426  0.298093
0.772876  0.486089  0.292767
0.912581  0.501093  0.292524
0.215054  0.316946  0.379066
0.256556  0.365981  0.410837
0.304231  0.405145  0.438537
0.416594  0.445485  0.409979
0.527261  0.496584  0.386797
0.678158  0.530706  0.351438
0.792972  0.558625  0.345289
0.926302  0.596290  0.330396
0.255606  0.374622  0.431066
0.299720  0.406234  0.453473
0.370566  0.458233  0.462812
0.475390  0.505945  0.444375
0.559104  0.555194  0.458304
0.695827  0.597152  0.423952
0.822310  0.632238  0.397694
0.948732  0.662825  0.383937
0.287783  0.412486  0.469453
0.359899  0.460022  0.485913
0.457458  0.516859  0.463249
0.526389  0.567429  0.458631
0.623262  0.633439  0.450971
0.724613  0.690466  0.444368
0.849881  0.724187  0.430101
0.974158  0.732562  0.427204
0.336382  0.455843  0.506142
0.422658  0.511946  0.491421
0.517839  0.580139  0.469226
0.598858  0.633011  0.457098
0.685827  0.700612  0.443769
0.785645  0.754941  0.438608
0.887872  0.806154  0.440893
1.015531  0.834073  0.444427
0.386377  0.510427  0.514245
0.485223  0.575427  0.475692
0.579476  0.639801  0.467521
0.656217  0.690693  0.450876
0.761769  0.761614  0.444396
0.836619  0.801504  0.439002
0.938798  0.856997  0.459834
1.046225  0.915326  0.435414
0.075849  0.223379  0.325913
0.152435  0.266758  0.333546
0.222428  0.304983  0.336937
0.339379  0.312229  0.337115
0.483272  0.303324  0.344392
0.626107  0.292298  0.339165
0.786483  0.301105  0.335583
0.921737  0.282983  0.340043
0.145251  0.280778  0.358854
0.204172  0.316072  0.368508
0.252307  0.346773  0.386891
0.346682  0.393779  0.388479
0.472725  0.417520  0.378447
0.624526  0.413098  0.373004
0.766775  0.409163  0.349519
0.912749  0.412962  0.357376
0.191216  0.329039  0.413295
0.243927  0.362381  0.424235
0.290197  0.401624  0.453462
0.375442  0.451948  0.455395
0.488672  0.490435  0.432930
0.626862  0.518471  0.417244
0.768067  0.523823  0.397406
0.909094  0.523214  0.389594
0.236016  0.377804  0.449702
0.286974  0.415595  0.472361
0.335947  0.457375  0.508010
0.395965  0.497721  0.519566
0.514677  0.543663  0.498119
0.641646  0.584670  0.477911
0.780847  0.617013  0.452198
0.922959  0.630814  0.437929
0.275000  0.424928  0.497042
0.330011  0.461309  0.521732
0.383541  0.513897  0.563593
0.433440  0.555117  0.591754
0.564227  0.599914  0.550011
0.666987  0.643570  0.542330
0.810428  0.679990  0.500525
0.943877  0.710458  0.478966
0.308286  0.469806  0.546810
0.364924  0.504039  0.568332
0.426432  0.555146  0.603133
0.496536  0.598591  0.611038
0.606286  0.646669  0.589211
0.716891  0.706280  0.593259
0.833168  0.744424  0.570189
0.972617  0.780887  0.540018
0.347746  0.516776  0.588446
0.401207  0.555782  0.610878
0.480603  0.594060  0.624047
0.576693  0.644160  0.607778
0.684021  0.704019  0.592452
0.765253  0.759278  0.605164
0.883068  0.810546  0.588944
1.004714  0.851461  0.578952
0.382482  0.560515  0.639658
0.455625  0.595859  0.644711
0.556758  0.649036  0.624115
0.649562  0.693905  0.610128
0.744145  0.757065  0.594027
0.827529  0.809581  0.590119
0.932023  0.868478  0.593236
1.048406  0.915443  0.587892
0.048812  0.240674  0.491290
0.130856  0.276336  0.489915
0.209170  0.323847  0.470032
0.357616  0.332040  0.442686
0.489586  0.322644  0.441851
0.626785  0.319911  0.451828
0.766405  0.309394  0.459502
0.931702  0.301228  0.453030
0.097267  0.325292  0.504910
0.190582  0.373647  0.489324
0.264594  0.416320  0.487720
0.357448  0.439605  0.479981
0.477562  0.448884  0.477542
0.622207  0.448829  0.484958
0.764139  0.452662  0.488059
0.917825  0.439329  0.479248
0.160201  0.383880  0.527680
0.266126  0.424264  0.510657
0.318478  0.465866  0.534185
0.388931  0.498261  0.539207
0.479465  0.533615  0.528430
0.624739  0.561384  0.523237
0.760847  0.561963  0.510666
0.904313  0.567706  0.494424
0.219190  0.431074  0.552543
0.304691  0.474133  0.554963
0.367793  0.520785  0.585424
0.419628  0.551162  0.594463
0.496238  0.599863  0.602862
0.627516  0.627560  0.564721
0.768512  0.661243  0.555470
0.909024  0.683672  0.556529
0.264512  0.473733  0.597871
0.352524  0.524439  0.599499
0.412253  0.567111  0.624534
0.461815  0.607627  0.649456
0.534183  0.652125  0.670798
0.661076  0.693481  0.639144
0.789102  0.736095  0.615744
0.930486  0.772195  0.601479
0.314345  0.524702  0.636125
0.392140  0.567967  0.643057
0.448001  0.611860  0.665830
0.511880  0.656695  0.705252
0.576349  0.700733  0.723791
0.699671  0.743563  0.707238
0.823969  0.795221  0.674185
0.954627  0.828610  0.656594
0.353057  0.560286  0.678577
0.426944  0.612978  0.699964
0.489094  0.659924  0.731611
0.552735  0.692483  0.731027
0.635159  0.735853  0.747019
0.751419  0.783276  0.733834
0.871276  0.830110  0.722708
0.985783  0.876725  0.705471
0.395862  0.605199  0.728179
0.460340  0.650789  0.742105
0.511393  0.691206  0.768523
0.605846  0.729169  0.762156
0.708295  0.774886  0.757387
0.825664  0.818797  0.738758
0.924329  0.872080  0.741261
1.033266  0.922655  0.730573
0.048362  0.236442  0.633498
0.128300  0.289605  0.629102
0.203662  0.320534  0.652274
0.315779  0.347093  0.648724
0.481823  0.340798  0.592553
0.630588  0.324723  0.583440
0.770920  0.317422  0.588331
0.913727  0.313074  0.592712
0.093749  0.338081  0.631975
0.166825  0.381797  0.630491
0.250242  0.437679  0.635083
0.329747  0.477859  0.648430
0.470202  0.472850  0.606735
0.631659  0.465092  0.587919
0.771351  0.457833  0.597728
0.906952  0.448893  0.603195
0.139108  0.420996  0.631737
0.231637  0.470106  0.635226
0.311905  0.521128  0.640393
0.370374  0.567827  0.670815
0.478476  0.594708  0.646272
0.618381  0.601790  0.620545
0.755168  0.594847  0.626663
0.905561  0.593196  0.627095
0.211639  0.473370  0.648630
0.296455  0.519257  0.651067
0.378213  0.571587  0.670226
0.441355  0.623893  0.699495
0.506947  0.665102  0.723020
0.624484  0.678731  0.673169
0.768290  0.709575  0.651366
0.902949  0.723765  0.643140
0.266939  0.514401  0.679704
0.363260  0.563561  0.682984
0.434895  0.618527  0.698224
0.488331  0.665482  0.747564
0.544987  0.702923  0.788294
0.649035  0.742119  0.752565
0.780315  0.779382  0.713567
0.915302  0.812623  0.696299
0.317775  0.560683  0.721496
0.406206  0.607451  0.717824
0.476329  0.658613  0.753312
0.532444  0.705189  0.782331
0.590682  0.744375  0.828182
0.677471  0.797262  0.836004
0.806749  0.825536  0.788101
0.941033  0.872077  0.758058
0.360266  0.598674  0.762026
0.445917  0.648560  0.755873
0.508047  0.695917  0.790647
0.581520  0.743236  0.830320
0.642996  0.780159  0.855640
0.727572  0.840143  0.877030
0.833029  0.877174  0.860981
0.973745  0.922252  0.818961
0.401418  0.624642  0.795907
0.489079  0.686484  0.802481
0.560934  0.725084  0.824650
0.614267  0.770368  0.856178
0.689000  0.817894  0.882789
0.785161  0.884583  0.911269
0.902692  0.921795  0.887604
1.011250  0.958091  0.865676
0.045444  0.233950  0.765327
0.122227  0.276652  0.775545
0.221949  0.313260  0.785507
0.307358  0.340948  0.794050
0.444086  0.338828  0.796966
0.609515  0.338402  0.766723
0.784709  0.317428  0.740803
0.934589  0.323953  0.726099
0.086228  0.338638  0.768753
0.182632  0.386849  0.759035
0.261529  0.442947  0.772999
0.328544  0.469676  0.793923
0.443352  0.491175  0.802686
0.606199  0.490326  0.781398
0.751876  0.479590  0.750079
0.921388  0.464014  0.733827
0.142728  0.418012  0.754782
0.229782  0.482332  0.762119
0.312165  0.538987  0.772261
0.391244  0.592571  0.780298
0.465987  0.625097  0.803995
0.601145  0.643906  0.800577
0.752663  0.618733  0.764907
0.904815  0.618246  0.751010
0.204722  0.490739  0.756005
0.299985  0.543752  0.747320
0.384913  0.606732  0.755132
0.456603  0.656908  0.781289
0.522151  0.702211  0.813357
0.599197  0.754129  0.828364
0.726475  0.762472  0.822971
0.902313  0.752300  0.774761
0.261724  0.537887  0.779221
0.365563  0.595709  0.759531
0.447273  0.654013  0.768652
0.515638  0.696235  0.798094
0.567979  0.740897  0.832569
0.640423  0.785641  0.867505
0.735608  0.849395  0.891626
0.892418  0.865317  0.827333
0.310810  0.580546  0.806975
0.419490  0.641450  0.792600
0.498889  0.689126  0.800438
0.568315  0.735734  0.827604
0.622085  0.772224  0.861903
0.701081  0.824922  0.901219
0.789032  0.891440  0.930685
0.909778  0.924960  0.910600
0.355216  0.624047  0.862134
0.458390  0.675675  0.839168
0.548623  0.725823  0.837019
0.607908  0.767285  0.870354
0.671552  0.805889  0.887404
0.758605  0.865915  0.924035
0.841232  0.915913  0.950587
0.949233  0.969773  0.975981
0.392817  0.657441  0.895814
0.509219  0.712089  0.877132
0.579490  0.760088  0.875196
0.660324  0.805923  0.902119
0.720126  0.851624  0.925489
0.808933  0.904987  0.949336
0.892784  0.950447  0.968766
0.987571  0.991327  1.003088
