LUT/LUT_32.CUBE
TITLE "LUT_32" 
#LUT size 
LUT_3D_SIZE 8 
DOMAIN_MIN 0.0 0.0 0.0 
DOMAIN_MAX 1.0 1.0 1.0 
#data point 
0.077574  0.074029  0.029170
0.099038  0.093197  0.045249
0.173035  0.154416  0.076089
0.314149  0.237746  0.067409
0.413548  0.303673  0.063087
0.512539  0.368383  0.069423
0.615977  0.421354  0.053909
0.733259  0.483441  0.063635
0.110024  0.106106  0.054652
0.125178  0.118363  0.061785
0.222760  0.196601  0.089291
0.347992  0.278235  0.090775
0.461244  0.337055  0.084339
0.533799  0.396459  0.070217
0.648255  0.458570  0.069259
0.756605  0.524595  0.062868
0.147836  0.143286  0.079281
0.209528  0.192815  0.106446
0.292570  0.247913  0.094058
0.397466  0.313790  0.086721
0.492856  0.361909  0.073475
0.591979  0.443915  0.079841
0.690074  0.502218  0.069772
0.818736  0.562179  0.069274
0.224811  0.193367  0.085411
0.306610  0.257751  0.100462
0.385836  0.298402  0.086542
0.456982  0.342672  0.078183
0.555139  0.420312  0.079686
0.649138  0.482059  0.079557
0.734895  0.549920  0.081087
0.861742  0.614483  0.071512
0.300794  0.258908  0.120696
0.386515  0.298072  0.091518
0.471843  0.362348  0.095372
0.529368  0.404896  0.085779
0.617303  0.489452  0.078390
0.691345  0.561687  0.079798
0.800027  0.618552  0.086757
0.912013  0.691433  0.078134
0.384635  0.310306  0.113004
0.463171  0.377646  0.088209
0.558803  0.436142  0.092699
0.615373  0.489931  0.095921
0.703802  0.574371  0.073858
0.778188  0.640056  0.079481
0.857083  0.703508  0.082734
0.952088  0.754165  0.095192
0.470452  0.373867  0.094056
0.525414  0.419106  0.091558
0.626224  0.493545  0.083951
0.692081  0.571562  0.083524
0.759738  0.619941  0.092283
0.834295  0.675639  0.087979
0.910844  0.738024  0.084671
1.023571  0.790153  0.089081
0.540063  0.433938  0.095336
0.616063  0.507742  0.096996
0.694489  0.563815  0.083605
0.745666  0.609986  0.085489
0.810974  0.665392  0.080748
0.883552  0.707451  0.104227
0.967535  0.770475  0.090164
1.074792  0.830691  0.090516
0.099872  0.095908  0.046921
0.116330  0.112694  0.056719
0.185259  0.167935  0.087240
0.289373  0.232865  0.082315
0.408809  0.306756  0.072919
0.507688  0.371191  0.069615
0.615008  0.439302  0.072432
0.741165  0.486160  0.057579
0.135925  0.127025  0.069074
0.163955  0.160154  0.094899
0.221599  0.202110  0.110409
0.320968  0.268876  0.101827
0.435575  0.341261  0.089005
0.554208  0.405305  0.073753
0.677860  0.473384  0.067166
0.763863  0.516126  0.064581
0.150070  0.165448  0.125930
0.194785  0.207248  0.148057
0.282515  0.258893  0.152857
0.389495  0.324688  0.122345
0.490142  0.383110  0.118326
0.597970  0.443286  0.109901
0.689039  0.506052  0.091864
0.808397  0.581745  0.088562
0.208089  0.222728  0.183175
0.269828  0.271914  0.191555
0.338093  0.299472  0.168028
0.451796  0.370622  0.158105
0.533313  0.412310  0.130375
0.632424  0.493266  0.132899
0.748929  0.557856  0.128126
0.848689  0.630315  0.094657
0.288768  0.280961  0.205175
0.340748  0.307522  0.184192
0.437058  0.373018  0.195889
0.533467  0.440580  0.168756
0.624105  0.494752  0.117161
0.713439  0.572104  0.101625
0.801840  0.621664  0.119520
0.915540  0.685689  0.121066
0.365569  0.331992  0.195694
0.437291  0.384199  0.201958
0.509702  0.427028  0.160373
0.582593  0.482679  0.151791
0.691622  0.570913  0.118389
0.767000  0.627014  0.112852
0.867174  0.703692  0.130138
0.979210  0.755687  0.137821
0.429562  0.380249  0.207606
0.522009  0.429989  0.173932
0.592302  0.488280  0.182388
0.683721  0.553239  0.126156
0.755248  0.617455  0.129453
0.834299  0.686753  0.129403
0.910190  0.741241  0.118201
0.994245  0.780788  0.125505
0.504382  0.429712  0.212554
0.598964  0.492778  0.164574
0.679456  0.557287  0.163753
0.761140  0.624398  0.134481
0.815634  0.680465  0.130682
0.896206  0.739133  0.116798
0.968291  0.772107  0.137419
1.068305  0.831395  0.137918
0.137132  0.143450  0.101277
0.152287  0.158705  0.123831
0.185337  0.192614  0.140423
0.315836  0.262441  0.126536
0.428244  0.329503  0.092122
0.531274  0.389420  0.093209
0.630979  0.456808  0.082757
0.716347  0.505148  0.079240
0.163018  0.176575  0.150299
0.189949  0.217410  0.193304
0.228870  0.255800  0.216556
0.340524  0.305189  0.177895
0.471485  0.376581  0.145909
0.540037  0.414768  0.139231
0.658804  0.484895  0.105384
0.775703  0.557192  0.104274
0.205741  0.247362  0.226049
0.220471  0.269324  0.254438
0.243122  0.274696  0.244735
0.365562  0.356460  0.257419
0.485915  0.418646  0.229452
0.590275  0.465886  0.150663
0.698255  0.536861  0.146194
0.808016  0.606640  0.140966
0.221719  0.276559  0.271644
0.265137  0.320328  0.323076
0.319329  0.351272  0.319741
0.414358  0.402731  0.315069
0.521708  0.450930  0.260321
0.624992  0.505789  0.221756
0.758410  0.588405  0.202850
0.843812  0.633787  0.196614
0.260015  0.317434  0.322643
0.325842  0.370912  0.343224
0.392606  0.400653  0.334501
0.478879  0.456906  0.336356
0.575971  0.497848  0.293263
0.697587  0.575488  0.281695
0.823385  0.646441  0.235762
0.919445  0.699867  0.236545
0.308077  0.364368  0.351628
0.392232  0.424305  0.373122
0.476718  0.451210  0.336577
0.554959  0.507481  0.329775
0.661939  0.574677  0.324283
0.764707  0.637879  0.273026
0.854010  0.696190  0.261222
0.959914  0.755207  0.259820
0.350089  0.395865  0.366804
0.453835  0.452419  0.364869
0.560302  0.505665  0.332398
0.633953  0.559319  0.341504
0.737066  0.624308  0.319357
0.813372  0.674537  0.296018
0.915812  0.736364  0.266338
1.011251  0.805877  0.241303
0.437958  0.454901  0.384975
0.551096  0.515538  0.348114
0.628792  0.557608  0.329402
0.720110  0.615688  0.315192
0.796849  0.665863  0.301233
0.905804  0.736941  0.274926
0.962456  0.775200  0.274134
1.083469  0.839909  0.251307
0.162321  0.189653  0.165499
0.177509  0.218546  0.203809
0.224989  0.258590  0.229411
0.277946  0.301185  0.245368
0.447497  0.366224  0.166316
0.537430  0.428582  0.144741
0.645505  0.478184  0.133682
0.737521  0.540182  0.139063
0.192310  0.233309  0.212194
0.222646  0.266093  0.252203
0.255323  0.305879  0.290522
0.327911  0.350483  0.298481
0.465018  0.407141  0.230179
0.559149  0.456320  0.198429
0.676689  0.525491  0.184166
0.781919  0.586606  0.179166
0.232013  0.281777  0.268727
0.262397  0.317069  0.315446
0.286094  0.353013  0.358782
0.390334  0.418364  0.369273
0.458230  0.462904  0.363144
0.589122  0.508239  0.273314
0.707105  0.575543  0.260529
0.828095  0.646716  0.247614
0.266695  0.329554  0.335815
0.285647  0.373270  0.380850
0.317256  0.398962  0.419553
0.389147  0.437245  0.404975
0.501528  0.492369  0.409701
0.633917  0.560717  0.345840
0.734647  0.619894  0.325804
0.858132  0.682761  0.296646
0.312095  0.391423  0.402785
0.343477  0.435320  0.455810
0.367653  0.446676  0.456296
0.468880  0.504912  0.450001
0.557050  0.562903  0.477950
0.645287  0.592273  0.425499
0.777274  0.666805  0.393401
0.906603  0.742976  0.360844
0.333635  0.429113  0.451577
0.362804  0.459265  0.475858
0.441579  0.484717  0.458074
0.517237  0.545409  0.485785
0.598946  0.592343  0.492055
0.712054  0.658474  0.483607
0.862884  0.735194  0.436308
0.933293  0.782118  0.432370
0.360657  0.467102  0.492986
0.430251  0.506597  0.501813
0.516613  0.538338  0.474132
0.584328  0.586485  0.500731
0.685577  0.649569  0.490988
0.806232  0.711122  0.467999
0.904368  0.764577  0.465380
0.993715  0.816362  0.485453
0.400964  0.506899  0.529818
0.484260  0.531240  0.492394
0.559192  0.581181  0.513129
0.665950  0.639407  0.487787
0.789840  0.702637  0.479311
0.866821  0.746768  0.464263
0.967473  0.810720  0.489837
1.049605  0.854313  0.492905
0.187050  0.230442  0.217440
0.228971  0.277496  0.273864
0.251928  0.302691  0.297623
0.302635  0.340500  0.316057
0.404796  0.397294  0.300131
0.543386  0.461580  0.244155
0.664072  0.525487  0.209611
0.758936  0.562786  0.175918
0.235422  0.292703  0.282798
0.245077  0.313155  0.317533
0.286500  0.357156  0.366926
0.345496  0.405487  0.401432
0.419535  0.440321  0.387941
0.554774  0.494204  0.330476
0.677042  0.549372  0.270053
0.782935  0.613884  0.252056
0.267830  0.338361  0.346735
0.299664  0.379080  0.390271
0.317606  0.404470  0.425069
0.380753  0.461207  0.460719
0.463352  0.497448  0.453696
0.563444  0.549517  0.433228
0.711252  0.614705  0.376062
0.823656  0.668698  0.333276
0.295197  0.381789  0.398700
0.334079  0.421575  0.440668
0.360840  0.457016  0.489128
0.384707  0.491265  0.523492
0.497837  0.539853  0.491860
0.602836  0.596027  0.500792
0.730926  0.664675  0.456553
0.857449  0.709697  0.394970
0.332740  0.428772  0.456458
0.361659  0.472262  0.502890
0.399829  0.514602  0.535519
0.453605  0.562283  0.583621
0.532673  0.594417  0.572906
0.638845  0.653512  0.578274
0.777076  0.709539  0.524288
0.919347  0.776543  0.480609
0.365922  0.473164  0.499824
0.400364  0.507904  0.535008
0.441501  0.558868  0.583577
0.481728  0.596590  0.621937
0.580890  0.624706  0.586527
0.697818  0.714071  0.634023
0.816939  0.756824  0.599577
0.940044  0.806570  0.550333
0.411708  0.523191  0.551097
0.442152  0.555401  0.583123
0.478203  0.600587  0.633282
0.554266  0.629771  0.614245
0.682075  0.691511  0.613573
0.776304  0.744261  0.634273
0.886354  0.804768  0.621654
0.999822  0.845794  0.602391
0.447737  0.569153  0.605602
0.477610  0.603753  0.636754
0.534530  0.631815  0.631737
0.651856  0.684801  0.632866
0.734700  0.726239  0.631819
0.850098  0.782490  0.626585
0.945720  0.837021  0.635301
1.042433  0.879394  0.611942
0.246282  0.307365  0.308874
0.266356  0.328128  0.337590
0.287729  0.369123  0.375326
0.324081  0.392737  0.396667
0.418406  0.439780  0.384214
0.515721  0.498355  0.369655
0.638955  0.533573  0.297836
0.768030  0.600100  0.270239
0.267729  0.348146  0.371562
0.301935  0.387846  0.410893
0.317647  0.409438  0.430946
0.360998  0.452646  0.465928
0.454655  0.504187  0.477726
0.554935  0.556097  0.465763
0.677216  0.600407  0.404871
0.802443  0.652846  0.365417
0.311002  0.395880  0.418956
0.340284  0.435613  0.447906
0.378770  0.483643  0.509201
0.403802  0.507505  0.529044
0.463177  0.538644  0.533997
0.584712  0.607849  0.543275
0.684178  0.635365  0.475864
0.829116  0.715045  0.452907
0.330699  0.433094  0.469497
0.377389  0.471880  0.488941
0.416955  0.529871  0.557950
0.421990  0.550499  0.586704
0.481705  0.600211  0.622167
0.611601  0.645165  0.585892
0.729420  0.695775  0.548302
0.843054  0.756225  0.558994
0.378476  0.492534  0.522282
0.417331  0.531329  0.563006
0.449848  0.573558  0.605786
0.479162  0.602475  0.633442
0.531914  0.656882  0.685445
0.649183  0.694459  0.652626
0.748946  0.732059  0.627950
0.910308  0.805901  0.599283
0.407985  0.525988  0.557451
0.448275  0.570021  0.602884
0.482921  0.612640  0.648651
0.516326  0.642525  0.677851
0.571799  0.698632  0.730964
0.690077  0.746704  0.725848
0.821199  0.801946  0.696872
0.936037  0.844691  0.676082
0.454300  0.575971  0.610951
0.497264  0.619689  0.650688
0.546216  0.663099  0.691730
0.571253  0.697435  0.724376
0.634419  0.741911  0.767829
0.730406  0.789223  0.762457
0.865865  0.834767  0.744242
0.975297  0.871313  0.707136
0.492626  0.616477  0.645076
0.524348  0.643649  0.672182
0.569269  0.695632  0.735233
0.599507  0.723854  0.754179
0.695656  0.785087  0.796253
0.819178  0.821991  0.750092
0.911555  0.862307  0.750492
1.028656  0.908381  0.739739
0.283981  0.372496  0.394535
0.311523  0.394197  0.409016
0.340916  0.435412  0.458195
0.365595  0.464759  0.503501
0.418221  0.485922  0.478018
0.510960  0.528714  0.470505
0.627071  0.573984  0.413960
0.771311  0.644033  0.384561
0.314475  0.410437  0.437009
0.337458  0.443302  0.474943
0.360276  0.465475  0.500686
0.405100  0.520907  0.556845
0.444037  0.550318  0.572614
0.549047  0.579369  0.528478
0.655009  0.637958  0.524706
0.796863  0.709447  0.468815
0.346830  0.448040  0.479059
0.378600  0.486894  0.519844
0.404347  0.525033  0.556919
0.448310  0.564337  0.596469
0.487088  0.606561  0.636968
0.593579  0.650018  0.613210
0.692663  0.698989  0.613748
0.808700  0.755823  0.572087
0.379275  0.488762  0.524310
0.402510  0.515874  0.546155
0.463019  0.581824  0.616200
0.495923  0.617534  0.654534
0.533051  0.665091  0.701727
0.591785  0.694570  0.689922
0.748840  0.741969  0.649230
0.860336  0.791969  0.644034
0.412601  0.523930  0.558423
0.465994  0.579784  0.613813
0.494010  0.617957  0.644015
0.537832  0.667224  0.700173
0.591988  0.724884  0.768970
0.628928  0.738072  0.755870
0.764498  0.778598  0.714409
0.899157  0.839432  0.705763
0.452163  0.574488  0.610983
0.491714  0.620679  0.662004
0.534704  0.666153  0.700413
0.597775  0.728791  0.770544
0.633556  0.759852  0.807739
0.684614  0.805404  0.846990
0.796047  0.836621  0.815006
0.925351  0.869277  0.760990
0.493706  0.619543  0.653580
0.535763  0.658297  0.689394
0.571179  0.699643  0.745443
0.633139  0.759170  0.811213
0.678327  0.793929  0.841289
0.732722  0.845886  0.885905
0.837191  0.887982  0.897066
0.964035  0.909415  0.798927
0.527375  0.662166  0.694569
0.573388  0.698914  0.735221
0.602613  0.739298  0.792335
0.678857  0.798056  0.848064
0.720873  0.836688  0.878143
0.799854  0.884416  0.916422
0.873737  0.918815  0.929254
1.002899  0.950952  0.861619
0.317143  0.421350  0.449463
0.337101  0.448486  0.483147
0.382687  0.495128  0.529053
0.409636  0.535237  0.571936
0.458922  0.577107  0.613919
0.506303  0.590711  0.577315
0.633807  0.642670  0.549375
0.786013  0.703245  0.490653
0.347446  0.448609  0.485188
0.370600  0.486978  0.529957
0.422987  0.543431  0.582608
0.460813  0.583596  0.619600
0.496806  0.621659  0.655389
0.551258  0.658885  0.677521
0.639507  0.681138  0.633842
0.789410  0.737094  0.578132
0.378525  0.493890  0.538169
0.414601  0.536725  0.572747
0.460673  0.585805  0.627255
0.511751  0.638721  0.674585
0.546201  0.680514  0.717812
0.595778  0.721111  0.758389
0.700361  0.739405  0.699928
0.829178  0.796316  0.667697
0.424024  0.540322  0.571281
0.452515  0.579240  0.615589
0.503433  0.630165  0.668318
0.562801  0.690824  0.719814
0.582760  0.717021  0.765601
0.630280  0.760143  0.805945
0.691144  0.794978  0.815054
0.853220  0.834540  0.739138
0.445997  0.576396  0.609513
0.496102  0.622973  0.653037
0.542840  0.669494  0.703513
0.582076  0.719439  0.769284
0.627298  0.754714  0.796961
0.678643  0.800032  0.851090
0.758133  0.855767  0.896364
0.861392  0.884186  0.841845
0.481879  0.609213  0.642434
0.524775  0.652462  0.680845
0.577505  0.708195  0.745332
0.618870  0.750573  0.804744
0.654273  0.776816  0.830747
0.737551  0.845890  0.886910
0.806087  0.891913  0.932844
0.884696  0.927844  0.936824
0.528459  0.659158  0.694491
0.573638  0.710291  0.747182
0.605977  0.740974  0.788934
0.651696  0.778159  0.819383
0.713348  0.824487  0.868862
0.782747  0.871349  0.915328
0.845391  0.919550  0.952987
0.913913  0.951899  0.965764
0.571307  0.694413  0.730775
0.585279  0.725349  0.778172
0.636134  0.767331  0.817975
0.701479  0.821469  0.861778
0.755948  0.859267  0.903095
0.830877  0.909416  0.936213
0.891201  0.939015  0.962847
0.945180  0.968794  0.987516
