LUT/LUT_17.CUBE
TITLE "LUT_17" 
#LUT size 
LUT_3D_SIZE 15 
DOMAIN_MIN 0.0 0.0 0.0 
DOMAIN_MAX 1.0 1.0 1.0 
#data point 
0.051331  0.052407  0.027584
0.069805  0.067365  0.027269
0.096828  0.090249  0.045738
0.137296  0.122958  0.055819
0.198691  0.166350  0.064085
0.249709  0.193997  0.057990
0.321977  0.233159  0.047891
0.368891  0.241662  0.048986
0.433764  0.281763  0.048821
0.493101  0.306423  0.039432
0.543421  0.323397  0.038954
0.592380  0.345067  0.043112
0.666748  0.373277  0.043307
0.724849  0.384316  0.040834
0.800171  0.405702  0.039798
0.065041  0.064370  0.032227
0.086325  0.079786  0.033210
0.111032  0.101032  0.049213
0.159649  0.136468  0.054652
0.210274  0.180242  0.069541
0.276915  0.211512  0.059022
0.335461  0.249151  0.059110
0.400831  0.271340  0.052512
0.450327  0.300312  0.045368
0.488723  0.311326  0.042163
0.565664  0.344187  0.051254
0.629527  0.369033  0.048978
0.694490  0.386921  0.045592
0.756542  0.409656  0.042097
0.811298  0.429937  0.047451
0.102668  0.096505  0.045654
0.094132  0.093007  0.045563
0.133767  0.119430  0.059504
0.171094  0.152212  0.070803
0.246019  0.197689  0.063916
0.292770  0.223857  0.063180
0.366809  0.265837  0.062813
0.406821  0.288795  0.056527
0.471300  0.318410  0.058719
0.527149  0.334132  0.053954
0.573231  0.361028  0.050229
0.646327  0.396912  0.047196
0.699553  0.413101  0.049165
0.772335  0.427902  0.053535
0.823176  0.454677  0.053238
0.115185  0.112462  0.061764
0.134947  0.121521  0.064663
0.163194  0.148864  0.070214
0.216692  0.184080  0.078997
0.283911  0.226828  0.073044
0.326788  0.251899  0.063385
0.382872  0.277560  0.062818
0.443732  0.306368  0.048120
0.491608  0.331582  0.050941
0.539571  0.353954  0.050061
0.595874  0.383638  0.051640
0.665801  0.401597  0.050858
0.715855  0.431765  0.048362
0.786972  0.440993  0.049597
0.851752  0.481849  0.047814
0.143841  0.133957  0.068162
0.180726  0.162323  0.078075
0.223684  0.188417  0.083819
0.257002  0.211026  0.076414
0.305119  0.238672  0.072868
0.361376  0.277824  0.084030
0.404624  0.297343  0.071715
0.460499  0.335821  0.057620
0.522235  0.356177  0.061571
0.568950  0.380420  0.053548
0.615024  0.415813  0.060744
0.696714  0.444432  0.054614
0.738821  0.457719  0.059198
0.809082  0.477711  0.052981
0.870573  0.502000  0.054635
0.178334  0.168518  0.095017
0.215609  0.190050  0.079714
0.254145  0.211050  0.084105
0.317115  0.244725  0.071443
0.340592  0.275189  0.070672
0.374868  0.294045  0.079297
0.436442  0.333152  0.068668
0.489383  0.367175  0.074334
0.526676  0.383292  0.059190
0.566006  0.403884  0.054818
0.643593  0.442566  0.056987
0.688868  0.461227  0.067092
0.768860  0.478228  0.055824
0.821050  0.509084  0.058119
0.877557  0.531676  0.061222
0.227530  0.198479  0.083194
0.263895  0.226027  0.087104
0.305730  0.251238  0.090546
0.345782  0.288320  0.090085
0.378323  0.306774  0.069560
0.429232  0.341003  0.079618
0.458771  0.361518  0.071608
0.509297  0.401422  0.074306
0.557060  0.419574  0.062264
0.622847  0.465390  0.064904
0.665432  0.486785  0.058048
0.712182  0.490637  0.064060
0.770987  0.521482  0.051775
0.834975  0.534653  0.061383
0.908060  0.558734  0.064867
0.278155  0.240520  0.099215
0.309144  0.263130  0.088494
0.340822  0.273254  0.081016
0.391125  0.311947  0.074976
0.422701  0.352936  0.080056
0.464527  0.384166  0.066550
0.492184  0.403237  0.071219
0.531188  0.428362  0.072237
0.583120  0.466695  0.066732
0.636866  0.500198  0.057190
0.694844  0.515825  0.064492
0.744984  0.546384  0.071770
0.800505  0.566355  0.068111
0.860967  0.578640  0.065285
0.930410  0.607508  0.064970
0.302679  0.249968  0.106462
0.350311  0.294377  0.082242
0.378690  0.312730  0.068791
0.414636  0.337517  0.073263
0.461624  0.387064  0.080438
0.492279  0.407206  0.076682
0.526540  0.444156  0.069641
0.585559  0.478228  0.076073
0.610284  0.510309  0.073026
0.662814  0.547310  0.064708
0.698461  0.567119  0.069733
0.751180  0.590005  0.071021
0.822057  0.605891  0.068414
0.863993  0.639428  0.069868
0.937785  0.653695  0.062166
0.365262  0.303755  0.097223
0.391343  0.325394  0.084155
0.417415  0.354391  0.076079
0.460698  0.380632  0.079128
0.493164  0.423143  0.069480
0.527885  0.439544  0.070798
0.566872  0.479734  0.068572
0.614244  0.513423  0.073238
0.650619  0.550574  0.056575
0.688761  0.577751  0.069530
0.733317  0.614911  0.066957
0.772557  0.633114  0.057437
0.826313  0.663849  0.075476
0.890440  0.667291  0.070583
0.943684  0.698359  0.070774
0.378767  0.327237  0.091657
0.429015  0.346904  0.085525
0.457391  0.394744  0.077699
0.487464  0.421145  0.075454
0.543965  0.454958  0.078709
0.567778  0.486669  0.074074
0.605440  0.509754  0.084258
0.649993  0.557071  0.064610
0.693549  0.590065  0.066534
0.720878  0.613670  0.068958
0.769891  0.653112  0.065405
0.803326  0.667191  0.068170
0.860787  0.701794  0.078086
0.915507  0.723466  0.066170
0.959576  0.736943  0.076437
0.428152  0.361760  0.084911
0.454929  0.382831  0.088176
0.492478  0.422090  0.077875
0.524570  0.449834  0.068193
0.566510  0.489105  0.070166
0.619327  0.519149  0.061165
0.635931  0.550727  0.067815
0.668740  0.577199  0.059092
0.719871  0.616027  0.073591
0.756082  0.642595  0.063665
0.793438  0.677593  0.072567
0.842816  0.701263  0.069791
0.886794  0.728703  0.063334
0.928648  0.766479  0.080542
0.988732  0.780953  0.067787
0.452222  0.392498  0.079093
0.486994  0.422705  0.075411
0.527089  0.451114  0.069159
0.557694  0.494075  0.061473
0.603027  0.524589  0.072876
0.637164  0.555688  0.079555
0.672325  0.587593  0.067469
0.710986  0.606056  0.072369
0.755779  0.642022  0.071824
0.779342  0.662463  0.067306
0.824918  0.695098  0.067446
0.879609  0.728182  0.079297
0.911099  0.756506  0.078561
0.953323  0.783136  0.069039
1.022396  0.808537  0.078352
0.499925  0.433712  0.070074
0.535521  0.474227  0.071625
0.568139  0.504718  0.069381
0.608361  0.524873  0.073311
0.641596  0.558317  0.068474
0.670998  0.577934  0.061187
0.707613  0.607727  0.071155
0.748909  0.641343  0.061215
0.775757  0.666446  0.072898
0.811397  0.681057  0.072767
0.855353  0.710481  0.070947
0.901569  0.741024  0.071754
0.944147  0.774886  0.073715
0.979833  0.800286  0.074092
1.025992  0.820715  0.071284
0.531202  0.463820  0.076471
0.556812  0.492935  0.069666
0.596558  0.523904  0.070606
0.640683  0.555629  0.066181
0.671844  0.588695  0.072251
0.697050  0.611199  0.073230
0.733640  0.634460  0.077804
0.771914  0.662188  0.070434
0.804671  0.690201  0.067558
0.848567  0.716386  0.074939
0.887648  0.732169  0.085010
0.922122  0.770053  0.080422
0.972753  0.789176  0.083420
1.027360  0.817677  0.075036
1.074955  0.848079  0.082113
0.068023  0.062885  0.034571
0.080065  0.075281  0.031659
0.099443  0.092462  0.046893
0.127093  0.115254  0.052825
0.184601  0.158468  0.068423
0.248025  0.191800  0.056450
0.322837  0.235463  0.056373
0.373570  0.256984  0.052831
0.437853  0.284638  0.043052
0.482279  0.297753  0.043408
0.554346  0.332199  0.044768
0.602954  0.354377  0.042819
0.675785  0.367585  0.039122
0.727784  0.388763  0.044080
0.788998  0.404173  0.041238
0.085624  0.081165  0.046125
0.089213  0.088361  0.040046
0.118181  0.106990  0.048145
0.165476  0.148481  0.067464
0.215084  0.185813  0.069799
0.287866  0.223346  0.056856
0.340282  0.247941  0.055099
0.385240  0.276766  0.054912
0.446866  0.298543  0.048517
0.513167  0.321016  0.046686
0.558828  0.341122  0.046342
0.624328  0.376418  0.042295
0.694622  0.398476  0.041661
0.752111  0.407030  0.045434
0.810676  0.437202  0.045045
0.095957  0.094546  0.051773
0.109040  0.105077  0.062959
0.146784  0.135925  0.072405
0.177520  0.164036  0.079897
0.232056  0.198755  0.075506
0.306133  0.239205  0.072557
0.348536  0.262101  0.060970
0.416439  0.289079  0.059793
0.464902  0.314708  0.049883
0.517195  0.336683  0.052438
0.584421  0.374015  0.052151
0.639399  0.388305  0.050848
0.717857  0.413578  0.044966
0.768789  0.442371  0.048772
0.839553  0.460722  0.054644
0.122939  0.124567  0.078453
0.143645  0.134005  0.074617
0.167693  0.163191  0.095725
0.209199  0.187887  0.094387
0.257727  0.219119  0.083324
0.330636  0.255493  0.070329
0.377737  0.276851  0.075305
0.435302  0.319588  0.081507
0.485983  0.341427  0.064652
0.532892  0.364021  0.059798
0.597943  0.387438  0.062080
0.662270  0.418596  0.057193
0.721654  0.435783  0.051890
0.781199  0.456012  0.049535
0.844219  0.479145  0.053314
0.150801  0.150029  0.091862
0.179931  0.166464  0.092440
0.209889  0.189620  0.102702
0.245641  0.217611  0.092601
0.307145  0.251851  0.099738
0.351390  0.263430  0.086758
0.407711  0.306193  0.080437
0.448504  0.328122  0.069816
0.506580  0.367375  0.077645
0.558977  0.394565  0.076890
0.609320  0.405732  0.058164
0.684532  0.440165  0.059191
0.744186  0.467211  0.064283
0.795990  0.478082  0.059621
0.853169  0.508846  0.060244
0.181719  0.175610  0.104673
0.222596  0.193808  0.108423
0.254972  0.233322  0.121075
0.292955  0.246494  0.120495
0.340618  0.276773  0.087872
0.389099  0.308016  0.091555
0.456538  0.341150  0.086634
0.468930  0.363720  0.094367
0.529179  0.388469  0.071877
0.580770  0.420997  0.079676
0.641567  0.442265  0.073800
0.694721  0.475215  0.067308
0.753977  0.480346  0.064780
0.823663  0.515545  0.059663
0.889224  0.547885  0.058406
0.231645  0.223359  0.141742
0.271371  0.235542  0.111230
0.293053  0.258750  0.126911
0.334863  0.280421  0.120785
0.383414  0.310221  0.099533
0.426437  0.352547  0.090176
0.458095  0.369925  0.087019
0.515183  0.401849  0.094674
0.553419  0.418475  0.090470
0.593618  0.449097  0.085760
0.669886  0.483959  0.075166
0.722122  0.501937  0.067025
0.778686  0.525241  0.068305
0.854313  0.548325  0.061984
0.903178  0.572155  0.059658
0.261621  0.232428  0.130524
0.294032  0.262308  0.131721
0.338463  0.293324  0.128893
0.375771  0.316255  0.124574
0.422585  0.347712  0.092393
0.460435  0.375362  0.100965
0.504681  0.410486  0.092352
0.550333  0.440808  0.080242
0.591167  0.463150  0.081050
0.623749  0.490256  0.088196
0.680580  0.520891  0.070286
0.738781  0.534811  0.068185
0.801577  0.561629  0.067037
0.860094  0.588525  0.072532
0.934101  0.601418  0.074736
0.306255  0.268010  0.121448
0.341838  0.297771  0.138189
0.374455  0.316441  0.119440
0.399831  0.346561  0.120618
0.450378  0.380104  0.107153
0.496725  0.413949  0.090959
0.532887  0.442436  0.094592
0.573452  0.474443  0.079770
0.609686  0.513122  0.087165
0.667753  0.555803  0.091232
0.718340  0.566836  0.083374
0.761822  0.583312  0.089298
0.817155  0.608206  0.078901
0.884522  0.644393  0.083079
0.935144  0.641825  0.069741
0.332619  0.289176  0.127605
0.398210  0.329329  0.126382
0.423388  0.362842  0.126365
0.456817  0.384036  0.100263
0.491098  0.421414  0.105015
0.539438  0.453516  0.088896
0.580022  0.493983  0.096906
0.608626  0.515343  0.090722
0.653233  0.551944  0.085137
0.683394  0.578691  0.076163
0.743499  0.626375  0.080742
0.777979  0.637022  0.066879
0.829283  0.658267  0.076732
0.892470  0.675060  0.077229
0.959186  0.701603  0.075525
0.374126  0.322946  0.133850
0.393005  0.348439  0.131629
0.440561  0.387120  0.125281
0.500446  0.428686  0.105087
0.533415  0.452748  0.094509
0.570255  0.491498  0.091693
0.624984  0.530044  0.091063
0.651987  0.557990  0.081634
0.692252  0.586157  0.092221
0.717406  0.617798  0.082622
0.773444  0.637920  0.080771
0.813023  0.673624  0.083727
0.852449  0.697819  0.068582
0.916371  0.719793  0.078414
0.963568  0.729374  0.083554
0.406475  0.347772  0.135065
0.451342  0.384956  0.117515
0.496927  0.436492  0.106759
0.528157  0.450631  0.091180
0.563782  0.493010  0.103455
0.605226  0.523456  0.097541
0.627773  0.541335  0.095522
0.673398  0.579592  0.099032
0.706394  0.606383  0.091064
0.735171  0.633055  0.083969
0.794543  0.669199  0.072856
0.839628  0.697200  0.090718
0.891681  0.733570  0.080511
0.925026  0.758863  0.081882
0.985647  0.779117  0.075896
0.463537  0.394518  0.124977
0.508281  0.437388  0.080516
0.532071  0.454901  0.102811
0.577663  0.497461  0.092401
0.595893  0.517674  0.097469
0.638941  0.549940  0.095902
0.677337  0.592717  0.098105
0.692317  0.604666  0.092651
0.752055  0.637790  0.097548
0.787467  0.667284  0.100052
0.823868  0.690702  0.083804
0.873221  0.735416  0.088569
0.909556  0.747348  0.082605
0.973244  0.781328  0.088277
1.007721  0.801327  0.081903
0.477663  0.421076  0.115731
0.505809  0.452096  0.098226
0.564204  0.485948  0.087901
0.582703  0.508951  0.087781
0.640393  0.558186  0.084415
0.667086  0.577543  0.078126
0.689280  0.607604  0.102783
0.746534  0.646804  0.090089
0.778455  0.663327  0.083367
0.809607  0.689933  0.097883
0.857714  0.722923  0.086202
0.892144  0.739199  0.095178
0.939947  0.773010  0.099402
0.988200  0.799707  0.079214
1.035230  0.827262  0.075061
0.530533  0.468004  0.122971
0.554368  0.497425  0.086371
0.580650  0.507946  0.103404
0.626258  0.544415  0.088041
0.653297  0.574658  0.088575
0.702500  0.607521  0.097381
0.733658  0.638584  0.086942
0.779130  0.671599  0.092883
0.800944  0.681484  0.096389
0.847900  0.714297  0.095585
0.890458  0.743420  0.096238
0.912309  0.763670  0.090874
0.975979  0.804006  0.094373
1.020395  0.820612  0.085575
1.075947  0.859674  0.099852
0.086425  0.085610  0.040954
0.100972  0.101670  0.055666
0.114583  0.107506  0.060908
0.153778  0.143450  0.071481
0.197365  0.167222  0.078953
0.261838  0.206634  0.069557
0.315600  0.234748  0.057497
0.385918  0.266127  0.053229
0.444095  0.291561  0.052835
0.482911  0.309592  0.052460
0.541020  0.331078  0.044810
0.611074  0.358046  0.048622
0.657684  0.378971  0.042926
0.752419  0.401215  0.046006
0.796592  0.407534  0.039117
0.109632  0.111806  0.073626
0.117826  0.116339  0.075730
0.133564  0.133220  0.087072
0.165533  0.160597  0.092883
0.219458  0.200264  0.101701
0.289864  0.233118  0.079732
0.337146  0.262767  0.065951
0.387545  0.279709  0.069574
0.455545  0.310314  0.059674
0.509422  0.337536  0.060268
0.566957  0.365630  0.048669
0.627718  0.380486  0.051948
0.682666  0.403596  0.051265
0.768889  0.428551  0.044048
0.814649  0.441294  0.046665
0.116028  0.128493  0.084613
0.133045  0.145605  0.113806
0.155495  0.153308  0.101969
0.191518  0.174921  0.100438
0.230821  0.208560  0.113652
0.307841  0.255837  0.106771
0.352901  0.277332  0.083854
0.399167  0.301044  0.079186
0.469989  0.332569  0.073812
0.525734  0.360434  0.085250
0.575987  0.381528  0.057131
0.636900  0.411911  0.053782
0.707106  0.427752  0.058253
0.765643  0.452527  0.056823
0.816577  0.461879  0.047914
0.139671  0.155828  0.124544
0.153809  0.165590  0.130987
0.158152  0.173543  0.140442
0.206609  0.204144  0.131938
0.235964  0.224545  0.133196
0.322515  0.275987  0.117026
0.380344  0.303910  0.106758
0.420571  0.321995  0.097972
0.487716  0.360818  0.083770
0.542764  0.380174  0.090265
0.584004  0.401416  0.085151
0.654598  0.428895  0.072922
0.712604  0.446950  0.064240
0.774133  0.466801  0.060472
0.842958  0.488850  0.056253
0.145216  0.173025  0.154357
0.185557  0.210898  0.174697
0.202009  0.211575  0.156623
0.227406  0.226096  0.163210
0.290429  0.259625  0.137072
0.331620  0.285201  0.141692
0.395290  0.315545  0.131763
0.463633  0.349954  0.112620
0.505722  0.376113  0.113706
0.558978  0.402741  0.103881
0.617674  0.429655  0.105510
0.682805  0.450111  0.093907
0.732305  0.475373  0.080848
0.792732  0.506823  0.070301
0.862630  0.524289  0.062954
0.169049  0.199027  0.180141
0.198213  0.213409  0.179216
0.242512  0.243814  0.177453
0.264981  0.254715  0.172540
0.319034  0.290427  0.168456
0.369709  0.321927  0.167449
0.428556  0.343620  0.139758
0.479316  0.371396  0.129182
0.543759  0.407331  0.109989
0.578586  0.428128  0.117752
0.635336  0.453146  0.098906
0.695479  0.483594  0.118372
0.743113  0.492139  0.092002
0.819072  0.535126  0.086565
0.866452  0.543488  0.082425
0.209935  0.224664  0.185620
0.236783  0.244590  0.182005
0.280544  0.274236  0.185804
0.323007  0.296421  0.184556
0.358976  0.320253  0.172394
0.409044  0.343498  0.165386
0.456324  0.377474  0.154191
0.508909  0.405689  0.142832
0.542450  0.420025  0.132111
0.597813  0.458933  0.126555
0.660298  0.495292  0.131759
0.716242  0.516070  0.138555
0.774410  0.527531  0.123411
0.845570  0.570083  0.115626
0.897700  0.579531  0.087703
0.261888  0.259167  0.204508
0.285063  0.284437  0.209321
0.322691  0.300662  0.196342
0.357519  0.321036  0.166812
0.403925  0.356558  0.186057
0.445222  0.377408  0.160743
0.488767  0.412862  0.162284
0.543795  0.440551  0.138613
0.591954  0.471385  0.118647
0.651561  0.497627  0.130646
0.680918  0.519075  0.133214
0.727957  0.551458  0.137520
0.783817  0.576650  0.133014
0.872321  0.597963  0.111756
0.908614  0.611984  0.107363
0.276486  0.275499  0.203786
0.330065  0.307490  0.196034
0.354393  0.322885  0.184580
0.405119  0.358945  0.187707
0.432553  0.381819  0.190663
0.468715  0.410780  0.176581
0.525385  0.454303  0.164595
0.562613  0.482356  0.145457
0.629571  0.510297  0.125303
0.661607  0.537027  0.131981
0.713389  0.565951  0.124814
0.757785  0.595273  0.130705
0.817391  0.612336  0.132698
0.876904  0.635846  0.127371
0.940857  0.658819  0.116059
0.311798  0.301050  0.210038
0.359662  0.341186  0.195115
0.403264  0.360479  0.183087
0.432784  0.384629  0.200209
0.465434  0.410957  0.190692
0.522602  0.447576  0.164503
0.569851  0.482764  0.163259
0.605072  0.511737  0.142669
0.645826  0.552155  0.135279
0.697584  0.582599  0.127658
0.741009  0.608432  0.135466
0.791227  0.635480  0.128187
0.839284  0.658969  0.134508
0.888047  0.683213  0.133738
0.941772  0.696909  0.120370
0.362278  0.333706  0.199122
0.401085  0.357512  0.189766
0.432719  0.394519  0.201290
0.484242  0.429817  0.168207
0.514518  0.450806  0.162570
0.542005  0.477769  0.161664
0.582968  0.519309  0.157491
0.645115  0.552084  0.143721
0.682056  0.586238  0.116151
0.718922  0.604736  0.135557
0.761814  0.637090  0.132646
0.795660  0.669393  0.133702
0.853536  0.709115  0.127219
0.909682  0.714632  0.130450
0.984737  0.752776  0.129093
0.403879  0.368515  0.205116
0.428968  0.393210  0.193519
0.482301  0.434597  0.195047
0.521783  0.452418  0.180153
0.567543  0.486309  0.172402
0.595123  0.516944  0.163633
0.620511  0.532781  0.159519
0.668347  0.577872  0.138551
0.717176  0.612239  0.145580
0.762167  0.646020  0.122422
0.797681  0.671870  0.135458
0.833008  0.710576  0.136546
0.881097  0.728686  0.136326
0.935499  0.765922  0.136033
0.990351  0.789232  0.141792
0.437664  0.395711  0.193254
0.463346  0.422023  0.191936
0.512811  0.448213  0.170132
0.532770  0.477140  0.189981
0.581268  0.508371  0.173713
0.631324  0.554760  0.163211
0.664835  0.571674  0.138649
0.700787  0.614163  0.146248
0.750670  0.645753  0.135839
0.780839  0.666460  0.137196
0.812899  0.698415  0.139111
0.853508  0.725487  0.133261
0.916956  0.760222  0.128217
0.965307  0.780955  0.153286
1.007079  0.802871  0.125508
0.474743  0.417857  0.207282
0.506306  0.447798  0.181715
0.524797  0.479355  0.190477
0.573161  0.514092  0.162026
0.611586  0.543270  0.149395
0.672678  0.591474  0.150055
0.701836  0.603416  0.139052
0.740499  0.649384  0.134509
0.773567  0.669842  0.131695
0.809384  0.691746  0.127385
0.847680  0.721605  0.126761
0.905580  0.755552  0.129518
0.936504  0.776893  0.138171
0.993805  0.812126  0.138320
1.035632  0.827416  0.154367
0.495308  0.453765  0.201335
0.549895  0.491999  0.189705
0.580855  0.530582  0.171441
0.616793  0.552385  0.158033
0.671579  0.577767  0.145046
0.687894  0.603293  0.146143
0.736290  0.640405  0.138601
0.765050  0.660867  0.137209
0.801221  0.693240  0.145605
0.848517  0.726724  0.153134
0.896419  0.757237  0.131325
0.921051  0.762963  0.145112
0.964391  0.802880  0.147958
1.018597  0.825626  0.138578
1.070280  0.857142  0.136868
0.111926  0.117487  0.075382
0.117735  0.121400  0.085424
0.136119  0.146343  0.107886
0.155011  0.164100  0.122542
0.200101  0.178634  0.095865
0.256408  0.214084  0.092033
0.341236  0.256366  0.085592
0.391523  0.278142  0.073173
0.421048  0.293961  0.066173
0.491367  0.327536  0.065621
0.537998  0.345091  0.065562
0.611626  0.367102  0.064572
0.663432  0.388364  0.058732
0.738355  0.407457  0.045111
0.790492  0.420737  0.045996
0.119956  0.132798  0.106716
0.125129  0.153100  0.128389
0.149328  0.165228  0.133201
0.172479  0.183347  0.134251
0.210841  0.207363  0.131118
0.274700  0.234606  0.116865
0.343190  0.277929  0.114476
0.401871  0.305922  0.097073
0.443395  0.318796  0.091562
0.499064  0.342383  0.082501
0.555230  0.371024  0.076080
0.620275  0.388975  0.071781
0.694257  0.422223  0.065579
0.744831  0.425696  0.048524
0.820078  0.444455  0.052799
0.132661  0.153263  0.130918
0.142196  0.170886  0.154934
0.166159  0.194516  0.169335
0.189701  0.210212  0.185422
0.222323  0.234890  0.161264
0.293775  0.262694  0.138778
0.362319  0.301139  0.132755
0.409369  0.313477  0.123095
0.468413  0.338104  0.107821
0.522794  0.379417  0.099634
0.577989  0.395649  0.099208
0.632779  0.414229  0.081947
0.690292  0.436850  0.075099
0.765451  0.456957  0.070123
0.841211  0.479687  0.066930
0.145190  0.182653  0.162541
0.161614  0.201023  0.185445
0.182874  0.215783  0.201434
0.204153  0.228877  0.197478
0.257742  0.264792  0.193401
0.315082  0.288674  0.171753
0.378346  0.319417  0.163445
0.419014  0.340217  0.135293
0.499613  0.372156  0.128613
0.558037  0.403064  0.116556
0.589599  0.410080  0.120450
0.647633  0.443875  0.118628
0.725721  0.468411  0.113281
0.772088  0.485760  0.092490
0.832360  0.506792  0.102284
0.164105  0.210374  0.203837
0.185587  0.229820  0.216859
0.206478  0.235657  0.216714
0.231901  0.255831  0.225249
0.279434  0.274263  0.204922
0.327161  0.305593  0.198171
0.378254  0.327384  0.185792
0.448541  0.365834  0.167816
0.488220  0.388149  0.154490
0.559153  0.413975  0.124689
0.612504  0.437825  0.135131
0.669314  0.458770  0.133036
0.716295  0.501754  0.135888
0.784350  0.518267  0.119520
0.864420  0.534851  0.113782
0.188005  0.232577  0.215747
0.203470  0.240947  0.233004
0.224418  0.266133  0.248705
0.248788  0.274860  0.243572
0.303288  0.311527  0.243769
0.352911  0.325407  0.219408
0.423356  0.361704  0.186792
0.462606  0.386702  0.202477
0.519810  0.415297  0.175823
0.554220  0.426032  0.174579
0.631815  0.466200  0.157769
0.677539  0.503227  0.155164
0.748141  0.523196  0.141141
0.801275  0.549742  0.143570
0.855827  0.561598  0.128701
0.213540  0.253919  0.243034
0.235080  0.263789  0.231922
0.259772  0.280476  0.250971
0.299964  0.308436  0.251787
0.332737  0.325076  0.241049
0.396682  0.368552  0.244906
0.445647  0.388253  0.215475
0.495229  0.424473  0.216575
0.546933  0.440787  0.195955
0.587986  0.459970  0.179930
0.649060  0.484915  0.176447
0.714406  0.523387  0.161636
0.759298  0.546277  0.170755
0.823386  0.569558  0.154376
0.888984  0.601520  0.160723
0.217748  0.266117  0.264379
0.272719  0.297527  0.264230
0.307963  0.325486  0.270253
0.340666  0.342482  0.268081
0.382116  0.363192  0.250045
0.433436  0.390816  0.212569
0.471208  0.425011  0.222695
0.529210  0.445060  0.227467
0.568029  0.475407  0.225970
0.629730  0.497341  0.197095
0.694762  0.543075  0.178621
0.733255  0.552737  0.190436
0.798575  0.583006  0.172988
0.833546  0.600869  0.179987
0.906085  0.621723  0.179729
0.269009  0.300132  0.266770
0.295971  0.319678  0.271780
0.338991  0.345332  0.279033
0.371185  0.363433  0.263391
0.423704  0.396602  0.254797
0.462240  0.424842  0.252311
0.498576  0.449703  0.229972
0.551219  0.493335  0.224627
0.592667  0.497775  0.229170
0.666192  0.545029  0.208072
0.722188  0.577952  0.178205
0.773872  0.591701  0.197953
0.808025  0.610173  0.189048
0.870455  0.651486  0.199320
0.933534  0.654336  0.195416
0.290933  0.324527  0.292570
0.336765  0.344923  0.269386
0.387569  0.372757  0.270774
0.420877  0.396365  0.259508
0.472930  0.426672  0.243185
0.510294  0.451375  0.245717
0.544127  0.478310  0.251872
0.583913  0.518892  0.224953
0.642442  0.544780  0.214148
0.676625  0.573383  0.191947
0.741476  0.613412  0.196087
0.799002  0.648299  0.192491
0.822662  0.656096  0.189306
0.905043  0.693660  0.199409
