LUT/LUT_34.CUBE
TITLE "LUT_34" 
#LUT size 
LUT_3D_SIZE 5 
#data point 
DOMAIN_MIN 0.000000 0.000000 0.000000
DOMAIN_MAX 0.857143 0.857143 0.857143
0.077108  0.077018  0.029393
0.123384  0.119424  0.065200
0.315145  0.236465  0.067109
0.456747  0.342263  0.068638
0.614252  0.423211  0.061828
0.116341  0.116408  0.059936
0.198370  0.179736  0.093702
0.380101  0.295588  0.088107
0.516689  0.383413  0.073339
0.663609  0.476508  0.071173
0.220119  0.189129  0.086034
0.343786  0.280322  0.104845
0.453226  0.338339  0.082414
0.612602  0.471166  0.081599
0.736654  0.548625  0.080484
0.360600  0.291687  0.115754
0.457515  0.365882  0.098692
0.579257  0.457198  0.086205
0.705631  0.575528  0.078172
0.820517  0.674367  0.088297
0.472007  0.367312  0.098518
0.590761  0.467768  0.082435
0.695384  0.570204  0.084975
0.784879  0.651917  0.088507
0.910728  0.738529  0.085060
0.124998  0.126930  0.075285
0.163168  0.165032  0.117428
0.314562  0.263121  0.099703
0.460958  0.337487  0.091098
0.602672  0.444048  0.076242
0.162895  0.179733  0.143298
0.213744  0.225262  0.178968
0.359401  0.314209  0.160526
0.537377  0.413046  0.110100
0.677936  0.509056  0.102111
0.217614  0.256802  0.238484
0.291618  0.310638  0.265349
0.432586  0.374050  0.212223
0.568220  0.454159  0.163083
0.734854  0.576071  0.164971
0.282822  0.330500  0.304763
0.396295  0.382966  0.260870
0.528334  0.449514  0.247459
0.668964  0.554045  0.194738
0.811823  0.655225  0.178003
0.404189  0.392161  0.289125
0.539089  0.465297  0.253131
0.649383  0.543159  0.248743
0.791584  0.649884  0.187173
0.929123  0.734864  0.182298
0.162959  0.189808  0.160978
0.199527  0.229822  0.202161
0.276419  0.298210  0.248071
0.488604  0.389720  0.164979
0.644352  0.481272  0.134569
0.209422  0.256682  0.251669
0.260057  0.313290  0.307422
0.355019  0.380805  0.340304
0.498683  0.451280  0.272579
0.690716  0.552680  0.219050
0.268402  0.333558  0.333781
0.307549  0.398406  0.413288
0.392453  0.437305  0.411151
0.559670  0.526625  0.389064
0.734389  0.618618  0.325262
0.323785  0.410025  0.427096
0.378012  0.463013  0.467034
0.483819  0.514932  0.468049
0.625642  0.601789  0.473886
0.820625  0.699274  0.409289
0.365325  0.464835  0.493311
0.482342  0.528572  0.496266
0.580394  0.588675  0.501798
0.743249  0.683829  0.491559
0.904080  0.764140  0.463956
0.210655  0.266594  0.270373
0.269671  0.331536  0.338170
0.326434  0.369846  0.348128
0.460113  0.437093  0.319951
0.654547  0.535087  0.248254
0.265176  0.345480  0.359291
0.311585  0.396566  0.414713
0.355224  0.439826  0.458052
0.502816  0.522173  0.450760
0.691249  0.598833  0.388048
0.330127  0.418715  0.435615
0.366804  0.469723  0.503880
0.408715  0.524466  0.548668
0.548401  0.592828  0.546561
0.723665  0.675353  0.503326
0.379613  0.490134  0.514910
0.412421  0.534144  0.566689
0.488386  0.612796  0.641812
0.634638  0.679355  0.636536
0.764185  0.742269  0.610990
0.428397  0.543869  0.572277
0.487321  0.608586  0.639743
0.559520  0.680548  0.704945
0.696204  0.742908  0.695130
0.851930  0.805000  0.684579
0.291130  0.374034  0.389577
0.320947  0.411988  0.432894
0.365635  0.471263  0.504245
0.467082  0.508168  0.479660
0.623054  0.573096  0.416191
0.329466  0.424240  0.446521
0.369208  0.478182  0.504339
0.438073  0.552660  0.583441
0.509981  0.583137  0.579480
0.664761  0.660982  0.562079
0.378936  0.490019  0.522810
0.443979  0.563065  0.599185
0.495514  0.618960  0.653534
0.556413  0.675278  0.701469
0.747324  0.745178  0.650164
0.428016  0.545835  0.584133
0.503168  0.626908  0.660768
0.553131  0.682895  0.714502
0.633118  0.754386  0.793120
0.762555  0.801165  0.766219
0.496325  0.622500  0.655362
0.564950  0.692058  0.723701
0.629911  0.757257  0.807353
0.703651  0.819831  0.866309
0.835175  0.887085  0.896778
