LUT/LUT_24.CUBE
TITLE "LUT_24" 
#LUT size 
LUT_3D_SIZE 8 
DOMAIN_MIN 0.0 0.0 0.0 
DOMAIN_MAX 1.0 1.0 1.0 
#data point 
0.066087  0.063660  0.029421
0.099308  0.094155  0.047161
0.186237  0.164750  0.072501
0.315600  0.235278  0.058523
0.422633  0.301406  0.058872
0.528339  0.344822  0.050474
0.640548  0.394496  0.048834
0.767019  0.452442  0.049921
0.106723  0.096179  0.048168
0.130692  0.121541  0.055634
0.238491  0.198349  0.081773
0.361531  0.267269  0.088952
0.457542  0.326446  0.069670
0.550283  0.379669  0.062462
0.669594  0.440645  0.059013
0.798833  0.489703  0.057871
0.145308  0.141656  0.076339
0.220716  0.187803  0.093495
0.293383  0.236274  0.081667
0.395564  0.305352  0.082104
0.509014  0.370330  0.074968
0.598539  0.433796  0.069265
0.716846  0.479596  0.059543
0.837697  0.538178  0.055881
0.226888  0.190078  0.085774
0.306898  0.254039  0.100002
0.375958  0.296742  0.079739
0.454309  0.351310  0.077802
0.554330  0.413853  0.072845
0.653070  0.485181  0.069245
0.753110  0.534349  0.069815
0.881605  0.592315  0.062720
0.300324  0.259222  0.110718
0.389187  0.303576  0.079270
0.475543  0.376017  0.086273
0.528958  0.421921  0.075217
0.610622  0.500647  0.067085
0.693749  0.561786  0.074679
0.812733  0.612218  0.075209
0.924861  0.672674  0.070885
0.379139  0.317477  0.108069
0.457984  0.391961  0.088816
0.554249  0.440659  0.088208
0.605963  0.495084  0.088601
0.699172  0.584774  0.071200
0.779645  0.652948  0.072229
0.857488  0.699896  0.071831
0.952366  0.749802  0.084458
0.466989  0.380930  0.084317
0.530400  0.434365  0.075659
0.614047  0.507625  0.087730
0.693464  0.574993  0.072524
0.759342  0.629914  0.082024
0.831893  0.680304  0.075280
0.906015  0.742431  0.083417
1.023272  0.796828  0.086869
0.536894  0.445709  0.083070
0.605061  0.509755  0.085986
0.688962  0.565224  0.071319
0.745399  0.618594  0.082389
0.806924  0.676188  0.078543
0.888431  0.727233  0.086409
0.972969  0.783519  0.087798
1.077323  0.848745  0.082871
0.092253  0.087338  0.042439
0.119230  0.109040  0.060329
0.189701  0.168519  0.086116
0.305709  0.242024  0.074685
0.423790  0.301009  0.064170
0.518590  0.354053  0.054198
0.634434  0.410150  0.052645
0.767850  0.459587  0.051078
0.122926  0.123875  0.076429
0.157269  0.156521  0.103490
0.228996  0.204329  0.109052
0.334981  0.278026  0.093055
0.459115  0.342632  0.082940
0.559188  0.403123  0.068235
0.683875  0.449891  0.059478
0.792785  0.499890  0.056704
0.153735  0.174264  0.135285
0.206736  0.210893  0.151681
0.289957  0.261180  0.151518
0.388368  0.318325  0.130290
0.495707  0.383947  0.113893
0.612876  0.435061  0.104531
0.710605  0.492709  0.080311
0.833934  0.554986  0.070667
0.203876  0.223943  0.180219
0.276019  0.269327  0.183363
0.345374  0.315518  0.172088
0.453732  0.366197  0.155847
0.538547  0.419891  0.137750
0.640568  0.492653  0.129500
0.754859  0.547559  0.126377
0.869384  0.602880  0.084467
0.284940  0.279737  0.202315
0.348443  0.310250  0.186667
0.426297  0.371144  0.187098
0.537051  0.442854  0.161107
0.626214  0.504174  0.116577
0.712038  0.563518  0.115906
0.808497  0.622460  0.127766
0.927036  0.670419  0.116684
0.365050  0.334652  0.196409
0.437752  0.384693  0.198392
0.516731  0.434788  0.162950
0.588286  0.501320  0.156643
0.685165  0.574852  0.117087
0.762028  0.630534  0.121521
0.861115  0.707890  0.135293
0.984626  0.757743  0.133533
0.435070  0.382305  0.199936
0.518120  0.440210  0.169706
0.582131  0.492468  0.179399
0.674446  0.558454  0.138072
0.754139  0.626971  0.135772
0.819779  0.688494  0.134048
0.920952  0.750166  0.123048
1.003114  0.784978  0.127102
0.506011  0.446004  0.213171
0.587474  0.507823  0.165266
0.678508  0.556166  0.154934
0.751423  0.628716  0.136911
0.804524  0.682710  0.135690
0.895249  0.746757  0.120525
0.968001  0.784374  0.142189
1.067626  0.837529  0.133494
0.125534  0.143056  0.111505
0.148443  0.161047  0.122276
0.193668  0.194470  0.137352
0.316726  0.267187  0.122207
0.434917  0.326413  0.093431
0.535498  0.380878  0.090908
0.650719  0.433922  0.084228
0.751703  0.476730  0.072928
0.162777  0.181654  0.156133
0.185889  0.220674  0.196424
0.237391  0.258662  0.218622
0.336832  0.302280  0.181117
0.474779  0.369819  0.144414
0.551731  0.413160  0.137724
0.664467  0.477837  0.116842
0.795704  0.534655  0.109619
0.199538  0.244593  0.235227
0.217400  0.264004  0.267246
0.244085  0.276902  0.248592
0.377409  0.362379  0.254661
0.500563  0.411235  0.227707
0.598791  0.460747  0.153566
0.720208  0.524022  0.151506
0.823226  0.587158  0.149397
0.216991  0.274393  0.281976
0.259792  0.318174  0.323967
0.320036  0.344595  0.317819
0.409164  0.407329  0.316816
0.532471  0.462348  0.264760
0.631584  0.505746  0.228221
0.752505  0.576442  0.214479
0.851573  0.627454  0.200217
0.253101  0.319209  0.316663
0.331635  0.369501  0.337361
0.399008  0.403486  0.323199
0.491872  0.458174  0.330644
0.579166  0.502127  0.301710
0.701595  0.577356  0.292521
0.820825  0.641850  0.245291
0.923320  0.692598  0.254008
0.319309  0.373163  0.362934
0.399306  0.422359  0.360360
0.477975  0.450491  0.338626
0.565062  0.514916  0.327958
0.661814  0.583462  0.320769
0.762025  0.638036  0.276831
0.866946  0.704894  0.260651
0.966444  0.755094  0.264831
0.368206  0.395512  0.357941
0.459296  0.460183  0.360650
0.558822  0.516666  0.335005
0.637849  0.569267  0.334660
0.734338  0.631041  0.317699
0.816145  0.687373  0.308508
0.913979  0.739305  0.264993
1.016434  0.799813  0.249545
0.442598  0.451818  0.371976
0.564856  0.516584  0.353503
0.635171  0.568843  0.334452
0.710113  0.620281  0.316290
0.786927  0.675569  0.310321
0.894393  0.742048  0.279906
0.968270  0.783819  0.280681
1.072691  0.842976  0.262864
0.160131  0.194492  0.173024
0.180053  0.217963  0.207655
0.213892  0.253006  0.237415
0.292255  0.305493  0.240987
0.449742  0.363491  0.170401
0.543293  0.421789  0.153644
0.654585  0.465691  0.140444
0.756512  0.515242  0.138799
0.178901  0.223431  0.216917
0.217762  0.265193  0.257111
0.258543  0.303545  0.297438
0.331874  0.350221  0.303430
0.469974  0.402987  0.228025
0.570109  0.450936  0.213077
0.683056  0.503442  0.184409
0.795971  0.569630  0.190155
0.222455  0.274677  0.276210
0.257460  0.318588  0.323845
0.281722  0.359482  0.364091
0.389611  0.419132  0.370166
0.469810  0.462395  0.360787
0.603009  0.503677  0.273663
0.720342  0.567308  0.271540
0.843038  0.622671  0.254697
0.246486  0.327733  0.343982
0.289731  0.366398  0.379909
0.315727  0.398529  0.423357
0.393517  0.439407  0.403569
0.500369  0.498526  0.398711
0.639961  0.559707  0.351210
0.741660  0.610786  0.326665
0.876583  0.669797  0.296094
0.299726  0.385561  0.409843
0.339505  0.432563  0.447659
0.369326  0.448071  0.461336
0.475591  0.501296  0.450894
0.552979  0.563242  0.480974
0.652168  0.594964  0.413749
0.787458  0.666689  0.393220
0.914167  0.739757  0.361050
0.330991  0.426397  0.459123
0.365639  0.456340  0.473220
0.451772  0.488371  0.458832
0.519517  0.544077  0.479689
0.611299  0.595314  0.482454
0.715598  0.661687  0.488445
0.852470  0.735260  0.435963
0.942459  0.776542  0.424488
0.365379  0.463750  0.496805
0.432320  0.507222  0.506528
0.521794  0.542362  0.475360
0.598516  0.591515  0.489402
0.694288  0.655222  0.487693
0.800768  0.713105  0.459799
0.902874  0.767995  0.457274
1.014578  0.826353  0.467120
0.397948  0.500303  0.519455
0.494675  0.533272  0.486128
0.574449  0.580920  0.508872
0.667856  0.645241  0.487235
0.795163  0.710876  0.470894
0.868952  0.750661  0.458233
0.965585  0.804357  0.485117
1.063120  0.857728  0.478698
0.179218  0.239000  0.235335
0.215485  0.281960  0.291176
0.238715  0.305546  0.309177
0.312015  0.342993  0.309068
0.419015  0.401555  0.292645
0.547200  0.461235  0.248070
0.676793  0.515575  0.224914
0.782755  0.543392  0.189450
0.219286  0.280440  0.294537
0.245226  0.319304  0.330597
0.274246  0.354756  0.372534
0.341233  0.407408  0.401786
0.430100  0.445045  0.378001
0.557718  0.488484  0.327861
0.679509  0.543676  0.277124
0.789155  0.598768  0.256540
0.265755  0.335924  0.354884
0.289970  0.370894  0.388903
0.315637  0.405315  0.425477
0.386802  0.461832  0.463602
0.476172  0.501103  0.444620
0.573353  0.544212  0.420452
0.713327  0.611118  0.370875
0.830845  0.657850  0.336633
0.294312  0.379879  0.405088
0.321270  0.413820  0.445581
0.351339  0.454942  0.487070
0.382550  0.491374  0.527659
0.502829  0.539706  0.494887
0.606399  0.596786  0.498892
0.737773  0.656946  0.447796
0.858741  0.703983  0.401895
0.328270  0.427258  0.459132
0.359982  0.471419  0.509579
0.403003  0.509869  0.540899
0.447530  0.565372  0.588239
0.542878  0.599378  0.567525
0.648918  0.655733  0.572210
0.780241  0.705205  0.511110
0.911760  0.773347  0.476747
0.361316  0.471537  0.506410
0.390362  0.501643  0.537959
0.442245  0.556426  0.588470
0.481714  0.596330  0.616747
0.583754  0.635366  0.585945
0.697792  0.706791  0.621546
0.815605  0.758618  0.601888
0.948290  0.807246  0.546499
0.399634  0.519638  0.558463
0.433256  0.551850  0.592066
0.481324  0.601590  0.629169
0.562707  0.638372  0.617063
0.682306  0.690472  0.609409
0.769460  0.750301  0.636190
0.887245  0.798780  0.616123
1.006626  0.848732  0.589131
0.448025  0.565749  0.597195
0.472097  0.602597  0.641664
0.542383  0.633370  0.631531
0.651496  0.687244  0.626079
0.738580  0.730425  0.623848
0.838820  0.773049  0.614341
0.948067  0.831103  0.628717
1.050081  0.876781  0.607670
0.235745  0.304304  0.320833
0.248216  0.323689  0.341968
0.277959  0.371763  0.397915
0.317700  0.393552  0.400014
0.427540  0.437472  0.381267
0.522015  0.492406  0.365668
0.657119  0.529139  0.307249
0.784047  0.585890  0.279847
0.262455  0.344848  0.367207
0.291423  0.380342  0.407386
0.314279  0.411000  0.438438
0.359006  0.448358  0.466958
0.462526  0.507082  0.467960
0.556883  0.549565  0.455692
0.677863  0.600761  0.405386
0.815127  0.639919  0.367588
0.304163  0.394283  0.427906
0.333786  0.431841  0.460963
0.371361  0.475908  0.511782
0.397973  0.506327  0.529835
0.461789  0.539388  0.539683
0.592365  0.608394  0.534145
0.695695  0.641752  0.478752
0.833954  0.708372  0.447903
0.322697  0.435066  0.472937
0.366678  0.471541  0.501327
0.413754  0.532649  0.560888
0.429962  0.550282  0.583735
0.479953  0.600294  0.627563
0.613100  0.640495  0.577208
0.737863  0.696018  0.548204
0.851486  0.762566  0.543935
0.371060  0.484114  0.522429
0.399809  0.523216  0.565728
0.442402  0.566010  0.603033
0.479062  0.602197  0.638073
0.534858  0.650918  0.683874
0.636660  0.692493  0.648708
0.752268  0.735940  0.619730
0.909258  0.808421  0.604292
0.404490  0.522857  0.563649
0.440754  0.565936  0.601373
0.482839  0.612838  0.647531
0.517377  0.642535  0.675247
0.578512  0.701514  0.733138
0.692991  0.751699  0.722321
0.817933  0.795612  0.695593
0.943367  0.840157  0.667073
0.446203  0.573466  0.610834
0.488637  0.620032  0.652363
0.538162  0.664163  0.693869
0.563993  0.691469  0.722221
0.636901  0.743541  0.760573
0.734388  0.780719  0.751122
0.875552  0.843502  0.734403
0.983376  0.872379  0.704080
0.488551  0.610077  0.648596
0.520478  0.651870  0.686016
0.560551  0.700271  0.740818
0.600653  0.724085  0.763087
0.701494  0.781765  0.783620
0.829435  0.823777  0.748407
0.915400  0.862822  0.742481
1.024834  0.906697  0.738975
0.274721  0.362161  0.391013
0.295962  0.394674  0.420117
0.326897  0.433695  0.458496
0.361558  0.468258  0.503292
0.419969  0.491579  0.480709
0.519282  0.539296  0.469807
0.640239  0.580081  0.404412
0.774471  0.636467  0.383816
0.308345  0.411064  0.443704
0.331100  0.435002  0.475082
0.363691  0.473223  0.507970
0.400917  0.524558  0.563282
0.443739  0.549487  0.572391
0.559698  0.584654  0.517979
0.666059  0.639680  0.513103
0.807951  0.694838  0.462819
0.336451  0.444616  0.478911
0.375471  0.487193  0.525664
0.405355  0.521346  0.565378
0.437700  0.564368  0.607383
0.484110  0.607130  0.640513
0.592198  0.648772  0.609389
0.695313  0.691218  0.603830
0.818973  0.745986  0.561424
0.373639  0.486950  0.525166
0.396252  0.513847  0.553436
0.458099  0.573415  0.610746
0.496437  0.618863  0.658978
0.536619  0.664724  0.703692
0.598906  0.689344  0.692076
0.751605  0.746687  0.648773
0.859988  0.792528  0.632574
0.412229  0.526319  0.564513
0.452328  0.575404  0.616244
0.491146  0.614827  0.648840
0.542281  0.669131  0.705348
0.577302  0.716696  0.765148
0.634865  0.735909  0.751753
0.774271  0.777750  0.705497
0.894248  0.834565  0.705538
0.450368  0.574603  0.611470
0.487418  0.618004  0.657681
0.530676  0.665705  0.700377
0.588415  0.721359  0.772980
0.626041  0.758956  0.812858
0.677039  0.798431  0.847453
0.793651  0.835297  0.816667
0.928618  0.873811  0.756939
0.489642  0.621965  0.657331
0.529808  0.652464  0.695252
0.565511  0.700347  0.742415
0.623498  0.753852  0.805109
0.673523  0.793124  0.838650
0.735984  0.840771  0.882626
0.833282  0.890304  0.895686
0.969301  0.909915  0.798692
0.526225  0.659397  0.700025
0.559306  0.698649  0.743513
0.601726  0.739684  0.801702
0.660401  0.795023  0.846293
0.716714  0.828036  0.878709
0.783049  0.880917  0.915772
0.876079  0.922717  0.928386
1.002128  0.950027  0.862016
0.312464  0.414659  0.455090
0.330422  0.450473  0.482555
0.368681  0.490979  0.532736
0.405847  0.528124  0.568001
0.443064  0.574158  0.610391
0.517656  0.596898  0.586763
0.645948  0.636540  0.535200
0.793818  0.699097  0.485079
0.336067  0.449329  0.493771
0.371875  0.490990  0.539244
0.417837  0.538151  0.579128
0.452250  0.576928  0.614646
0.494283  0.623913  0.659353
0.546094  0.655016  0.673801
0.650430  0.685749  0.626538
0.793867  0.743016  0.573733
0.372860  0.491815  0.532860
0.416453  0.530611  0.575062
0.454330  0.581767  0.623131
0.505360  0.636179  0.673181
0.542121  0.681880  0.727008
0.590583  0.718617  0.762108
0.704105  0.740381  0.687210
0.841359  0.795619  0.662736
0.416984  0.540576  0.577698
0.448037  0.576212  0.614015
0.497645  0.631219  0.662094
0.554975  0.683781  0.726910
0.578189  0.715805  0.769843
0.629347  0.756163  0.804539
0.696757  0.798273  0.816600
0.856991  0.827303  0.731946
0.446995  0.571676  0.605465
0.492702  0.621084  0.654823
0.533109  0.662998  0.701088
0.568062  0.716701  0.767942
0.615096  0.750159  0.804335
0.674761  0.793622  0.844634
0.750369  0.855345  0.901998
0.868767  0.881502  0.834192
0.475257  0.605437  0.638762
0.523076  0.650982  0.686093
0.564265  0.706891  0.755659
0.604570  0.744473  0.796469
0.644430  0.778415  0.836048
0.730628  0.840520  0.881645
0.797213  0.888430  0.924631
0.883629  0.932042  0.927692
0.527682  0.661336  0.693584
0.567535  0.707662  0.754068
0.596995  0.737872  0.803688
0.643554  0.773457  0.825702
0.705411  0.820205  0.869761
0.772707  0.873301  0.908284
0.844071  0.914621  0.945225
0.921811  0.964757  0.974235
0.563922  0.694896  0.742478
0.575178  0.726370  0.785135
0.631594  0.769889  0.832606
0.695649  0.819013  0.868206
0.748224  0.858066  0.892990
0.832160  0.911429  0.932991
0.891983  0.942042  0.970005
0.961415  0.978383  0.989886
