LUT/LUT_33.CUBE
TITLE "LUT_33" 
#LUT size 
LUT_3D_SIZE 5 
#data point 
DOMAIN_MIN 0.000000 0.000000 0.000000
DOMAIN_MAX 0.857143 0.857143 0.857143
0.079545  0.071544  0.032478
0.122626  0.116277  0.069355
0.312762  0.235997  0.071738
0.455436  0.342619  0.067473
0.616387  0.419766  0.060145
0.120519  0.115576  0.058676
0.193705  0.179871  0.093548
0.378687  0.293937  0.085520
0.517561  0.382370  0.071140
0.664869  0.476689  0.070146
0.223233  0.189746  0.085661
0.342834  0.280309  0.107747
0.453772  0.342146  0.080882
0.611325  0.471843  0.079494
0.734275  0.546979  0.083111
0.360258  0.294111  0.114581
0.462587  0.365946  0.094352
0.581836  0.458205  0.084863
0.704346  0.577498  0.080236
0.819413  0.668734  0.085070
0.473935  0.370211  0.094855
0.591132  0.468560  0.085779
0.692183  0.571230  0.086002
0.783217  0.658154  0.085401
0.909129  0.737361  0.085655
0.121177  0.126888  0.072546
0.160987  0.165882  0.119610
0.317242  0.263672  0.096703
0.460978  0.336946  0.088877
0.604692  0.440381  0.074313
0.162043  0.177143  0.141048
0.212847  0.229914  0.180963
0.358992  0.313307  0.160646
0.537835  0.413110  0.112333
0.677095  0.506806  0.102373
0.221443  0.256868  0.238051
0.290070  0.311627  0.266700
0.434791  0.373299  0.210563
0.569935  0.452961  0.163980
0.734703  0.573570  0.166029
0.282445  0.327492  0.305267
0.399606  0.383506  0.258542
0.531113  0.454000  0.245555
0.669244  0.555766  0.197398
0.812886  0.657894  0.179605
0.400434  0.391930  0.287599
0.539797  0.463462  0.249957
0.648385  0.544031  0.249226
0.791809  0.651377  0.184506
0.928251  0.734946  0.183541
0.162410  0.190929  0.163237
0.197471  0.226694  0.207467
0.276073  0.297381  0.247644
0.490482  0.391511  0.164007
0.646396  0.480506  0.136560
0.207714  0.257034  0.251429
0.259418  0.312874  0.302699
0.356114  0.380615  0.339692
0.503997  0.448142  0.271959
0.692655  0.553938  0.220471
0.264857  0.329286  0.337537
0.309146  0.396448  0.414334
0.394105  0.434812  0.409610
0.561197  0.528741  0.390190
0.732506  0.619047  0.325135
0.322118  0.407315  0.422806
0.379074  0.462349  0.468279
0.481804  0.515273  0.471414
0.625765  0.598745  0.474022
0.823118  0.697074  0.407429
0.363986  0.465391  0.494435
0.479960  0.531913  0.496097
0.584176  0.585321  0.502711
0.745111  0.683586  0.492861
0.904312  0.763663  0.461209
0.205215  0.268828  0.270112
0.265111  0.332246  0.336235
0.321560  0.370075  0.344835
0.461676  0.438910  0.319436
0.655173  0.531579  0.248570
0.264580  0.343939  0.361692
0.307884  0.397809  0.415174
0.357320  0.445026  0.457531
0.502725  0.519935  0.450428
0.693230  0.598291  0.386880
0.329585  0.418225  0.437060
0.366011  0.474042  0.499665
0.411319  0.521705  0.549917
0.549017  0.589340  0.545844
0.724942  0.673428  0.503679
0.377285  0.487603  0.520218
0.414430  0.530952  0.567940
0.487778  0.613808  0.642861
0.628806  0.678240  0.637131
0.768089  0.739731  0.610959
0.430968  0.545909  0.570739
0.486604  0.608663  0.636047
0.559858  0.679710  0.703471
0.699800  0.743991  0.694841
0.853369  0.807423  0.683271
0.287857  0.373519  0.391590
0.320960  0.410440  0.435525
0.364161  0.471027  0.501937
0.464555  0.512640  0.477884
0.623609  0.573180  0.417339
0.329505  0.422776  0.445183
0.373554  0.478731  0.508893
0.437721  0.554294  0.583887
0.508310  0.589861  0.578269
0.665811  0.664085  0.561879
0.377621  0.489139  0.522830
0.440862  0.563096  0.600246
0.495238  0.618492  0.652694
0.558671  0.673456  0.703774
0.746318  0.746723  0.650068
0.425302  0.545234  0.588760
0.501583  0.629222  0.661179
0.553724  0.679065  0.714833
0.633028  0.760112  0.791435
0.762591  0.801977  0.766184
0.495913  0.621111  0.652810
0.562998  0.691056  0.723289
0.630695  0.761792  0.807891
0.703912  0.821062  0.867117
0.833139  0.894480  0.896252
