LUT/LUT_1.CUBE
TITLE "LUT_1" 
#LUT size 
LUT_3D_SIZE 5 
#data point 
DOMAIN_MIN 0.000000 0.000000 0.000000
DOMAIN_MAX 0.857143 0.857143 0.857143
0.010543  0.004812  0.002532
0.198301  0.037114  -0.001521
0.414771  0.042999  -0.005095
0.628130  0.038387  -0.003880
0.841526  0.042534  -0.008132
0.075138  0.154553  0.024932
0.221085  0.202761  0.019679
0.422663  0.220180  0.016341
0.631784  0.235393  0.009333
0.845015  0.238084  0.005237
0.089517  0.352378  0.025285
0.274371  0.377144  0.019513
0.432421  0.418475  0.020340
0.637397  0.434616  0.014577
0.850012  0.434090  0.015428
0.098450  0.556030  0.017701
0.291479  0.569594  0.016380
0.470960  0.593877  0.020263
0.650141  0.632479  0.014617
0.853908  0.646756  0.015471
0.097915  0.761957  0.014221
0.306630  0.760015  0.008618
0.506835  0.771498  0.007896
0.684779  0.808456  0.017696
0.862919  0.835711  0.019180
0.004382  0.040288  0.181267
0.199553  0.051210  0.190833
0.415619  0.047704  0.178239
0.624243  0.045823  0.185194
0.842989  0.045744  0.189156
0.058300  0.165242  0.226856
0.211284  0.223528  0.210372
0.417744  0.250083  0.190268
0.628498  0.254480  0.191605
0.842475  0.252131  0.189497
0.077132  0.349370  0.235508
0.262275  0.381882  0.220648
0.430745  0.426886  0.212214
0.640611  0.436091  0.213246
0.845156  0.446280  0.204060
0.088158  0.556848  0.227432
0.289963  0.562167  0.223326
0.469409  0.592684  0.218689
0.649404  0.638466  0.215184
0.852585  0.642977  0.210573
0.089911  0.756323  0.223204
0.312705  0.754908  0.216681
0.502697  0.775921  0.220164
0.675638  0.815565  0.218478
0.867771  0.840162  0.209776
0.008378  0.048870  0.379046
0.200571  0.058116  0.379029
0.415929  0.058479  0.384368
0.630659  0.055252  0.382487
0.853882  0.055931  0.376341
0.032904  0.235051  0.387599
0.204981  0.269204  0.385978
0.412109  0.263530  0.395481
0.626760  0.260183  0.395930
0.843544  0.258469  0.394971
0.082851  0.351209  0.436926
0.246479  0.388744  0.443263
0.422449  0.440062  0.418095
0.629073  0.463097  0.403085
0.844721  0.465552  0.400947
0.084828  0.556702  0.440320
0.291220  0.553356  0.447913
0.463793  0.599163  0.434590
0.645415  0.641551  0.432245
0.851094  0.648873  0.425412
0.084540  0.755070  0.444977
0.298151  0.752333  0.442983
0.511322  0.762013  0.431783
0.675025  0.809850  0.431070
0.859954  0.845091  0.429971
-0.003398  0.046618  0.605520
0.193229  0.058211  0.609190
0.419584  0.059453  0.595106
0.629571  0.053433  0.596904
0.847338  0.051598  0.600221
0.014480  0.250221  0.606260
0.203886  0.266933  0.608543
0.414293  0.265233  0.594298
0.627718  0.272058  0.601316
0.844486  0.268982  0.598002
0.067306  0.384151  0.631850
0.233663  0.458348  0.612533
0.420896  0.479906  0.597191
0.620420  0.480994  0.601844
0.837730  0.476857  0.606549
0.080634  0.567136  0.649159
0.286085  0.558280  0.664777
0.456546  0.601416  0.661470
0.635418  0.658377  0.633973
0.837381  0.681012  0.622697
0.081215  0.754860  0.664732
0.286439  0.750929  0.667995
0.501786  0.753177  0.656453
0.679762  0.808881  0.647175
0.864663  0.845567  0.648667
-0.003439  0.048154  0.817779
0.202289  0.055994  0.823660
0.409155  0.058965  0.824642
0.626113  0.055967  0.815121
0.845216  0.054665  0.810100
0.011866  0.248275  0.818133
0.207572  0.262291  0.820022
0.408275  0.274460  0.822903
0.627716  0.269512  0.813974
0.840019  0.271821  0.811781
0.049844  0.424013  0.818353
0.228067  0.463722  0.816469
0.409449  0.486206  0.819376
0.626498  0.490650  0.823479
0.840985  0.483538  0.812666
0.079455  0.570786  0.855460
0.277383  0.599409  0.842104
0.450670  0.662410  0.816882
0.620902  0.698080  0.834948
0.839948  0.694357  0.815695
0.078667  0.767208  0.859758
0.293472  0.763789  0.856592
0.503247  0.772120  0.860061
0.671341  0.810100  0.867772
0.849563  0.870582  0.850393
