LUT/LUT_5.CUBE
TITLE "LUT_5" 
#LUT size 
LUT_3D_SIZE 8 
DOMAIN_MIN 0.0 0.0 0.0 
DOMAIN_MAX 1.0 1.0 1.0 
#data point 
0.024362  0.023000  0.012926
0.092653  0.081307  0.027254
0.238877  0.132373  0.019620
0.376459  0.153314  0.009846
0.503161  0.164172  -0.000037
0.641617  0.181207  -0.001952
0.779679  0.185433  -0.013497
0.920471  0.195998  -0.022675
0.083811  0.083186  0.039248
0.144754  0.121889  0.047136
0.268563  0.180356  0.032399
0.395702  0.209414  0.030358
0.519028  0.244069  0.023690
0.652855  0.258617  0.015517
0.790987  0.284234  0.012984
0.927862  0.290243  0.007205
0.148920  0.143241  0.062061
0.222643  0.199939  0.061984
0.302219  0.258023  0.041311
0.417266  0.294435  0.040538
0.546518  0.323845  0.037455
0.668035  0.347373  0.037734
0.804676  0.364187  0.027700
0.935350  0.386982  0.023425
0.217889  0.225827  0.064404
0.296938  0.293084  0.051704
0.353803  0.351898  0.049077
0.448903  0.393207  0.045949
0.565135  0.419876  0.042821
0.692580  0.452624  0.035664
0.827193  0.461822  0.044516
0.964766  0.478961  0.046729
0.281231  0.315387  0.068381
0.349926  0.373953  0.048808
0.421447  0.441544  0.044258
0.498937  0.496645  0.044278
0.595562  0.533834  0.041604
0.707795  0.571625  0.040619
0.850953  0.581609  0.042775
0.973228  0.597662  0.051483
0.334895  0.398807  0.062081
0.413687  0.458491  0.050031
0.493723  0.515430  0.043404
0.559785  0.573076  0.050498
0.652301  0.633741  0.041985
0.744870  0.677100  0.045046
0.852931  0.708010  0.045211
0.987512  0.727831  0.051962
0.387915  0.483434  0.060222
0.466794  0.531176  0.048865
0.542788  0.589059  0.046372
0.617428  0.639094  0.044586
0.705236  0.695764  0.049580
0.797552  0.744465  0.049684
0.889408  0.786368  0.052404
1.012630  0.832164  0.048289
0.429961  0.575742  0.048564
0.513699  0.610504  0.047126
0.603201  0.664352  0.048444
0.680872  0.710419  0.045738
0.761971  0.768469  0.046495
0.845907  0.807819  0.048017
0.945255  0.855176  0.051637
1.056297  0.900859  0.045370
0.055097  0.077386  0.068230
0.101596  0.113838  0.069264
0.225799  0.147751  0.054743
0.360111  0.174765  0.047281
0.500446  0.186775  0.049442
0.632889  0.185679  0.034348
0.775584  0.198017  0.039173
0.922851  0.197943  0.035002
0.084334  0.118951  0.125118
0.134535  0.159314  0.127203
0.245037  0.206692  0.109836
0.385144  0.242847  0.087460
0.514072  0.275997  0.083301
0.647399  0.296203  0.068173
0.787120  0.300306  0.058321
0.918259  0.312776  0.045216
0.133351  0.175321  0.170521
0.207629  0.219364  0.164724
0.297425  0.266898  0.143896
0.409477  0.309089  0.130168
0.533773  0.345057  0.113690
0.663434  0.374727  0.107071
0.804114  0.399895  0.098230
0.938626  0.410765  0.080999
0.202250  0.236346  0.186689
0.278762  0.298981  0.177239
0.352929  0.353095  0.153098
0.450552  0.402636  0.146225
0.556833  0.427777  0.132430
0.687310  0.452604  0.143436
0.831902  0.473254  0.133408
0.950770  0.504337  0.102720
0.262396  0.318979  0.187309
0.335747  0.375123  0.172058
0.410529  0.434359  0.175565
0.496230  0.502007  0.151556
0.590463  0.544064  0.132037
0.715589  0.563778  0.138329
0.840002  0.592886  0.141203
0.975132  0.609322  0.126780
0.317134  0.398308  0.188995
0.400513  0.458879  0.174820
0.473372  0.513816  0.165519
0.545627  0.572328  0.161614
0.635106  0.625013  0.139042
0.742299  0.677139  0.145612
0.845581  0.713915  0.142113
1.000570  0.730465  0.134574
0.373138  0.481870  0.175750
0.455285  0.531797  0.164290
0.530407  0.581373  0.167284
0.609385  0.642503  0.155145
0.699488  0.696616  0.148001
0.793497  0.739328  0.144595
0.897914  0.796006  0.135007
1.007877  0.826595  0.133782
0.411670  0.559306  0.175272
0.512022  0.617416  0.164700
0.594777  0.660828  0.157183
0.673474  0.708152  0.145691
0.752789  0.770600  0.145179
0.846222  0.814720  0.148550
0.936467  0.857469  0.142714
1.046677  0.902747  0.144448
0.071333  0.128955  0.152042
0.111474  0.162910  0.164499
0.208909  0.199284  0.156728
0.362120  0.206232  0.147130
0.509507  0.207124  0.140166
0.638002  0.207654  0.146321
0.780484  0.210981  0.153500
0.923407  0.207594  0.156065
0.107581  0.172382  0.198609
0.142406  0.209218  0.223551
0.232080  0.258159  0.227630
0.371983  0.292680  0.190401
0.509835  0.312897  0.172720
0.641101  0.321570  0.177745
0.778692  0.331966  0.162820
0.909298  0.336432  0.166389
0.147267  0.225105  0.263736
0.187665  0.260173  0.283574
0.267649  0.295477  0.269812
0.393293  0.356079  0.251962
0.525499  0.389399  0.230805
0.657344  0.409458  0.206297
0.795756  0.432623  0.200522
0.926662  0.451422  0.195123
0.180117  0.275916  0.317833
0.254715  0.316965  0.316966
0.326776  0.361950  0.305816
0.425331  0.413244  0.295430
0.557523  0.442570  0.268837
0.682927  0.483309  0.258802
0.810729  0.511976  0.236829
0.939693  0.537171  0.227217
0.236919  0.320048  0.349828
0.317466  0.382377  0.325612
0.400595  0.439267  0.311333
0.482982  0.505129  0.302492
0.585806  0.552120  0.289780
0.706642  0.574475  0.278947
0.843156  0.602313  0.274059
0.975242  0.626327  0.265035
0.303066  0.391592  0.353505
0.385092  0.462048  0.331986
0.460874  0.522035  0.318193
0.541665  0.574629  0.298240
0.638366  0.642941  0.299042
0.734595  0.686561  0.285720
0.857783  0.710562  0.280127
0.992071  0.732185  0.286527
0.350895  0.464355  0.333089
0.436324  0.526102  0.329176
0.524677  0.586688  0.316303
0.599884  0.638935  0.305894
0.694742  0.709818  0.312081
0.786277  0.751029  0.300719
0.892355  0.799985  0.269177
1.012556  0.830629  0.270849
0.395965  0.555954  0.328140
0.495378  0.609555  0.310613
0.579922  0.656116  0.296575
0.662379  0.708290  0.307208
0.744078  0.759199  0.297754
0.848590  0.824733  0.295283
0.934436  0.863440  0.299809
1.046598  0.911833  0.278785
0.079734  0.170299  0.226269
0.118690  0.206872  0.248743
0.214725  0.240965  0.255879
0.356584  0.252815  0.253238
0.496104  0.238534  0.245440
0.644037  0.233175  0.241578
0.787294  0.229660  0.255442
0.917744  0.218394  0.279560
0.125430  0.221665  0.274146
0.168395  0.256669  0.304268
0.239680  0.306446  0.322885
0.354673  0.336751  0.299811
0.504956  0.349337  0.279884
0.634371  0.351273  0.282496
0.772109  0.342313  0.274452
0.914387  0.349865  0.294129
0.169430  0.273557  0.330667
0.212163  0.307290  0.354647
0.268196  0.358194  0.383478
0.388977  0.402664  0.358973
0.501623  0.433713  0.341377
0.657072  0.450383  0.306742
0.784292  0.466616  0.307967
0.922748  0.478865  0.302988
0.208386  0.322194  0.384079
0.254369  0.364125  0.419347
0.303485  0.404533  0.435774
0.417000  0.447950  0.408060
0.532424  0.493969  0.389304
0.679607  0.527401  0.358413
0.800019  0.553048  0.351602
0.932691  0.583279  0.339313
0.247736  0.373890  0.436827
0.293821  0.409453  0.456953
0.373020  0.458171  0.461204
0.474809  0.513405  0.442591
0.560019  0.558262  0.452530
0.698356  0.596575  0.420885
0.825416  0.627233  0.399795
0.953968  0.655554  0.384235
0.283025  0.410903  0.479340
0.358716  0.458712  0.484841
0.455737  0.521532  0.459499
0.524288  0.579762  0.454368
0.620385  0.638464  0.449283
0.722471  0.692943  0.440559
0.852020  0.722227  0.429909
0.976906  0.734009  0.426188
0.327168  0.462026  0.504954
0.418182  0.523642  0.486952
0.508111  0.589834  0.465867
0.593433  0.642101  0.452018
0.682283  0.709433  0.443329
0.781104  0.764428  0.438938
0.880261  0.808623  0.441333
1.014113  0.838313  0.443219
0.367696  0.539089  0.504613
0.473077  0.594957  0.471461
0.572292  0.658886  0.461585
0.651216  0.703121  0.450167
0.753152  0.768970  0.444281
0.833727  0.812508  0.440247
0.931344  0.867625  0.455123
1.042383  0.920520  0.432549
0.047721  0.198553  0.367294
0.142174  0.242759  0.358029
0.227936  0.275621  0.355576
0.355981  0.272846  0.359563
0.501277  0.262012  0.367613
0.644274  0.253605  0.365062
0.802477  0.256107  0.366344
0.937908  0.243204  0.370275
0.114465  0.279343  0.381558
0.191983  0.311689  0.380085
0.247960  0.347840  0.393865
0.352942  0.377212  0.398476
0.487249  0.386140  0.394327
0.639723  0.376016  0.395642
0.783376  0.373012  0.376408
0.924331  0.372372  0.386839
0.161209  0.332963  0.428393
0.237223  0.366029  0.425318
0.285893  0.400628  0.453245
0.377327  0.450744  0.454250
0.498237  0.482347  0.433260
0.637928  0.495747  0.427523
0.775266  0.495796  0.416325
0.925435  0.491151  0.409967
0.218675  0.378582  0.462567
0.281193  0.411329  0.479207
0.331033  0.458219  0.508765
0.397765  0.496445  0.519432
0.517427  0.541469  0.499432
0.646712  0.579912  0.480869
0.784107  0.606500  0.458662
0.935141  0.610070  0.443939
0.255563  0.424807  0.512417
0.324260  0.462511  0.529031
0.379172  0.508990  0.570893
0.431269  0.552850  0.589292
0.564293  0.599348  0.551125
0.669967  0.642147  0.537606
0.813124  0.678288  0.500603
0.948858  0.701809  0.485941
0.288446  0.471690  0.561917
0.359699  0.507082  0.571478
0.422108  0.559167  0.605882
0.493938  0.600443  0.610533
0.601376  0.649716  0.588175
0.717168  0.707252  0.591192
0.836054  0.743276  0.568243
0.972564  0.775765  0.540497
0.328377  0.514772  0.610364
0.397538  0.548440  0.618635
0.476301  0.597188  0.619348
0.575006  0.650458  0.607133
0.677745  0.712814  0.591362
0.766998  0.763451  0.601743
0.879763  0.813453  0.586493
1.004681  0.853957  0.582583
0.362342  0.561141  0.650650
0.448549  0.595909  0.651250
0.553384  0.649398  0.617667
0.644719  0.702885  0.607128
0.742998  0.769325  0.588718
0.823129  0.821602  0.586055
0.928447  0.878062  0.591314
1.043887  0.923744  0.586185
0.029119  0.209611  0.530799
0.116056  0.240579  0.534094
0.207470  0.280061  0.515412
0.371660  0.281916  0.480714
0.508384  0.275209  0.480223
0.643509  0.269888  0.491139
0.782144  0.263180  0.493273
0.945860  0.254442  0.489103
0.072633  0.305632  0.535397
0.165639  0.351715  0.529045
0.246579  0.404114  0.516711
0.365763  0.416170  0.490333
0.493511  0.410871  0.503913
0.638766  0.404961  0.510966
0.781074  0.409385  0.515419
0.929932  0.393283  0.508936
0.127598  0.380163  0.556750
0.238749  0.431377  0.529443
0.300810  0.467128  0.547115
0.381236  0.499480  0.536755
0.489257  0.522691  0.539478
0.637497  0.532421  0.534560
0.775628  0.528502  0.533309
0.917211  0.527600  0.521037
0.185984  0.430312  0.579386
0.279450  0.476201  0.579424
0.358483  0.519133  0.588490
0.416837  0.552896  0.598008
0.499851  0.594272  0.605018
0.632269  0.623505  0.571146
0.780597  0.641084  0.565287
0.920523  0.655829  0.565214
0.234489  0.475611  0.619815
0.332615  0.521577  0.617827
0.404798  0.564419  0.631863
0.462883  0.605692  0.655798
0.541319  0.649197  0.668986
0.662589  0.691400  0.641189
0.790143  0.729340  0.617370
0.936390  0.755418  0.607765
0.284494  0.521297  0.661764
0.374997  0.564652  0.661969
0.440622  0.608455  0.674185
0.507590  0.657018  0.707799
0.578325  0.701017  0.727748
0.701230  0.743968  0.704669
0.825521  0.790085  0.677261
0.955503  0.827132  0.656485
0.326326  0.558490  0.701867
0.411518  0.610718  0.709438
0.483355  0.654304  0.735206
0.548535  0.689271  0.736373
0.637287  0.736429  0.746840
0.754406  0.782230  0.734716
0.868220  0.829413  0.722875
0.986531  0.874330  0.706612
0.373476  0.590426  0.752226
0.453057  0.643125  0.751261
0.509669  0.687808  0.775056
0.606379  0.729388  0.764830
0.708537  0.777696  0.757959
0.821176  0.821900  0.738176
0.924015  0.882876  0.734653
1.033488  0.932519  0.724231
0.031565  0.201759  0.669228
0.122029  0.248249  0.667594
0.207969  0.276592  0.687494
0.329855  0.288995  0.684803
0.497761  0.284573  0.634826
0.648249  0.268060  0.624325
0.785199  0.266378  0.634009
0.930430  0.260547  0.636263
0.074187  0.312433  0.667496
0.153139  0.346370  0.665032
0.245604  0.397019  0.670142
0.330811  0.430255  0.686736
0.487095  0.420389  0.648393
0.647488  0.415280  0.627259
0.784557  0.407199  0.638689
0.925825  0.400993  0.639517
0.114954  0.402868  0.663743
0.211998  0.450383  0.665500
0.293217  0.498352  0.669703
0.356483  0.549570  0.695059
0.489670  0.567831  0.666254
0.633772  0.563688  0.645210
0.775610  0.548243  0.656010
0.923443  0.548440  0.655740
0.182036  0.465282  0.677346
0.270084  0.514709  0.671488
0.356271  0.567547  0.691648
0.424030  0.618323  0.711327
0.503505  0.664013  0.726121
0.631836  0.667256  0.677203
0.780806  0.680311  0.669606
0.915775  0.683517  0.667524
0.235856  0.505711  0.706389
0.333144  0.567621  0.701221
0.423432  0.613524  0.710866
0.479675  0.665518  0.751537
0.534563  0.710749  0.788385
0.649088  0.742201  0.749086
0.781355  0.772830  0.719260
0.927214  0.797221  0.704655
0.288716  0.550771  0.751856
0.387149  0.603360  0.738765
0.465799  0.657273  0.761154
0.526149  0.698164  0.789505
0.581385  0.747525  0.829872
0.680301  0.791469  0.834685
0.806846  0.828849  0.788237
0.941799  0.870198  0.758873
0.327149  0.588344  0.797806
0.428738  0.639276  0.771498
0.505554  0.683151  0.795485
0.574780  0.743312  0.832736
0.639076  0.785253  0.854711
0.728888  0.839243  0.877726
0.835917  0.879427  0.858731
0.974346  0.920808  0.819708
0.364182  0.626810  0.833992
0.474005  0.676624  0.824051
0.549191  0.735214  0.829972
0.613384  0.765959  0.859989
0.688929  0.815873  0.884391
0.788072  0.876385  0.910873
0.901440  0.918327  0.887498
1.014044  0.956342  0.865746
0.030555  0.198252  0.800810
0.118749  0.235830  0.814165
0.226125  0.266439  0.822990
0.317919  0.284997  0.830547
0.466569  0.281319  0.831318
0.622046  0.277926  0.808270
0.803729  0.265093  0.782236
0.949610  0.272974  0.769537
0.066483  0.309794  0.807696
0.168665  0.349425  0.800135
0.256085  0.394542  0.810130
0.338342  0.421320  0.828513
0.461428  0.436868  0.835939
0.622623  0.433209  0.820678
0.772785  0.424711  0.789679
0.932490  0.409314  0.778272
0.118934  0.394536  0.792486
0.208285  0.457552  0.802483
0.295771  0.506452  0.810732
0.382037  0.553103  0.818726
0.475481  0.575772  0.836557
0.620865  0.587226  0.832494
0.770334  0.568220  0.807815
0.918232  0.563363  0.792565
0.169661  0.476971  0.797461
0.274548  0.528335  0.786251
0.357421  0.588933  0.794426
0.432871  0.649136  0.804659
0.505295  0.699129  0.829379
0.614194  0.721019  0.844721
0.744596  0.712689  0.850417
0.919137  0.703617  0.809357
0.228242  0.530477  0.821559
0.332395  0.585804  0.792199
0.431828  0.641733  0.794157
0.501194  0.697459  0.810581
0.565651  0.734140  0.842617
0.636883  0.784508  0.874145
0.741618  0.838377  0.892807
0.901227  0.841125  0.838359
0.274157  0.577926  0.844098
0.387980  0.629851  0.827851
0.483517  0.682756  0.817175
0.561043  0.735589  0.836901
0.617635  0.773323  0.866503
0.692582  0.829729  0.903903
0.788713  0.888191  0.937122
0.911239  0.931584  0.906459
0.317468  0.624391  0.904595
0.430022  0.669321  0.875672
0.529224  0.725723  0.860499
0.600940  0.768842  0.875810
0.663385  0.808507  0.896339
0.753656  0.865430  0.932261
0.838668  0.918305  0.953223
0.948959  0.968155  0.973965
0.348203  0.668308  0.934322
0.477006  0.711830  0.914424
0.566569  0.757878  0.905047
0.650992  0.806718  0.917293
0.717035  0.846522  0.935765
0.809808  0.900689  0.956602
0.897892  0.943760  0.972224
0.988238  0.992530  1.002655
