LUT/LUT_37.CUBE
TITLE "LUT_37" 
#LUT size 
LUT_3D_SIZE 8 
DOMAIN_MIN 0.0 0.0 0.0 
DOMAIN_MAX 1.0 1.0 1.0 
#data point 
0.072199  0.073688  0.031728
0.108497  0.095071  0.054327
0.167697  0.153834  0.077323
0.308890  0.238426  0.071209
0.408755  0.304531  0.071988
0.507691  0.373779  0.073170
0.613557  0.425481  0.064961
0.715994  0.497962  0.065462
0.118057  0.107199  0.051346
0.124365  0.117815  0.057429
0.226867  0.198163  0.095599
0.350205  0.275174  0.089731
0.462558  0.332773  0.088628
0.538197  0.398139  0.080332
0.640457  0.466122  0.075817
0.739336  0.527694  0.059234
0.141848  0.136110  0.083830
0.201957  0.189798  0.101702
0.290664  0.247697  0.092110
0.393252  0.317010  0.090234
0.484973  0.362961  0.076315
0.592319  0.451978  0.090228
0.681914  0.513336  0.074626
0.801088  0.572968  0.070209
0.218723  0.195234  0.089894
0.302770  0.259621  0.105142
0.373837  0.298294  0.099027
0.448128  0.344155  0.086772
0.543091  0.422413  0.089849
0.643497  0.487804  0.083687
0.737711  0.554973  0.084955
0.851644  0.620698  0.078541
0.305338  0.262477  0.124977
0.381559  0.295324  0.092857
0.475158  0.363680  0.089824
0.527065  0.406294  0.091113
0.614900  0.481544  0.082412
0.689224  0.557109  0.082302
0.802648  0.614275  0.087110
0.908368  0.693524  0.085613
0.381924  0.308513  0.120615
0.472470  0.371800  0.090317
0.554596  0.434695  0.097824
0.614771  0.479334  0.098276
0.706179  0.577589  0.081987
0.778497  0.642498  0.084994
0.861680  0.703098  0.082511
0.950106  0.753922  0.100777
0.467444  0.364590  0.099657
0.528359  0.419233  0.102059
0.628241  0.493596  0.087695
0.698842  0.567220  0.083433
0.762925  0.619746  0.095466
0.831165  0.665458  0.083128
0.909474  0.734088  0.082643
1.017263  0.785137  0.088688
0.543337  0.431790  0.101451
0.625045  0.504987  0.105720
0.692080  0.555089  0.086661
0.743831  0.605728  0.093621
0.805188  0.649962  0.082483
0.881786  0.707765  0.099196
0.969613  0.770651  0.096425
1.079972  0.829551  0.090956
0.105993  0.104479  0.052577
0.117621  0.111840  0.060928
0.182017  0.167652  0.086469
0.283490  0.231128  0.089636
0.405224  0.315471  0.081948
0.509113  0.378569  0.074272
0.600829  0.448656  0.072318
0.728452  0.491941  0.069663
0.134886  0.128772  0.072076
0.160542  0.156474  0.092095
0.215598  0.202363  0.109528
0.312092  0.265168  0.117546
0.434670  0.342648  0.097146
0.552722  0.409080  0.086246
0.664098  0.486257  0.071639
0.745161  0.527472  0.072656
0.157368  0.162414  0.119001
0.196556  0.202195  0.146851
0.276177  0.259748  0.157716
0.386749  0.318413  0.125559
0.489237  0.385545  0.121580
0.593329  0.447362  0.106447
0.683686  0.507548  0.092526
0.798000  0.592613  0.089434
0.202000  0.229085  0.188171
0.261248  0.263227  0.194352
0.338952  0.303458  0.161371
0.441896  0.365944  0.153347
0.529513  0.402458  0.136135
0.627301  0.491014  0.135224
0.748205  0.560264  0.132052
0.841786  0.637365  0.091206
0.289983  0.282727  0.198849
0.336933  0.302370  0.182553
0.424967  0.375412  0.192955
0.528439  0.444154  0.176776
0.616092  0.490051  0.117421
0.715551  0.572393  0.101012
0.791492  0.623907  0.124736
0.906221  0.693695  0.121791
0.361490  0.330686  0.196049
0.434468  0.376900  0.199612
0.505207  0.418469  0.161211
0.580976  0.474178  0.152636
0.684716  0.563666  0.115784
0.765249  0.626845  0.112940
0.867973  0.700686  0.128073
0.978230  0.760601  0.135800
0.431741  0.376805  0.205565
0.525635  0.426664  0.177466
0.596144  0.484178  0.182432
0.680962  0.555365  0.123695
0.753403  0.614776  0.126040
0.833167  0.685221  0.118502
0.921630  0.748859  0.112336
0.988709  0.777702  0.116855
0.504596  0.422980  0.215002
0.596458  0.492435  0.161401
0.679097  0.551696  0.168370
0.765371  0.619315  0.136337
0.825079  0.674314  0.125281
0.895065  0.730395  0.121010
0.973455  0.767832  0.126571
1.066954  0.822590  0.141679
0.143627  0.148909  0.100353
0.152774  0.162670  0.127320
0.190324  0.195782  0.145760
0.306817  0.263201  0.125506
0.427528  0.330685  0.093089
0.518684  0.388989  0.097524
0.619935  0.463546  0.089206
0.701331  0.511097  0.083869
0.168029  0.179912  0.144551
0.189886  0.218673  0.183724
0.227183  0.253649  0.220814
0.339712  0.305225  0.182399
0.469406  0.378501  0.148100
0.536758  0.418922  0.138783
0.656229  0.488736  0.102186
0.765546  0.564339  0.105857
0.214504  0.243853  0.222479
0.229847  0.273349  0.249149
0.240682  0.277431  0.251786
0.365562  0.360165  0.258384
0.478954  0.420951  0.228842
0.580940  0.463531  0.152796
0.691822  0.537498  0.140108
0.801137  0.608114  0.142125
0.224628  0.276194  0.267557
0.266760  0.316054  0.318854
0.317232  0.351452  0.323134
0.407242  0.398703  0.311039
0.521333  0.451714  0.258015
0.622709  0.506630  0.211320
0.754126  0.588876  0.198144
0.832786  0.639522  0.200545
0.258215  0.316939  0.312736
0.323871  0.370825  0.345176
0.390182  0.398598  0.333241
0.473920  0.457615  0.336385
0.570947  0.490632  0.303710
0.698788  0.577508  0.283962
0.824637  0.655938  0.227532
0.916417  0.708837  0.229636
0.308702  0.360528  0.346536
0.386704  0.419502  0.377573
0.474111  0.448732  0.331450
0.551594  0.505403  0.330865
0.660893  0.574177  0.332611
0.765817  0.636647  0.275382
0.854933  0.703426  0.258095
0.960489  0.759677  0.254232
0.353409  0.398855  0.366713
0.453944  0.450210  0.361827
0.559644  0.506906  0.342821
0.633675  0.556063  0.340959
0.741613  0.617457  0.311185
0.809666  0.670774  0.293334
0.910542  0.729451  0.261286
1.009659  0.797169  0.239816
0.436501  0.453942  0.383986
0.545969  0.510341  0.349025
0.628880  0.553801  0.327682
0.720161  0.610363  0.315483
0.790991  0.664090  0.303417
0.917712  0.736756  0.272783
0.965690  0.771944  0.274111
1.086380  0.842342  0.251830
0.162445  0.191983  0.165704
0.179788  0.214527  0.200802
0.233437  0.258280  0.222216
0.275398  0.294375  0.246193
0.445566  0.368757  0.171336
0.536643  0.424782  0.146067
0.646208  0.484062  0.134437
0.727105  0.549636  0.134121
0.188085  0.227535  0.207182
0.217048  0.267757  0.250672
0.258126  0.301478  0.279730
0.325557  0.349678  0.297642
0.462503  0.404320  0.224179
0.551320  0.449283  0.193875
0.677834  0.526806  0.184747
0.767924  0.599275  0.175632
0.231787  0.278233  0.267342
0.263259  0.318486  0.316038
0.286451  0.349959  0.350080
0.383446  0.411683  0.371302
0.455717  0.457949  0.370202
0.580812  0.506281  0.272016
0.711479  0.576348  0.258096
0.817514  0.653900  0.243386
0.269637  0.330752  0.330188
0.294628  0.368839  0.368197
0.318079  0.399863  0.411513
0.391010  0.441572  0.410194
0.494924  0.494229  0.414501
0.629322  0.561532  0.346213
0.729299  0.617372  0.316330
0.853395  0.677418  0.298638
0.314027  0.395204  0.403952
0.351207  0.432645  0.448868
0.367555  0.452434  0.460079
0.467923  0.501861  0.459130
0.556367  0.567472  0.478920
0.646549  0.594131  0.429614
0.775330  0.667394  0.393522
0.907169  0.748324  0.364249
0.336809  0.428505  0.448555
0.362583  0.454497  0.475460
0.437510  0.489054  0.463304
0.510930  0.544392  0.501727
0.592460  0.590720  0.489684
0.710916  0.661223  0.487701
0.858341  0.739738  0.438006
0.930283  0.774553  0.432313
0.366571  0.468340  0.487486
0.428138  0.511671  0.505009
0.510741  0.533808  0.471314
0.574347  0.589557  0.502758
0.687270  0.650827  0.493496
0.795518  0.707592  0.476696
0.904957  0.765710  0.463319
0.986438  0.818200  0.494181
0.404699  0.505979  0.523651
0.485622  0.528006  0.487832
0.556917  0.582837  0.522268
0.666758  0.636307  0.493978
0.786250  0.705354  0.490739
0.864105  0.750183  0.468744
0.966101  0.802584  0.490941
1.048746  0.852622  0.491242
0.193693  0.231422  0.215251
0.231287  0.280179  0.278356
0.249213  0.306612  0.292635
0.296984  0.339695  0.311861
0.408556  0.400126  0.297892
0.536342  0.462956  0.245004
0.652343  0.527852  0.201889
0.756329  0.571007  0.173711
0.241762  0.296224  0.276239
0.254410  0.314922  0.319779
0.292061  0.360523  0.360523
0.342737  0.404247  0.399175
0.421624  0.440349  0.383231
0.550383  0.498199  0.324668
0.672017  0.547533  0.276784
0.784446  0.619900  0.250289
0.266508  0.335502  0.348220
0.304067  0.378659  0.385722
0.322917  0.406998  0.424335
0.379372  0.453195  0.454278
0.465889  0.499384  0.457971
0.557409  0.546092  0.431238
0.708716  0.608876  0.370970
0.815381  0.658337  0.327481
0.298002  0.380847  0.395812
0.337471  0.423582  0.440353
0.358970  0.455172  0.485369
0.383155  0.492293  0.525315
0.502547  0.542764  0.496479
0.598497  0.603017  0.506319
0.732922  0.666219  0.456853
0.853465  0.707900  0.392419
0.338373  0.430243  0.447889
0.363308  0.466808  0.501505
0.405483  0.508804  0.542191
0.452543  0.562286  0.585694
0.525977  0.597027  0.574630
0.640482  0.658094  0.576081
0.775130  0.708858  0.523308
0.912531  0.779664  0.480334
0.372382  0.474410  0.497249
0.402860  0.510347  0.531895
0.438608  0.553780  0.587610
0.483550  0.596477  0.618979
0.569416  0.624129  0.590649
0.699550  0.714549  0.640691
0.811866  0.759638  0.607036
0.944186  0.810516  0.554355
0.411460  0.523029  0.555476
0.447228  0.557199  0.583540
0.482658  0.603102  0.634289
0.558333  0.626942  0.621650
0.671679  0.693276  0.612144
0.777453  0.751123  0.639920
0.884640  0.807920  0.625066
0.993499  0.846138  0.603374
0.453174  0.570386  0.601963
0.485092  0.610690  0.641832
0.537078  0.630265  0.630020
0.649519  0.684743  0.635326
0.730470  0.729493  0.640294
0.844005  0.777753  0.624656
0.944005  0.841067  0.644785
1.040694  0.866794  0.612988
0.252980  0.309491  0.307699
0.266229  0.330117  0.328540
0.291175  0.366167  0.379964
0.323319  0.396068  0.396209
0.415688  0.439684  0.383571
0.510299  0.489990  0.365963
0.637508  0.535219  0.295262
0.755039  0.606877  0.269322
0.276180  0.350400  0.361529
0.306742  0.391365  0.406649
0.322363  0.409187  0.431339
0.369606  0.450075  0.460217
0.441498  0.505279  0.487210
0.545409  0.553240  0.475960
0.665887  0.602411  0.405921
0.794079  0.660703  0.365008
0.309714  0.399237  0.416390
0.342298  0.430205  0.438722
0.382147  0.481376  0.498462
0.404227  0.507553  0.523827
0.463708  0.534210  0.532814
0.573951  0.604333  0.549357
0.677867  0.628785  0.477827
0.829009  0.715835  0.458709
0.331956  0.434327  0.464306
0.373779  0.473338  0.487620
0.414287  0.531083  0.558953
0.430080  0.549985  0.584612
0.487804  0.596605  0.622131
0.604420  0.646827  0.601284
0.731545  0.696252  0.542338
0.834033  0.759773  0.567970
0.385119  0.496866  0.528531
0.422421  0.534710  0.564151
0.447944  0.574508  0.610203
0.483487  0.604093  0.639068
0.534774  0.653450  0.681777
0.651901  0.699202  0.658455
0.740587  0.733333  0.627903
0.904551  0.808604  0.604411
0.410420  0.529149  0.559626
0.450462  0.571259  0.603367
0.479934  0.606520  0.648932
0.516315  0.646003  0.677878
0.572302  0.704920  0.735754
0.693627  0.744187  0.725492
0.819107  0.803287  0.703480
0.936009  0.844553  0.679151
0.455396  0.577207  0.609987
0.492474  0.618002  0.654230
0.544143  0.667246  0.694365
0.567423  0.688836  0.720089
0.634764  0.746084  0.772727
0.735981  0.791301  0.769984
0.866935  0.835707  0.749552
0.974264  0.870303  0.718618
0.490333  0.612458  0.645186
0.521586  0.641036  0.670103
0.564138  0.692078  0.732382
0.603137  0.719034  0.746205
0.700436  0.786362  0.794827
0.808647  0.817672  0.755641
0.908777  0.858539  0.748423
1.028430  0.910939  0.741977
0.290758  0.371828  0.389531
0.313510  0.390414  0.410717
0.343593  0.441692  0.459943
0.372064  0.475569  0.506729
0.421426  0.491041  0.478738
0.509927  0.532989  0.476154
0.615585  0.571676  0.420606
0.764393  0.650891  0.378835
0.321760  0.411221  0.431873
0.343699  0.448343  0.480457
0.361554  0.468404  0.496173
0.406042  0.518531  0.561851
0.444165  0.549326  0.579882
0.547405  0.580812  0.524830
0.648652  0.636500  0.529762
0.795432  0.703299  0.475201
0.349422  0.453237  0.482129
0.379068  0.482837  0.513473
0.415168  0.524695  0.548611
0.448893  0.568757  0.593079
0.492410  0.604728  0.628321
0.587635  0.647098  0.617036
0.691120  0.701809  0.617743
0.808586  0.745641  0.575307
0.383659  0.490150  0.520369
0.403216  0.515608  0.543283
0.461238  0.588575  0.620061
0.490470  0.619708  0.648198
0.534787  0.666148  0.701365
0.591684  0.689983  0.696212
0.747710  0.747348  0.651451
0.866412  0.797670  0.645747
0.420885  0.534890  0.563398
0.468773  0.588370  0.616365
0.496647  0.618309  0.646652
0.544395  0.666819  0.700374
0.593709  0.727042  0.766190
0.633965  0.738380  0.762715
0.754296  0.776452  0.726206
0.894110  0.843014  0.708824
0.453730  0.574812  0.607620
0.498778  0.623646  0.657631
0.536741  0.664280  0.702818
0.603325  0.726541  0.768912
0.635744  0.763680  0.807562
0.690363  0.805032  0.847431
0.794392  0.835556  0.810939
0.927926  0.876124  0.763021
0.497421  0.623142  0.653499
0.535044  0.659671  0.688115
0.574379  0.701142  0.736839
0.629960  0.761290  0.805945
0.682535  0.796992  0.838386
0.737158  0.845297  0.883769
0.832449  0.893500  0.900742
0.962652  0.902004  0.793565
0.529612  0.654639  0.693129
0.581339  0.699429  0.731598
0.609994  0.740652  0.786201
0.679116  0.803645  0.848264
0.729016  0.839645  0.877827
0.798813  0.885396  0.910825
0.873841  0.925274  0.933364
1.000333  0.947045  0.859796
0.329223  0.421395  0.447991
0.339167  0.444779  0.473641
0.386217  0.501476  0.528908
0.412221  0.531097  0.572961
0.460979  0.576312  0.614969
0.513486  0.592317  0.580810
0.633504  0.643603  0.559698
0.781039  0.702701  0.495369
0.351310  0.454472  0.488082
0.378033  0.490896  0.521683
0.429365  0.549609  0.585607
0.463953  0.585219  0.623207
0.506497  0.624403  0.652298
0.546285  0.655657  0.679166
0.637329  0.680504  0.631636
0.790390  0.739188  0.585563
0.374180  0.496959  0.534599
0.416097  0.536832  0.571450
0.458220  0.583300  0.620063
0.515653  0.644374  0.673257
0.550569  0.678449  0.711967
0.598392  0.719050  0.749917
0.697298  0.745627  0.701345
0.827269  0.786490  0.666748
0.430293  0.540922  0.575674
0.457393  0.577179  0.615054
0.505326  0.631632  0.661687
0.566553  0.686099  0.717215
0.579337  0.719189  0.766781
0.636367  0.759962  0.804960
0.693683  0.791938  0.820484
0.853784  0.830199  0.742372
0.451779  0.572611  0.606740
0.503185  0.625165  0.660585
0.542131  0.669513  0.703179
0.584600  0.722639  0.755733
0.637894  0.758888  0.797694
0.681541  0.804791  0.845958
0.761730  0.861201  0.899921
0.858872  0.882417  0.843046
0.484098  0.606874  0.644449
0.525569  0.655267  0.682259
0.581043  0.710694  0.740714
0.629585  0.755818  0.803693
0.657802  0.782499  0.826570
0.745889  0.848682  0.890400
0.799572  0.891171  0.927759
0.883339  0.926798  0.930654
0.532672  0.658990  0.695825
0.577810  0.706604  0.746748
0.611237  0.743792  0.789983
0.648688  0.773511  0.824014
0.709399  0.827976  0.871753
0.785796  0.880783  0.911896
0.850791  0.919754  0.950568
0.908979  0.947452  0.967931
0.569523  0.697278  0.729471
0.593006  0.725907  0.772987
0.647986  0.772760  0.819919
0.709994  0.821333  0.869335
0.764872  0.861153  0.901952
0.835287  0.908364  0.937394
0.886539  0.936305  0.958040
0.943538  0.967696  0.984534
