LUT/LUT_35.CUBE
TITLE "LUT_35" 
#LUT size 
LUT_3D_SIZE 15 
DOMAIN_MIN 0.0 0.0 0.0 
DOMAIN_MAX 1.0 1.0 1.0 
#data point 
0.075605  0.075637  0.033931
0.087038  0.084076  0.040491
0.102211  0.098407  0.049835
0.122459  0.115653  0.066350
0.168715  0.152464  0.079302
0.238181  0.202078  0.081466
0.312189  0.237544  0.068527
0.341195  0.263696  0.080434
0.410631  0.304903  0.068461
0.455075  0.342828  0.068229
0.505994  0.372817  0.072092
0.548451  0.393457  0.076557
0.614144  0.423712  0.060049
0.657140  0.473379  0.061884
0.723876  0.490962  0.062747
0.094301  0.089149  0.042809
0.100518  0.097415  0.046955
0.116620  0.111188  0.060206
0.146002  0.135477  0.072869
0.196582  0.180092  0.093644
0.260703  0.211061  0.087410
0.321943  0.257721  0.086207
0.388158  0.293324  0.083430
0.418340  0.323734  0.073996
0.465325  0.348471  0.069483
0.519443  0.377893  0.076594
0.591143  0.413909  0.071129
0.647598  0.465001  0.062917
0.694481  0.485484  0.067552
0.736551  0.503478  0.068128
0.118085  0.107587  0.050071
0.108295  0.104033  0.049622
0.126388  0.117624  0.061457
0.160049  0.152372  0.088343
0.224930  0.197178  0.093165
0.275341  0.224747  0.083995
0.347986  0.272004  0.090575
0.384340  0.297922  0.075584
0.462733  0.336520  0.090504
0.496094  0.369352  0.080777
0.536579  0.397252  0.077508
0.607573  0.449691  0.074940
0.642863  0.461927  0.074825
0.708150  0.490470  0.071956
0.748743  0.525683  0.061128
0.118492  0.113361  0.063604
0.136191  0.122636  0.059239
0.149878  0.139649  0.073715
0.199287  0.179405  0.099105
0.267547  0.219208  0.091677
0.307116  0.254413  0.097701
0.378353  0.296202  0.091059
0.419364  0.318445  0.086288
0.477694  0.358251  0.062859
0.519408  0.386133  0.079404
0.564453  0.419197  0.081681
0.617616  0.454451  0.080404
0.659232  0.480274  0.072107
0.727426  0.519670  0.069587
0.786122  0.562624  0.071285
0.144365  0.136879  0.084502
0.164997  0.150494  0.084796
0.201688  0.189569  0.103720
0.237592  0.214138  0.111598
0.293326  0.247719  0.092004
0.359273  0.277987  0.095891
0.395695  0.316366  0.088892
0.444453  0.335860  0.082246
0.488732  0.365490  0.071581
0.553478  0.407736  0.079880
0.595584  0.444884  0.085217
0.651287  0.489799  0.077104
0.689125  0.507169  0.071507
0.745554  0.541358  0.072914
0.805945  0.573281  0.071918
0.164331  0.162148  0.102242
0.212445  0.186490  0.088532
0.234353  0.204932  0.098751
0.289032  0.244600  0.095924
0.335607  0.266091  0.084224
0.360805  0.291743  0.095827
0.418056  0.325033  0.099085
0.481718  0.361793  0.087869
0.512208  0.385246  0.085569
0.548571  0.404901  0.076994
0.616870  0.460499  0.070088
0.662293  0.493310  0.086838
0.729284  0.537042  0.076029
0.773527  0.571659  0.082505
0.823701  0.588744  0.073793
0.221181  0.190250  0.087752
0.251434  0.228055  0.113225
0.305927  0.260908  0.104981
0.343842  0.276791  0.104657
0.376943  0.301347  0.092322
0.423309  0.335896  0.099650
0.453356  0.341485  0.085309
0.515324  0.395731  0.099218
0.546056  0.420406  0.084425
0.616265  0.471382  0.085257
0.645638  0.487831  0.079716
0.676487  0.511802  0.087242
0.739408  0.551481  0.081828
0.801940  0.590650  0.067730
0.856757  0.617681  0.075120
0.268638  0.238236  0.116032
0.295930  0.252137  0.098931
0.322646  0.263112  0.106791
0.375876  0.298341  0.091843
0.426556  0.338451  0.110142
0.462279  0.359044  0.081425
0.492571  0.375293  0.087594
0.549683  0.418494  0.084289
0.586840  0.451847  0.089414
0.628579  0.494001  0.081343
0.672946  0.528735  0.083782
0.727926  0.562119  0.086354
0.767252  0.603720  0.077931
0.835065  0.629651  0.079085
0.901887  0.656803  0.068777
0.302761  0.262616  0.118917
0.351652  0.290056  0.100506
0.380599  0.296003  0.090327
0.416808  0.324031  0.094367
0.469576  0.365259  0.088786
0.486586  0.383630  0.088840
0.527232  0.406090  0.088363
0.578055  0.444685  0.091516
0.617321  0.484525  0.080401
0.666330  0.538774  0.080638
0.695664  0.558499  0.084208
0.749368  0.593887  0.095220
0.800865  0.614529  0.088984
0.837459  0.659637  0.079713
0.906513  0.690180  0.079395
0.359775  0.291825  0.113633
0.385736  0.308641  0.102411
0.423678  0.330075  0.092754
0.460165  0.369787  0.104238
0.500241  0.396721  0.092589
0.529953  0.423514  0.089922
0.581224  0.457598  0.090917
0.630580  0.495419  0.093843
0.654635  0.524977  0.087552
0.703221  0.574295  0.082987
0.760127  0.607812  0.092460
0.786659  0.633511  0.077834
0.822851  0.674857  0.085240
0.861306  0.676410  0.085066
0.918698  0.727488  0.088237
0.382663  0.308405  0.119090
0.427672  0.348664  0.105607
0.466389  0.369654  0.090214
0.499621  0.382498  0.087391
0.554975  0.432716  0.092915
0.584439  0.456037  0.086755
0.612864  0.484294  0.100713
0.672800  0.528892  0.074687
0.704838  0.576479  0.079481
0.724730  0.588930  0.083096
0.778280  0.643288  0.082855
0.802052  0.650966  0.088564
0.862189  0.705031  0.081585
0.907578  0.728371  0.074109
0.955932  0.751878  0.096466
0.426204  0.337665  0.105446
0.466565  0.364631  0.104877
0.500975  0.403152  0.097074
0.545256  0.425058  0.096665
0.593905  0.453109  0.090035
0.628317  0.500999  0.089503
0.650294  0.527653  0.082970
0.675910  0.555254  0.082102
0.735436  0.602529  0.085004
0.755342  0.625842  0.078313
0.799416  0.659752  0.090171
0.847754  0.681437  0.086242
0.887296  0.707882  0.079378
0.922926  0.748956  0.081824
0.970723  0.769779  0.087141
0.472624  0.364423  0.096510
0.484683  0.391549  0.091883
0.526595  0.421430  0.100597
0.592012  0.464916  0.087154
0.628483  0.494740  0.083150
0.650885  0.521501  0.101209
0.697506  0.568403  0.084537
0.724181  0.577596  0.086742
0.761482  0.619697  0.094443
0.783463  0.653776  0.090030
0.834343  0.669457  0.082883
0.892745  0.713094  0.082499
0.909496  0.735053  0.087218
0.944934  0.759661  0.091359
1.022151  0.784291  0.092876
0.514288  0.401533  0.097933
0.556811  0.457069  0.091101
0.576607  0.462023  0.076263
0.625330  0.496973  0.084886
0.652026  0.525822  0.081763
0.671507  0.548717  0.081622
0.718064  0.582341  0.075324
0.770468  0.620669  0.082401
0.792496  0.649805  0.091814
0.820752  0.661511  0.088117
0.844905  0.690230  0.082104
0.905450  0.726843  0.090304
0.937017  0.761968  0.092500
0.990283  0.787285  0.096672
1.017051  0.794731  0.089397
0.542695  0.434826  0.098180
0.577904  0.448516  0.080470
0.625589  0.506616  0.100646
0.665881  0.536832  0.067655
0.693262  0.560378  0.086632
0.707490  0.577130  0.088682
0.749452  0.605513  0.086954
0.791313  0.653078  0.086671
0.813298  0.655011  0.085582
0.853459  0.702283  0.095426
0.883923  0.707387  0.102687
0.936229  0.753711  0.087142
0.969549  0.770142  0.094614
1.027354  0.792267  0.087200
1.076059  0.829930  0.089944
0.087926  0.082869  0.041378
0.101267  0.091821  0.048487
0.108604  0.098834  0.051905
0.120796  0.110664  0.057411
0.160306  0.146577  0.069956
0.233912  0.197133  0.079207
0.314402  0.250963  0.090774
0.362357  0.279049  0.085778
0.413835  0.311574  0.073997
0.438143  0.321508  0.065664
0.502931  0.362209  0.070520
0.565915  0.406066  0.070917
0.614538  0.434851  0.064799
0.657496  0.472777  0.060025
0.710373  0.500535  0.074895
0.102827  0.089213  0.042876
0.105339  0.095846  0.043481
0.109824  0.108037  0.055915
0.147280  0.133902  0.069618
0.189750  0.167767  0.099352
0.269314  0.227030  0.086577
0.320268  0.251285  0.081370
0.361886  0.284148  0.073154
0.422357  0.316923  0.075313
0.488732  0.354998  0.082798
0.512661  0.381286  0.067559
0.559472  0.411139  0.065912
0.630867  0.457248  0.066560
0.677731  0.485253  0.073109
0.744728  0.519089  0.070247
0.103264  0.097341  0.048092
0.119068  0.110438  0.054349
0.140962  0.127884  0.067908
0.170136  0.157288  0.082202
0.218339  0.193320  0.098151
0.296763  0.241392  0.082510
0.334282  0.251896  0.074704
0.387314  0.297589  0.086629
0.448446  0.335185  0.081160
0.488394  0.365476  0.082990
0.542693  0.396744  0.069641
0.605061  0.432632  0.069597
0.654749  0.466177  0.065149
0.702557  0.512509  0.074517
0.778070  0.541161  0.065413
0.134289  0.127002  0.073796
0.137773  0.136066  0.073650
0.160864  0.155910  0.091963
0.180754  0.164625  0.089113
0.244912  0.220573  0.107394
0.316149  0.257841  0.093912
0.355149  0.283736  0.099256
0.430299  0.335990  0.084974
0.472594  0.358406  0.093292
0.512380  0.379610  0.082487
0.556089  0.422143  0.083045
0.620795  0.452571  0.073004
0.676930  0.484868  0.074027
0.705976  0.514315  0.075318
0.780844  0.565748  0.058928
0.159399  0.146839  0.090925
0.167989  0.155100  0.088286
0.193263  0.190292  0.112939
0.229657  0.214052  0.110552
0.295745  0.248633  0.120370
0.344212  0.272267  0.096675
0.386180  0.308577  0.097858
0.443165  0.337912  0.083049
0.498893  0.379235  0.087508
0.531938  0.409431  0.089603
0.587999  0.430376  0.073193
0.634747  0.478098  0.078847
0.684100  0.524744  0.088338
0.739739  0.535646  0.075292
0.787910  0.566523  0.075435
0.187808  0.171138  0.100703
0.212321  0.192669  0.101281
0.237997  0.219697  0.122328
0.279556  0.251304  0.131652
0.335829  0.278214  0.108022
0.393304  0.319754  0.102321
0.442082  0.338548  0.100319
0.467034  0.357843  0.116524
0.506882  0.388289  0.095911
0.564961  0.437279  0.103465
0.598700  0.461797  0.088502
0.653441  0.491523  0.078924
0.701624  0.515565  0.076464
0.779714  0.563943  0.070010
0.841452  0.618202  0.069538
0.231298  0.221975  0.147014
0.257331  0.228307  0.117052
0.275177  0.252638  0.145504
0.314765  0.275361  0.136702
0.374101  0.297076  0.115264
0.416764  0.331105  0.097876
0.464443  0.351330  0.105646
0.503847  0.391417  0.115413
0.543928  0.423274  0.107495
0.584841  0.448820  0.098967
0.653113  0.509692  0.091450
0.686867  0.520808  0.085639
0.752877  0.562060  0.076017
0.790217  0.591233  0.074865
0.849440  0.621995  0.071810
0.253983  0.229104  0.123650
0.287450  0.254513  0.132030
0.336891  0.291225  0.145806
0.368738  0.314423  0.148204
0.429681  0.331978  0.106790
0.446133  0.359460  0.111574
0.517093  0.402970  0.092539
0.551292  0.421972  0.098405
0.579008  0.454344  0.109840
0.615613  0.490233  0.085431
0.679948  0.527731  0.087355
0.712018  0.550202  0.078655
0.771899  0.594098  0.073196
0.813605  0.613752  0.077768
0.889576  0.647731  0.072888
0.296863  0.266312  0.135700
0.343973  0.294827  0.157785
0.372483  0.306087  0.119760
0.402790  0.332417  0.122330
0.453293  0.356523  0.114327
0.492364  0.388301  0.112743
0.537549  0.421287  0.109261
0.571270  0.464868  0.092156
0.616472  0.482307  0.093979
0.667825  0.546400  0.096245
0.700357  0.561162  0.095934
0.751394  0.599225  0.094323
0.802595  0.622467  0.085788
0.854549  0.662210  0.099654
0.893436  0.685961  0.083210
0.320328  0.274211  0.134488
0.387672  0.326061  0.131305
0.409583  0.340610  0.132959
0.472455  0.370728  0.106888
0.501641  0.397414  0.116562
0.554809  0.436649  0.105883
0.589571  0.465727  0.107252
0.621635  0.497298  0.099324
0.667393  0.528040  0.106875
0.707707  0.568894  0.099393
0.747947  0.608874  0.077584
0.769900  0.619182  0.086161
0.823869  0.650491  0.082927
0.878608  0.689466  0.084290
0.939711  0.730024  0.088541
0.371119  0.312658  0.153642
0.393497  0.327076  0.143764
0.429158  0.345766  0.122061
0.503858  0.401114  0.112868
0.544237  0.432154  0.115024
0.581311  0.460464  0.098970
0.635746  0.510362  0.096406
0.668583  0.544945  0.093140
0.699600  0.567676  0.088442
0.740031  0.601259  0.088668
0.783380  0.639837  0.089614
0.828435  0.662579  0.091235
0.854138  0.691396  0.073416
0.912660  0.718975  0.100783
0.937152  0.732790  0.099787
0.398378  0.341109  0.141976
0.457801  0.366210  0.132881
0.506938  0.409249  0.123008
0.533764  0.425134  0.110554
0.587046  0.474653  0.114154
0.605244  0.489004  0.094089
0.641029  0.503725  0.108900
0.687394  0.556083  0.115363
0.720271  0.589617  0.096655
0.742104  0.616339  0.091613
0.798048  0.659019  0.076839
0.856445  0.684330  0.104848
0.891487  0.718642  0.089947
0.916530  0.744273  0.096095
0.973549  0.768893  0.083560
0.467545  0.377974  0.123485
0.521930  0.423385  0.095083
0.546377  0.439311  0.115221
0.598035  0.476333  0.104002
0.612666  0.491523  0.104439
0.666354  0.534163  0.111091
0.700381  0.572510  0.096706
0.711620  0.580316  0.096326
0.766560  0.621221  0.097530
0.791466  0.650354  0.099440
0.817473  0.681989  0.105062
0.884710  0.707419  0.100130
0.909654  0.746078  0.094562
0.980369  0.772186  0.096608
1.002057  0.775695  0.093244
0.493899  0.394017  0.137405
0.527622  0.419070  0.109139
0.575108  0.462032  0.097049
0.583365  0.472037  0.102017
0.658917  0.536335  0.101421
0.678730  0.545103  0.090346
0.701462  0.582787  0.111092
0.768372  0.633664  0.079644
0.790647  0.633487  0.096369
0.823701  0.679517  0.106003
0.863945  0.704719  0.093025
0.882981  0.719654  0.101382
0.936162  0.750998  0.100973
0.976765  0.771878  0.085055
1.010375  0.791721  0.097410
0.541155  0.432327  0.125782
0.577179  0.457458  0.100299
0.592201  0.473294  0.099191
0.648550  0.512899  0.098675
0.678141  0.549696  0.103435
0.717561  0.572836  0.097744
0.755802  0.603219  0.098676
0.781943  0.642000  0.108160
0.819714  0.670266  0.111852
0.849169  0.690738  0.106410
0.903691  0.736822  0.105665
0.919655  0.742542  0.103135
0.975507  0.770378  0.096932
1.028276  0.800650  0.104203
1.065836  0.825946  0.100998
0.106956  0.101443  0.053474
0.113656  0.111512  0.061051
0.117972  0.110362  0.056861
0.152578  0.144234  0.077636
0.184361  0.166425  0.085864
0.225916  0.193112  0.087333
0.282456  0.230998  0.089125
0.372820  0.284676  0.082736
0.406634  0.310901  0.076577
0.453817  0.343887  0.081810
0.507579  0.376703  0.073909
0.561847  0.409292  0.069493
0.604966  0.444863  0.072191
0.668826  0.475565  0.066302
0.731637  0.491358  0.065330
0.119467  0.110083  0.059853
0.131505  0.131990  0.078069
0.147566  0.144023  0.077237
0.155547  0.145898  0.077779
0.213591  0.186346  0.086323
0.280986  0.240288  0.101354
0.340237  0.271302  0.098207
0.364028  0.288428  0.100435
0.431660  0.329751  0.076635
0.480496  0.352750  0.076115
0.530836  0.396629  0.079650
0.581113  0.425726  0.076354
0.632319  0.461175  0.070730
0.715426  0.497863  0.063450
0.743564  0.519342  0.069879
0.135346  0.127846  0.066051
0.144418  0.148028  0.098095
0.162579  0.159773  0.088809
0.184050  0.174804  0.110216
0.221914  0.198666  0.109880
0.287305  0.251703  0.113909
0.317589  0.269957  0.109729
0.387998  0.307628  0.101793
0.439974  0.343023  0.098813
0.505876  0.384000  0.093899
0.550054  0.405457  0.081179
0.597759  0.441887  0.079315
0.667704  0.480674  0.071770
0.711736  0.495259  0.072088
0.747953  0.524886  0.069118
0.155729  0.155432  0.102528
0.157884  0.158639  0.109288
0.170020  0.179796  0.138766
0.206885  0.194355  0.135587
0.231812  0.219317  0.134755
0.312929  0.273325  0.135349
0.371183  0.304159  0.127694
0.401832  0.324210  0.121720
0.469750  0.367299  0.105693
0.525185  0.393891  0.079675
0.555097  0.421986  0.092308
0.633099  0.464957  0.081649
0.661178  0.488324  0.079034
0.704625  0.513943  0.078758
0.773556  0.543665  0.075830
0.153984  0.166269  0.120629
0.187627  0.203489  0.167085
0.197468  0.203071  0.144444
0.230821  0.224995  0.149741
0.273277  0.262057  0.156901
0.319215  0.282208  0.150542
0.390300  0.322496  0.121166
0.444606  0.353789  0.115282
0.486906  0.382575  0.122976
0.541512  0.406308  0.106793
0.596824  0.442563  0.109242
0.642731  0.481819  0.097304
0.687337  0.508337  0.094279
0.737751  0.555037  0.085981
0.800670  0.594422  0.091791
0.176938  0.194338  0.160407
0.197285  0.208048  0.154597
0.229186  0.232739  0.175934
0.258766  0.251094  0.167250
0.299043  0.273527  0.163530
0.350276  0.310747  0.167303
0.409204  0.339634  0.138864
0.465398  0.376286  0.120077
0.531092  0.405513  0.109132
0.570855  0.446290  0.123115
0.622411  0.476211  0.098519
0.656621  0.500698  0.119238
0.701932  0.529836  0.090847
0.778477  0.584521  0.094530
0.819636  0.609318  0.088912
0.207327  0.224507  0.187256
0.238328  0.239305  0.182230
0.261313  0.266443  0.198664
0.307364  0.285951  0.183132
0.340070  0.304456  0.165750
0.393633  0.332892  0.170209
0.447392  0.366073  0.154758
0.488062  0.399575  0.145519
0.530400  0.404540  0.133411
0.590360  0.454618  0.120767
0.632359  0.498209  0.133460
0.687971  0.534462  0.125847
0.747903  0.559182  0.129596
0.804369  0.604971  0.112677
0.843143  0.635961  0.093365
0.268363  0.270702  0.203728
0.277955  0.285697  0.214850
0.322936  0.295545  0.191313
0.353980  0.315831  0.180711
0.388045  0.340312  0.177219
0.433255  0.362571  0.160069
0.487535  0.404098  0.180591
0.537987  0.428735  0.140489
0.587766  0.461551  0.134019
0.634434  0.496504  0.135748
0.668456  0.516769  0.129781
0.704472  0.552310  0.125821
0.756997  0.584740  0.115413
0.817494  0.629236  0.116546
0.865582  0.658991  0.098145
0.285210  0.281194  0.199651
0.320874  0.301621  0.194131
0.338787  0.304598  0.184845
0.389707  0.346107  0.184510
0.430175  0.373347  0.195188
0.454412  0.378518  0.176392
0.531779  0.443361  0.173694
0.560147  0.454166  0.132388
0.623082  0.494931  0.115263
0.665103  0.528817  0.129633
0.717041  0.574935  0.103529
0.740243  0.597395  0.131357
0.795733  0.622832  0.125729
0.844471  0.658379  0.130385
0.905370  0.691477  0.125362
0.307850  0.298835  0.218556
0.348916  0.334213  0.213950
0.393568  0.342742  0.180167
0.421259  0.374945  0.208691
0.470860  0.396836  0.190613
0.526456  0.434735  0.165189
0.569829  0.472525  0.169419
0.604587  0.487443  0.121838
0.663931  0.523478  0.140508
0.698490  0.568987  0.120351
0.741819  0.605701  0.111623
0.780964  0.629870  0.119238
0.818169  0.653847  0.129298
0.871842  0.696008  0.128023
0.913059  0.707178  0.126066
0.366596  0.327963  0.194994
0.384921  0.343600  0.199347
0.438309  0.378860  0.199153
0.496591  0.404559  0.163005
0.503706  0.421161  0.162899
0.557350  0.452707  0.169222
0.579640  0.475178  0.154459
0.652710  0.533219  0.138846
0.686868  0.563649  0.110005
0.730970  0.601186  0.124364
0.764961  0.630234  0.113314
0.809593  0.656095  0.118556
0.868965  0.701451  0.129556
0.903226  0.706280  0.126160
0.983359  0.756465  0.131540
0.391236  0.349571  0.206700
0.430994  0.374971  0.205954
0.479943  0.408429  0.202097
0.507108  0.420158  0.178446
0.566607  0.467817  0.173561
0.606484  0.492103  0.154688
0.631305  0.508259  0.150427
0.682171  0.549235  0.126120
0.721093  0.575559  0.147415
0.781237  0.631349  0.116310
0.796242  0.646614  0.121235
0.830207  0.697195  0.124798
0.888970  0.727741  0.124351
0.934444  0.745658  0.130520
0.979705  0.774856  0.142916
0.430055  0.374446  0.208958
0.461108  0.391877  0.201697
0.522004  0.429150  0.177924
0.541786  0.443270  0.185149
0.594683  0.485195  0.185755
0.643549  0.529312  0.159779
0.682465  0.554228  0.126710
0.714920  0.576891  0.132662
0.757494  0.616039  0.126049
0.792243  0.655970  0.126814
0.837512  0.685489  0.125346
0.869018  0.701189  0.143756
0.916867  0.749657  0.114568
0.958341  0.772053  0.152950
0.990365  0.777746  0.121951
0.471013  0.398743  0.201075
0.520463  0.424785  0.183321
0.526189  0.434236  0.187105
0.589419  0.483956  0.169770
0.622294  0.514419  0.148433
0.679228  0.564572  0.141279
0.721404  0.580483  0.138790
0.766610  0.637402  0.122646
0.785111  0.638893  0.141294
0.809850  0.663505  0.134619
0.844261  0.692967  0.131527
0.905488  0.736857  0.140367
0.936591  0.752542  0.127761
0.995543  0.780814  0.133060
1.025641  0.804040  0.140488
0.508050  0.425577  0.216344
0.549089  0.458514  0.196887
0.595817  0.493533  0.165265
0.639901  0.520415  0.152933
0.679282  0.548935  0.166293
0.715897  0.587951  0.140994
0.760604  0.618031  0.135514
0.784032  0.630284  0.131214
0.819596  0.673933  0.126897
0.867730  0.700654  0.143546
0.896217  0.732081  0.119355
0.919992  0.743501  0.134291
0.969963  0.769140  0.130624
1.029903  0.800721  0.124850
1.068975  0.829202  0.138669
0.129164  0.123958  0.076236
0.119768  0.116325  0.063004
0.141503  0.146891  0.096555
0.162499  0.169678  0.117341
0.198035  0.178153  0.089766
0.235531  0.205306  0.101326
0.316339  0.262914  0.104179
0.373469  0.293591  0.100414
0.408776  0.312774  0.098255
0.459359  0.336893  0.092505
0.512811  0.382005  0.084627
0.569324  0.418640  0.079746
0.601938  0.444607  0.077551
0.671698  0.476902  0.064543
0.732032  0.503252  0.069712
0.131642  0.140367  0.096497
0.142886  0.155232  0.107537
0.159250  0.165469  0.116503
0.185413  0.188949  0.137375
0.210544  0.195947  0.125465
0.247646  0.222885  0.114263
0.322889  0.281293  0.117703
0.381660  0.306661  0.117188
0.425418  0.332401  0.098212
0.476412  0.362293  0.099259
0.537540  0.403871  0.085241
0.580419  0.420727  0.087692
0.654628  0.475487  0.080640
0.703459  0.490859  0.063725
0.752335  0.533747  0.068836
0.147323  0.152045  0.113073
0.166192  0.176071  0.134416
0.182842  0.190785  0.143412
0.201810  0.218669  0.176705
0.228480  0.223491  0.152377
0.295905  0.257339  0.136643
0.337602  0.294643  0.137237
0.386922  0.324400  0.142942
0.451346  0.352938  0.109432
0.509955  0.386683  0.105084
0.546446  0.424286  0.102841
0.605368  0.454739  0.080225
0.644547  0.471171  0.086350
0.704575  0.511626  0.086663
0.785918  0.562275  0.069875
0.164082  0.174815  0.143734
0.173859  0.200537  0.168034
0.185005  0.210830  0.181901
0.212700  0.221443  0.176459
0.259334  0.265018  0.189715
0.294434  0.285072  0.179194
0.363998  0.316079  0.162403
0.406516  0.337496  0.136091
0.481838  0.380967  0.120012
0.536135  0.415243  0.111188
0.546162  0.418732  0.121247
0.622077  0.476266  0.112635
0.677309  0.508943  0.101195
0.717129  0.529085  0.094349
0.791068  0.555261  0.099059
0.184554  0.215876  0.189317
0.203024  0.234958  0.210396
0.205949  0.236183  0.201727
0.230406  0.251189  0.201701
0.267600  0.266806  0.206232
0.314031  0.298756  0.196438
0.353006  0.318241  0.192099
0.441531  0.363451  0.157967
0.464258  0.375929  0.160578
0.543144  0.415982  0.116115
0.595085  0.463495  0.122682
0.629330  0.479767  0.124413
0.692156  0.523299  0.130114
0.724494  0.554720  0.112093
0.811898  0.584248  0.108284
0.198563  0.225476  0.200658
0.206723  0.243923  0.215782
0.226427  0.258072  0.229552
0.251700  0.274561  0.240834
0.300662  0.312288  0.248626
0.352380  0.333273  0.221084
0.422646  0.365380  0.184509
0.456754  0.382885  0.187243
0.502513  0.400737  0.163585
0.539251  0.432682  0.154656
0.606319  0.481160  0.145799
0.659143  0.515773  0.143833
0.729103  0.559640  0.125704
0.763584  0.588377  0.147325
0.798269  0.611303  0.137887
0.215533  0.256308  0.233633
0.222906  0.257946  0.236470
0.270047  0.289174  0.254315
0.291406  0.312164  0.266077
0.334779  0.322611  0.240832
0.393019  0.364220  0.241806
0.431876  0.374475  0.213363
0.485294  0.406830  0.209608
0.530981  0.443375  0.194107
0.570275  0.454419  0.161995
0.619862  0.490373  0.163854
0.704126  0.549930  0.150748
0.734658  0.576838  0.163840
0.792389  0.612499  0.122803
0.849178  0.655264  0.151289
0.230515  0.267518  0.250127
0.272613  0.300832  0.268750
0.294043  0.324878  0.278711
0.328374  0.337368  0.272058
0.365112  0.343872  0.241341
0.431727  0.380853  0.206812
0.461193  0.397337  0.233997
0.520225  0.431702  0.212647
0.557586  0.463552  0.219927
0.604923  0.485929  0.188984
0.688851  0.549469  0.157134
0.715955  0.571731  0.182642
0.771207  0.605610  0.171268
0.808191  0.620544  0.164519
0.856641  0.648190  0.163259
0.270482  0.297120  0.265058
0.293701  0.315740  0.279440
0.321669  0.342805  0.279324
0.360523  0.358207  0.265262
0.405976  0.380732  0.247183
0.452405  0.404327  0.266727
0.501040  0.437417  0.231907
0.544373  0.464617  0.208775
0.583869  0.494148  0.233504
0.664375  0.534323  0.185841
0.729169  0.580078  0.166269
0.753676  0.596762  0.178557
0.780437  0.625378  0.181087
0.848423  0.664737  0.190994
0.908413  0.699372  0.181224
0.285880  0.328238  0.305534
0.338157  0.344900  0.277447
0.375470  0.371767  0.275640
0.394431  0.381019  0.265415
0.474809  0.415709  0.258553
0.514214  0.442983  0.248110
0.526033  0.447947  0.248905
0.596305  0.497161  0.232930
0.638009  0.526931  0.201485
0.671487  0.551835  0.197194
0.743442  0.598625  0.167635
0.794459  0.636441  0.168420
0.814152  0.655696  0.176436
0.889606  0.704700  0.186871
