LUT/LUT_34.CUBE
TITLE "LUT_34" 
#LUT size 
LUT_3D_SIZE 15 
DOMAIN_MIN 0.0 0.0 0.0 
DOMAIN_MAX 1.0 1.0 1.0 
#data point 
0.077108  0.077018  0.029393
0.083984  0.081600  0.039470
0.099183  0.096940  0.049938
0.123384  0.119424  0.065200
0.170047  0.153023  0.078068
0.239099  0.201229  0.078991
0.315145  0.236465  0.067109
0.341908  0.264444  0.076734
0.409852  0.303536  0.066158
0.456747  0.342263  0.068638
0.504462  0.372727  0.072333
0.547394  0.395451  0.075309
0.614252  0.423211  0.061828
0.662204  0.473338  0.061554
0.727184  0.487860  0.063307
0.093349  0.087662  0.040359
0.103242  0.094875  0.047461
0.115435  0.111984  0.058493
0.147454  0.135983  0.071104
0.197170  0.178616  0.093081
0.258839  0.212955  0.090784
0.323808  0.258107  0.082418
0.388270  0.291076  0.086161
0.420638  0.323902  0.072649
0.465930  0.347808  0.065893
0.518258  0.377247  0.074466
0.592204  0.414503  0.068609
0.648302  0.461722  0.061777
0.696119  0.484509  0.068326
0.741464  0.499510  0.067382
0.114521  0.107355  0.050762
0.108709  0.102316  0.051655
0.129955  0.116404  0.059793
0.160070  0.151359  0.087785
0.225407  0.195606  0.090466
0.276338  0.223318  0.083220
0.347936  0.276317  0.091662
0.385434  0.299116  0.075382
0.461578  0.337982  0.087853
0.495026  0.367466  0.080104
0.533432  0.393581  0.076397
0.606816  0.447200  0.070094
0.645695  0.459854  0.073198
0.706756  0.492981  0.072037
0.752293  0.525724  0.061997
0.116341  0.116408  0.059936
0.137217  0.121815  0.059068
0.152725  0.142342  0.072700
0.198370  0.179736  0.093702
0.264353  0.223212  0.091966
0.305574  0.250865  0.096463
0.380101  0.295588  0.088107
0.422940  0.314271  0.086538
0.478675  0.356148  0.064704
0.516689  0.383413  0.073339
0.566074  0.419289  0.077505
0.616716  0.452785  0.084328
0.663609  0.476508  0.071173
0.730507  0.521304  0.066180
0.789015  0.558039  0.070664
0.145502  0.142209  0.083269
0.162552  0.152880  0.088106
0.206508  0.190580  0.105881
0.237929  0.214947  0.108927
0.292189  0.247017  0.095057
0.358910  0.279205  0.095944
0.397030  0.314492  0.083957
0.444456  0.338113  0.083484
0.491120  0.364565  0.075719
0.549713  0.409291  0.080687
0.592898  0.444716  0.085361
0.652432  0.489226  0.078406
0.689585  0.504547  0.072599
0.750622  0.544147  0.074967
0.810742  0.566723  0.070171
0.162909  0.162345  0.098443
0.211908  0.187919  0.086615
0.232540  0.205549  0.099486
0.288655  0.247713  0.099609
0.334820  0.261874  0.085457
0.363515  0.290337  0.095444
0.417379  0.323702  0.100749
0.484386  0.363707  0.087806
0.512753  0.386636  0.082916
0.550666  0.402708  0.078983
0.621062  0.460929  0.069263
0.660286  0.494548  0.084044
0.732772  0.534774  0.075923
0.776511  0.566903  0.082062
0.828193  0.586038  0.074214
0.220119  0.189129  0.086034
0.251957  0.228684  0.112554
0.309887  0.258914  0.104485
0.343786  0.280322  0.104845
0.378326  0.299880  0.091653
0.424827  0.334949  0.099860
0.453226  0.338339  0.082414
0.516594  0.395465  0.098284
0.551188  0.421099  0.082196
0.612602  0.471166  0.081599
0.644344  0.484820  0.081737
0.675876  0.512360  0.086976
0.736654  0.548625  0.080484
0.800811  0.589243  0.066912
0.856804  0.616574  0.072678
0.270966  0.233867  0.112654
0.299574  0.251217  0.104555
0.325356  0.262420  0.105901
0.375409  0.293808  0.090496
0.427643  0.338863  0.108475
0.462400  0.363730  0.083748
0.492467  0.378694  0.086602
0.550833  0.420890  0.085866
0.586092  0.451504  0.088747
0.629572  0.496819  0.080538
0.673501  0.530014  0.083931
0.728278  0.563232  0.083228
0.770994  0.600260  0.078748
0.835674  0.627775  0.084536
0.904027  0.653808  0.069528
0.301490  0.261757  0.119213
0.352091  0.292345  0.098560
0.381651  0.300262  0.090054
0.417762  0.324114  0.093341
0.469905  0.361378  0.093495
0.489932  0.384860  0.089847
0.527186  0.402734  0.087032
0.584763  0.447609  0.090358
0.616480  0.486960  0.076720
0.666998  0.539636  0.083551
0.693444  0.559653  0.082953
0.748643  0.591597  0.093103
0.802908  0.615193  0.090256
0.836839  0.659518  0.078278
0.907910  0.692200  0.079613
0.360600  0.291687  0.115754
0.385913  0.313080  0.104100
0.424040  0.330852  0.092447
0.457515  0.365882  0.098692
0.499784  0.397570  0.093121
0.528683  0.422305  0.087007
0.579257  0.457198  0.086205
0.627922  0.496906  0.095256
0.653873  0.528329  0.087545
0.705631  0.575528  0.078172
0.757219  0.605375  0.092934
0.785404  0.632331  0.078674
0.820517  0.674367  0.088297
0.863525  0.676135  0.085160
0.915581  0.725106  0.088242
0.383668  0.309593  0.118214
0.426139  0.345871  0.102770
0.466424  0.369453  0.089094
0.498633  0.384925  0.086599
0.558340  0.432775  0.094047
0.582919  0.460760  0.084717
0.613629  0.485608  0.096848
0.674648  0.528877  0.077661
0.701120  0.578710  0.077999
0.720661  0.589636  0.081185
0.779348  0.644536  0.082050
0.799794  0.652663  0.088582
0.859036  0.704845  0.081363
0.910912  0.721762  0.074976
0.957082  0.752283  0.094097
0.426108  0.338861  0.100924
0.464100  0.366027  0.105767
0.502713  0.407051  0.098375
0.543839  0.424461  0.096312
0.592411  0.452668  0.082837
0.627704  0.502510  0.090316
0.652000  0.528300  0.083035
0.680340  0.555816  0.079416
0.736534  0.605179  0.088138
0.759034  0.628178  0.079845
0.796940  0.657736  0.092238
0.848067  0.686733  0.084889
0.889057  0.704577  0.075859
0.923096  0.749914  0.080785
0.971780  0.768074  0.088445
0.472007  0.367312  0.098518
0.487570  0.392249  0.090685
0.528887  0.418834  0.098044
0.590761  0.467768  0.082435
0.625960  0.495920  0.085012
0.649201  0.521660  0.095914
0.695384  0.570204  0.084975
0.724609  0.579272  0.086680
0.757933  0.620462  0.093765
0.784879  0.651917  0.088507
0.834307  0.672009  0.085553
0.893354  0.712022  0.081586
0.910728  0.738529  0.085060
0.947872  0.758265  0.092224
1.021908  0.788449  0.092202
0.514240  0.405392  0.095973
0.555198  0.454106  0.092044
0.575910  0.463709  0.079901
0.626353  0.499241  0.083964
0.649249  0.526237  0.082047
0.671491  0.549288  0.081992
0.716522  0.580636  0.076098
0.766702  0.619419  0.081780
0.792099  0.648369  0.088385
0.817927  0.664901  0.087710
0.846713  0.692660  0.083603
0.902010  0.726287  0.088575
0.938095  0.762039  0.087694
0.991932  0.787684  0.094694
1.018230  0.796252  0.085898
0.541958  0.434683  0.096899
0.576704  0.451821  0.082809
0.622453  0.508029  0.099231
0.664636  0.536839  0.069763
0.696852  0.561166  0.081511
0.706909  0.579349  0.086421
0.748795  0.609646  0.087561
0.790081  0.654467  0.087752
0.810506  0.655151  0.087852
0.855215  0.700371  0.095656
0.882385  0.708873  0.102445
0.933709  0.755823  0.086877
0.967024  0.770131  0.090831
1.026744  0.793323  0.083413
1.075083  0.829699  0.089469
0.088032  0.083258  0.043764
0.099492  0.091982  0.042965
0.107044  0.101164  0.051077
0.118523  0.112505  0.058815
0.163524  0.148418  0.070825
0.236661  0.194263  0.081152
0.315352  0.250731  0.091076
0.359576  0.278473  0.082996
0.412898  0.313304  0.072389
0.440253  0.321487  0.062041
0.505929  0.362219  0.068863
0.567001  0.404746  0.066619
0.621988  0.434834  0.064505
0.663197  0.470972  0.059002
0.713449  0.498581  0.073226
0.104833  0.090212  0.040618
0.103040  0.095132  0.043613
0.112485  0.103859  0.055001
0.150186  0.131303  0.069915
0.193142  0.169492  0.097029
0.271698  0.229295  0.087979
0.322001  0.250667  0.077750
0.364227  0.284769  0.075154
0.419933  0.317632  0.074671
0.489058  0.357314  0.080032
0.515344  0.378360  0.062125
0.562622  0.409753  0.064029
0.631089  0.458549  0.068488
0.682283  0.481574  0.070154
0.746593  0.517018  0.068299
0.105419  0.095958  0.046438
0.120105  0.109253  0.055859
0.140609  0.130334  0.069547
0.170061  0.158393  0.083277
0.216137  0.191053  0.094102
0.296722  0.239280  0.081264
0.332354  0.254658  0.076283
0.386388  0.297099  0.084531
0.443851  0.335363  0.078599
0.487959  0.364579  0.083266
0.540769  0.396156  0.067726
0.601852  0.433353  0.065611
0.656570  0.463038  0.064368
0.704606  0.510201  0.071445
0.781806  0.538094  0.063760
0.134045  0.129849  0.073098
0.137588  0.134975  0.072459
0.163000  0.154955  0.092648
0.182015  0.168504  0.091742
0.243856  0.218483  0.103941
0.315774  0.256899  0.091956
0.353983  0.286313  0.097948
0.430932  0.334722  0.087972
0.473640  0.357101  0.090974
0.510733  0.380676  0.083090
0.559507  0.418364  0.083021
0.622910  0.453692  0.073562
0.681853  0.483588  0.073557
0.709075  0.513865  0.077104
0.783806  0.562923  0.059752
0.156690  0.152660  0.091117
0.168402  0.158157  0.087028
0.195663  0.191351  0.114687
0.232214  0.209423  0.111143
0.291853  0.248758  0.119854
0.341249  0.271577  0.094660
0.388251  0.305444  0.098290
0.448144  0.338136  0.081817
0.498941  0.379130  0.085580
0.533307  0.407253  0.088178
0.586700  0.430474  0.073184
0.634417  0.477019  0.076102
0.683331  0.519052  0.085620
0.743058  0.535401  0.072136
0.789176  0.570137  0.074031
0.182914  0.173644  0.103179
0.210642  0.195421  0.106101
0.241517  0.219460  0.124082
0.281531  0.248862  0.131000
0.338259  0.276152  0.106295
0.393625  0.316819  0.104031
0.443465  0.341153  0.098012
0.469497  0.359563  0.117778
0.507494  0.388503  0.096083
0.565129  0.435169  0.103436
0.602499  0.458552  0.088580
0.649227  0.492800  0.079608
0.701282  0.517756  0.080200
0.778059  0.560971  0.069147
0.844696  0.613306  0.068499
0.232348  0.222453  0.145628
0.260113  0.226931  0.118808
0.278149  0.252856  0.143520
0.311988  0.274440  0.136993
0.374939  0.294229  0.113162
0.417345  0.330958  0.099512
0.465845  0.349609  0.102307
0.504545  0.394514  0.113060
0.543550  0.424861  0.107827
0.586366  0.448044  0.098059
0.653077  0.507644  0.092661
0.684721  0.520031  0.085281
0.753882  0.561195  0.073636
0.794553  0.593438  0.072261
0.848139  0.620802  0.071465
0.257182  0.234734  0.125674
0.286394  0.256350  0.133259
0.333872  0.295629  0.149252
0.370930  0.315745  0.146515
0.431209  0.334249  0.106720
0.448955  0.361413  0.108310
0.519278  0.402104  0.092968
0.552290  0.420293  0.094825
0.577468  0.460599  0.109408
0.616167  0.490830  0.087707
0.677845  0.523899  0.086883
0.711101  0.551020  0.076686
0.774185  0.591450  0.069635
0.813682  0.616312  0.076500
0.891097  0.644783  0.074365
0.297021  0.268009  0.137483
0.340763  0.296144  0.156390
0.377650  0.306533  0.118304
0.401986  0.331432  0.123941
0.453578  0.358733  0.111465
0.490799  0.390202  0.112223
0.538125  0.423023  0.106642
0.575752  0.464878  0.091531
0.614305  0.483183  0.094073
0.664609  0.546682  0.093127
0.700195  0.558904  0.097532
0.750117  0.599393  0.093399
0.800244  0.624306  0.084267
0.858259  0.665801  0.098990
0.890419  0.687437  0.082651
0.319642  0.278032  0.132171
0.388861  0.325107  0.129536
0.409403  0.340174  0.132033
0.475796  0.373907  0.107568
0.501927  0.395322  0.116832
0.554015  0.435262  0.105131
0.590566  0.468326  0.106760
0.620240  0.495777  0.102106
0.667363  0.528921  0.107253
0.708086  0.570030  0.101762
0.748421  0.609740  0.074711
0.770104  0.620755  0.085497
0.828181  0.649758  0.082968
0.875486  0.688522  0.082544
0.938160  0.731111  0.089131
0.370345  0.314252  0.153083
0.393124  0.329359  0.142654
0.431208  0.347658  0.120906
0.504547  0.400687  0.113043
0.544222  0.432497  0.112119
0.582428  0.463720  0.099477
0.639692  0.510428  0.096827
0.667799  0.546084  0.092916
0.703856  0.568012  0.088574
0.739095  0.597260  0.088580
0.784001  0.637468  0.090724
0.825297  0.663766  0.094193
0.854035  0.689936  0.075142
0.908508  0.718909  0.099927
0.940442  0.730933  0.098218
0.398703  0.342566  0.140413
0.459807  0.363900  0.133698
0.504335  0.410644  0.123386
0.536443  0.426335  0.112127
0.585817  0.478200  0.114192
0.606245  0.488025  0.091770
0.639681  0.502888  0.107657
0.687795  0.556678  0.115204
0.723433  0.588268  0.093700
0.741977  0.620630  0.092978
0.796592  0.657455  0.076261
0.854579  0.684325  0.106793
0.894960  0.719110  0.093859
0.916010  0.745400  0.096334
0.975860  0.767820  0.084138
0.470335  0.377118  0.125355
0.521874  0.423941  0.092697
0.548754  0.435738  0.116143
0.598871  0.482010  0.104465
0.612411  0.491851  0.099815
0.664889  0.532112  0.111078
0.702188  0.572167  0.095436
0.714413  0.584892  0.100121
0.764955  0.620381  0.092616
0.793572  0.650077  0.100930
0.818075  0.683212  0.104667
0.885759  0.711261  0.103501
0.909759  0.743239  0.096361
0.979026  0.771222  0.092021
1.005348  0.775973  0.091691
0.493161  0.396676  0.137443
0.528121  0.419322  0.107501
0.574993  0.458503  0.092907
0.585952  0.471468  0.101784
0.656994  0.533898  0.102106
0.683918  0.545822  0.089145
0.700719  0.586096  0.108592
0.765175  0.636732  0.081020
0.790196  0.630654  0.096879
0.824103  0.683384  0.106296
0.865853  0.705339  0.094366
0.883358  0.718807  0.097826
0.936655  0.752481  0.097584
0.981687  0.773773  0.085061
1.011041  0.794918  0.097866
0.542344  0.436007  0.122991
0.582090  0.459885  0.102826
0.590842  0.475316  0.100406
0.648070  0.507803  0.099344
0.678334  0.551094  0.107424
0.716422  0.578098  0.094038
0.758038  0.601276  0.097123
0.781406  0.639896  0.108390
0.819048  0.667643  0.113521
0.851851  0.690272  0.103717
0.900745  0.737844  0.106296
0.916716  0.743370  0.102124
0.972274  0.769242  0.096490
1.028419  0.803468  0.104939
1.069271  0.824192  0.104949
0.108066  0.096594  0.052532
0.111034  0.110578  0.061285
0.121506  0.112783  0.058687
0.154657  0.147768  0.076362
0.184288  0.167096  0.087106
0.229407  0.190972  0.088197
0.283160  0.234528  0.088973
0.371936  0.288170  0.083220
0.407268  0.310549  0.076243
0.454047  0.344644  0.080952
0.506993  0.375295  0.073687
0.562910  0.406029  0.069584
0.609243  0.444679  0.071432
0.672132  0.474439  0.064701
0.732224  0.489988  0.062132
0.115909  0.114615  0.065236
0.131356  0.130196  0.076804
0.148252  0.142236  0.077342
0.157362  0.147415  0.079212
0.213484  0.187033  0.092017
0.283187  0.240077  0.100061
0.341534  0.269102  0.097876
0.364159  0.290023  0.097888
0.436170  0.329116  0.076759
0.477826  0.350904  0.078783
0.528814  0.397694  0.081844
0.581287  0.425979  0.072964
0.633955  0.457726  0.072916
0.718078  0.494441  0.064145
0.745696  0.518710  0.069673
0.133819  0.124485  0.069778
0.141700  0.150151  0.096651
0.159835  0.157842  0.092578
0.182498  0.172126  0.110674
0.222947  0.200822  0.113033
0.286868  0.247872  0.114053
0.314339  0.271700  0.105885
0.391385  0.305235  0.100166
0.437607  0.342025  0.093597
0.507136  0.383743  0.091450
0.547307  0.403578  0.078257
0.598133  0.441240  0.080329
0.670615  0.480844  0.070135
0.712492  0.493379  0.072549
0.753428  0.520174  0.065613
0.157636  0.155633  0.097749
0.161735  0.160319  0.107233
0.168006  0.180843  0.136656
0.205944  0.197612  0.133834
0.233033  0.217907  0.133094
0.314038  0.270089  0.130264
0.373096  0.304445  0.126609
0.404297  0.321562  0.123165
0.470929  0.367388  0.102844
0.525369  0.389719  0.078797
0.558449  0.420552  0.089398
0.632569  0.460134  0.081153
0.664762  0.485875  0.078948
0.705073  0.513937  0.076831
0.777042  0.543735  0.075505
0.154926  0.164340  0.121198
0.189650  0.205795  0.169055
0.197319  0.206369  0.144494
0.231604  0.224982  0.149027
0.277953  0.258211  0.155438
0.321020  0.281988  0.150033
0.390554  0.325442  0.118193
0.449158  0.352494  0.115439
0.489485  0.381675  0.122115
0.542500  0.407716  0.104389
0.592957  0.442231  0.111513
0.646305  0.478523  0.098099
0.688581  0.508177  0.093598
0.742397  0.552709  0.084438
0.801623  0.590234  0.092961
0.173393  0.196227  0.155780
0.195375  0.207356  0.155533
0.230505  0.235336  0.176646
0.263560  0.248505  0.163914
0.299277  0.275445  0.165901
0.351064  0.307753  0.170003
0.406739  0.342792  0.141366
0.463977  0.372198  0.120957
0.531201  0.408031  0.108851
0.569098  0.442711  0.121325
0.624406  0.477442  0.098040
0.656699  0.502834  0.118478
0.704232  0.526637  0.088308
0.777792  0.583371  0.092404
0.821370  0.605128  0.088034
0.207185  0.226050  0.186202
0.234841  0.239726  0.182312
0.266392  0.265312  0.201438
0.310040  0.282652  0.181686
0.341434  0.299827  0.166868
0.397018  0.334713  0.171096
0.446519  0.368455  0.155451
0.486819  0.399017  0.144410
0.532536  0.407478  0.129295
0.592479  0.453257  0.119144
0.632478  0.495416  0.133063
0.687987  0.533977  0.126676
0.747730  0.559314  0.131207
0.803389  0.603172  0.114766
0.847220  0.635646  0.091417
0.264712  0.271909  0.200409
0.279734  0.284463  0.216597
0.320795  0.296992  0.191231
0.356079  0.313142  0.180037
0.387309  0.342347  0.178939
0.434423  0.360064  0.158604
0.486961  0.404251  0.179605
0.535818  0.431814  0.139872
0.589995  0.459661  0.134563
0.633794  0.498168  0.133024
0.669641  0.515855  0.130283
0.707596  0.552545  0.126511
0.756232  0.585090  0.116918
0.817983  0.627582  0.112159
0.869787  0.655665  0.102645
0.285080  0.279088  0.198367
0.324583  0.299556  0.195533
0.338678  0.308210  0.182619
0.390269  0.344839  0.185124
0.431042  0.375086  0.197182
0.454638  0.378864  0.177450
0.534920  0.441454  0.172389
0.562108  0.457170  0.134271
0.621052  0.494675  0.117944
0.665192  0.527862  0.130468
0.715510  0.573245  0.104780
0.739244  0.597668  0.131086
0.795861  0.622301  0.120966
0.844685  0.655538  0.127874
0.906923  0.692222  0.123760
0.309011  0.298783  0.215911
0.347499  0.337365  0.214899
0.395724  0.342836  0.180946
0.421710  0.375036  0.204961
0.471895  0.397252  0.190274
0.524700  0.436644  0.170456
0.569820  0.473706  0.170113
0.606529  0.486922  0.126088
0.666572  0.522854  0.141493
0.695881  0.569045  0.119284
0.742291  0.605453  0.112855
0.781900  0.631855  0.122224
0.819878  0.655920  0.133016
0.871172  0.694973  0.128180
0.914923  0.706138  0.124975
0.366441  0.330773  0.195914
0.387048  0.342161  0.200798
0.438160  0.382995  0.197924
0.497741  0.406410  0.161279
0.500126  0.423482  0.159446
0.556567  0.448465  0.169763
0.582674  0.479347  0.153164
0.653475  0.531365  0.139288
0.691004  0.567142  0.112111
0.729020  0.601946  0.121432
0.765592  0.627331  0.111563
0.805020  0.655896  0.118658
0.870312  0.702675  0.129913
0.901696  0.704867  0.126414
0.983884  0.756356  0.132507
0.390242  0.350170  0.205546
0.433350  0.374634  0.204675
0.482688  0.406816  0.200825
0.509220  0.420350  0.178061
0.564707  0.469721  0.173958
0.606119  0.493954  0.155585
0.633041  0.506512  0.145874
0.681935  0.548067  0.127040
0.719800  0.577390  0.148404
0.783781  0.631327  0.114779
0.793863  0.648467  0.121241
0.831692  0.695170  0.125561
0.885800  0.730015  0.123546
0.936778  0.747087  0.128618
0.979986  0.775712  0.142046
0.432001  0.375686  0.210051
0.463190  0.390360  0.201244
0.523556  0.428498  0.174087
0.540330  0.441226  0.185206
0.591607  0.487977  0.185281
0.647106  0.531721  0.160423
0.680886  0.553706  0.125752
0.710452  0.578943  0.134866
0.759315  0.615346  0.126918
0.791442  0.656752  0.124983
0.838915  0.685111  0.128106
0.868477  0.699382  0.144383
0.914784  0.748064  0.114578
0.960225  0.770795  0.152097
0.992832  0.778784  0.124325
0.474356  0.401229  0.199292
0.520868  0.422462  0.180030
0.526117  0.437311  0.186188
0.590952  0.484503  0.169587
0.624247  0.511612  0.147304
0.678128  0.563835  0.137373
0.721464  0.581984  0.138738
0.768344  0.637865  0.125435
0.784954  0.640233  0.137921
0.806533  0.665686  0.131242
0.842371  0.691940  0.130939
0.907327  0.737152  0.137931
0.933140  0.751924  0.127900
0.994805  0.779889  0.133660
1.027791  0.806730  0.140059
0.505471  0.426715  0.217196
0.551114  0.460055  0.194539
0.600070  0.494084  0.165598
0.633577  0.525311  0.151639
0.678584  0.552023  0.165536
0.714488  0.583721  0.139816
0.761602  0.621765  0.132363
0.784466  0.631250  0.129505
0.817747  0.674685  0.127151
0.870352  0.702436  0.145357
0.895780  0.735579  0.115905
0.922599  0.744485  0.131101
0.969816  0.770223  0.132572
1.031293  0.801702  0.126029
1.070396  0.832128  0.140591
0.124998  0.126930  0.075285
0.115489  0.116566  0.063813
0.139559  0.147368  0.094776
0.163168  0.165032  0.117428
0.199224  0.180587  0.087791
0.233749  0.206466  0.103601
0.314562  0.263121  0.099703
0.372088  0.294017  0.099500
0.409926  0.312118  0.097288
0.460958  0.337487  0.091098
0.512466  0.382961  0.082521
0.570518  0.415657  0.080319
0.602672  0.444048  0.076242
0.675895  0.475964  0.062964
0.732657  0.501757  0.071493
0.130610  0.138278  0.096599
0.143454  0.155043  0.108968
0.158986  0.166256  0.118204
0.185337  0.190281  0.135541
0.211909  0.198248  0.127291
0.248599  0.224262  0.110717
0.326099  0.281284  0.116228
0.384734  0.306630  0.113262
0.426055  0.331948  0.098734
0.472645  0.363474  0.096308
0.539939  0.404932  0.089162
0.583174  0.420313  0.083078
0.655644  0.475188  0.079629
0.704262  0.488979  0.064370
0.755937  0.529624  0.067983
0.144554  0.156153  0.112589
0.166450  0.173453  0.136618
0.183068  0.193986  0.145081
0.200519  0.219734  0.177745
0.227975  0.226644  0.153024
0.294211  0.257645  0.137089
0.335994  0.298677  0.136250
0.389102  0.322966  0.139332
0.450466  0.353724  0.108035
0.511967  0.386295  0.108042
0.549308  0.422949  0.107210
0.606128  0.450784  0.083465
0.646861  0.470459  0.086741
0.705395  0.507885  0.087274
0.787606  0.559928  0.070423
0.162895  0.179733  0.143298
0.174671  0.198264  0.171474
0.185213  0.211016  0.184169
0.213744  0.225262  0.178968
0.263159  0.263357  0.191874
0.290897  0.283828  0.179884
0.359401  0.314209  0.160526
0.407298  0.339636  0.136543
0.483265  0.381629  0.120560
0.537377  0.413046  0.110100
0.547321  0.417712  0.119900
0.621695  0.477502  0.109949
0.677936  0.509056  0.102111
0.715899  0.524887  0.092901
0.790025  0.553868  0.100649
0.184340  0.213676  0.188491
0.202160  0.232153  0.207300
0.206203  0.231450  0.201583
0.234551  0.248276  0.203223
0.266878  0.269906  0.204936
0.316218  0.298451  0.193653
0.351510  0.319623  0.190146
0.440635  0.366553  0.157005
0.464758  0.378199  0.159269
0.540921  0.416885  0.118741
0.595679  0.463196  0.121745
0.628744  0.481443  0.123146
0.690024  0.527560  0.132445
0.729724  0.550820  0.112174
0.810709  0.582554  0.108211
0.196522  0.227675  0.198772
0.206215  0.241946  0.214319
0.230388  0.256566  0.233991
0.251809  0.275594  0.242114
0.299006  0.312006  0.246847
0.353952  0.332144  0.221992
0.418636  0.366119  0.184563
0.459903  0.383494  0.187717
0.505101  0.402672  0.169142
0.539467  0.431333  0.154261
0.608059  0.479706  0.148202
0.659289  0.516297  0.143521
0.729086  0.557897  0.124748
0.767270  0.586906  0.144328
0.798807  0.606644  0.138144
0.217614  0.256802  0.238484
0.223833  0.257867  0.235122
0.265995  0.289362  0.255390
0.291618  0.310638  0.265349
0.330628  0.322528  0.237056
0.394071  0.365909  0.241915
0.432586  0.374050  0.212223
0.487264  0.405482  0.212009
0.531380  0.443099  0.197892
0.568220  0.454159  0.163083
0.623298  0.488144  0.165776
0.704526  0.551891  0.152058
0.734854  0.576071  0.164971
0.792666  0.607184  0.126420
0.846780  0.651591  0.149498
0.231518  0.265907  0.249124
0.272090  0.299440  0.270913
0.298310  0.326716  0.277070
0.325517  0.336444  0.269411
0.367799  0.345740  0.239268
0.431786  0.380620  0.211340
0.464169  0.395120  0.231450
0.520657  0.435484  0.214004
0.560921  0.461044  0.222660
0.606556  0.486952  0.189470
0.691162  0.550216  0.159294
0.714907  0.569082  0.184063
0.774551  0.605720  0.169095
0.808605  0.618309  0.161901
0.857914  0.647540  0.166288
0.274262  0.298733  0.264240
0.291804  0.316283  0.277782
0.323289  0.342512  0.280172
0.360896  0.357840  0.263739
0.408592  0.379838  0.248653
0.455914  0.407479  0.266889
0.500639  0.437951  0.231584
0.543789  0.466062  0.213143
0.583914  0.492581  0.234166
0.663495  0.536317  0.184504
0.726841  0.579642  0.164670
0.754493  0.598998  0.180717
0.780612  0.627020  0.183633
0.850111  0.664113  0.188602
0.911041  0.696928  0.182216
0.282822  0.330500  0.304763
0.336629  0.344794  0.277452
0.377562  0.373888  0.271868
0.396295  0.382966  0.260870
0.473286  0.417057  0.257902
0.515881  0.442461  0.247656
0.528334  0.449514  0.247459
0.596646  0.498839  0.232932
0.639038  0.528791  0.201352
0.668964  0.554045  0.194738
0.743613  0.601289  0.166521
0.795630  0.635380  0.165542
0.811823  0.655225  0.178003
0.890085  0.703231  0.187533
