LUT/LUT_9.CUBE
TITLE "LUT_9" 
#LUT size 
LUT_3D_SIZE 5 
#data point 
DOMAIN_MIN 0.000000 0.000000 0.000000
DOMAIN_MAX 0.857143 0.857143 0.857143
0.034876  0.034475  0.014265
0.146404  0.120756  0.044827
0.347856  0.197353  0.025364
0.536169  0.244959  0.019736
0.734349  0.276898  0.017850
0.118067  0.113845  0.058997
0.226053  0.183502  0.059146
0.397202  0.259236  0.048113
0.573617  0.324241  0.038071
0.770335  0.374245  0.038750
0.230838  0.205204  0.078617
0.343750  0.302953  0.058980
0.456922  0.377890  0.057314
0.623568  0.454706  0.050096
0.805070  0.483236  0.044872
0.350192  0.321526  0.079959
0.443202  0.409854  0.059504
0.554988  0.507092  0.055307
0.674012  0.592306  0.047624
0.832480  0.647696  0.056624
0.428821  0.433879  0.071691
0.534272  0.523583  0.056882
0.644837  0.611061  0.058146
0.767899  0.680636  0.061348
0.901386  0.763850  0.061933
0.090652  0.108313  0.089955
0.156518  0.164064  0.118938
0.349080  0.233280  0.078370
0.524459  0.274848  0.063179
0.714198  0.314069  0.053464
0.132054  0.176747  0.179034
0.198938  0.231690  0.210943
0.388826  0.319915  0.163721
0.573512  0.370059  0.130950
0.763225  0.424963  0.113877
0.196335  0.250805  0.250689
0.302493  0.315021  0.248219
0.441754  0.392156  0.211293
0.608680  0.453561  0.187632
0.792686  0.513888  0.184397
0.291712  0.330753  0.278185
0.416348  0.408389  0.250407
0.528185  0.507590  0.244087
0.672068  0.595813  0.210933
0.833952  0.647306  0.203063
0.400591  0.431316  0.279285
0.522816  0.528416  0.240743
0.623295  0.612997  0.241390
0.767242  0.702549  0.218277
0.907064  0.772425  0.199684
0.122329  0.177273  0.195540
0.171067  0.232525  0.243909
0.324351  0.298566  0.229134
0.535356  0.342226  0.193744
0.727454  0.357155  0.181243
0.172103  0.251836  0.278916
0.229209  0.303984  0.327611
0.355902  0.377272  0.330554
0.540009  0.435941  0.292139
0.748531  0.490725  0.256739
0.231723  0.320192  0.364052
0.288286  0.389735  0.427083
0.412016  0.445901  0.408017
0.585293  0.527842  0.377362
0.784365  0.579191  0.342374
0.288291  0.396348  0.441598
0.364709  0.463676  0.481023
0.507291  0.533024  0.460410
0.650412  0.616706  0.454079
0.829993  0.678136  0.416522
0.340916  0.458145  0.498894
0.480733  0.532152  0.488771
0.605337  0.613328  0.466844
0.742194  0.705537  0.451704
0.894401  0.791812  0.451406
0.138840  0.259624  0.331577
0.212962  0.322445  0.361614
0.330754  0.376123  0.361375
0.514529  0.409819  0.333383
0.742268  0.416247  0.311780
0.215395  0.339187  0.401681
0.282762  0.394077  0.444631
0.357023  0.452419  0.468202
0.531141  0.517837  0.439654
0.732794  0.557336  0.393841
0.278819  0.410295  0.470767
0.345187  0.464118  0.515568
0.407459  0.531507  0.559610
0.558839  0.589096  0.530365
0.753274  0.658770  0.502186
0.343517  0.480866  0.539603
0.408000  0.541992  0.592386
0.475072  0.606290  0.644360
0.635865  0.675432  0.625784
0.797362  0.743971  0.590093
0.391953  0.547762  0.606292
0.459730  0.602576  0.653417
0.547006  0.672827  0.696040
0.715720  0.741829  0.675012
0.876976  0.811298  0.669494
0.096630  0.321142  0.522060
0.217405  0.399832  0.516410
0.314657  0.464384  0.538145
0.507144  0.469206  0.492367
0.719921  0.452660  0.484403
0.184304  0.416663  0.557750
0.314987  0.483452  0.563864
0.385049  0.543860  0.613131
0.523072  0.586245  0.572946
0.717959  0.629856  0.552043
0.303315  0.484026  0.579668
0.394956  0.550734  0.618447
0.465205  0.624792  0.677645
0.562757  0.678478  0.695282
0.753021  0.737245  0.640291
0.362684  0.545600  0.631781
0.461369  0.619731  0.683605
0.515446  0.683545  0.749610
0.618429  0.751488  0.811198
0.780356  0.804519  0.753880
0.424503  0.614682  0.706866
0.498182  0.677257  0.755860
0.586768  0.748344  0.828202
0.686509  0.809841  0.867746
0.832528  0.884010  0.875250
