LUT/LUT_12.CUBE
TITLE "LUT_12" 
#LUT size 
LUT_3D_SIZE 15 
DOMAIN_MIN 0.0 0.0 0.0 
DOMAIN_MAX 1.0 1.0 1.0 
#data point 
0.042171  0.043804  0.020575
0.064537  0.060134  0.023814
0.094751  0.090487  0.039246
0.143015  0.119795  0.052150
0.209209  0.162463  0.048417
0.259101  0.185416  0.044061
0.336046  0.212984  0.039338
0.388335  0.227839  0.032933
0.452717  0.259677  0.032869
0.519897  0.279106  0.030033
0.573693  0.289054  0.024432
0.625010  0.305927  0.025876
0.704761  0.324160  0.026115
0.761871  0.338521  0.023707
0.830357  0.344707  0.020434
0.061266  0.060599  0.026079
0.080528  0.072681  0.032043
0.108468  0.098051  0.047844
0.162292  0.141826  0.059131
0.219090  0.172875  0.050774
0.290592  0.206068  0.045833
0.340358  0.239326  0.043981
0.408980  0.253808  0.044803
0.464252  0.274496  0.039572
0.515705  0.284115  0.035431
0.588634  0.312127  0.039975
0.655971  0.338514  0.037352
0.722069  0.346513  0.031546
0.780367  0.362736  0.028599
0.839592  0.380944  0.030243
0.092935  0.087535  0.040931
0.096441  0.093446  0.046576
0.135605  0.119912  0.057862
0.180106  0.152753  0.057170
0.258752  0.196121  0.053300
0.305617  0.219378  0.050024
0.368875  0.252772  0.049118
0.415115  0.272337  0.044376
0.484444  0.299593  0.053704
0.546974  0.313785  0.036356
0.595072  0.334369  0.034651
0.671899  0.364345  0.039867
0.734006  0.379810  0.036526
0.793014  0.396233  0.036194
0.857308  0.411052  0.039497
0.118449  0.116221  0.063274
0.130867  0.125227  0.062653
0.169129  0.152368  0.070184
0.224200  0.181902  0.066862
0.287407  0.227461  0.063079
0.341256  0.243565  0.053128
0.390258  0.267542  0.055914
0.451691  0.295045  0.045164
0.503223  0.316659  0.043809
0.559316  0.334716  0.042060
0.611756  0.363030  0.040740
0.681391  0.377189  0.042589
0.745475  0.401238  0.040842
0.807812  0.413527  0.039452
0.879165  0.441810  0.038085
0.148691  0.133973  0.070508
0.182381  0.154563  0.070185
0.223053  0.189927  0.082538
0.255729  0.212412  0.069885
0.308284  0.242213  0.062384
0.361383  0.281062  0.066669
0.408613  0.300609  0.057839
0.471171  0.332068  0.053559
0.530639  0.341781  0.058536
0.587751  0.367685  0.040452
0.631950  0.398086  0.052268
0.713990  0.419694  0.049000
0.762958  0.429568  0.049910
0.835662  0.449555  0.046500
0.895498  0.471138  0.049694
0.188789  0.168774  0.089067
0.221797  0.187436  0.074460
0.256878  0.216373  0.080202
0.307909  0.252801  0.059887
0.345394  0.279191  0.058785
0.381335  0.298199  0.067295
0.437632  0.339381  0.065125
0.488017  0.363327  0.063334
0.535184  0.372484  0.054026
0.587615  0.394415  0.047587
0.662122  0.424711  0.047875
0.713581  0.436643  0.054228
0.786847  0.453436  0.047932
0.847380  0.479089  0.054557
0.902545  0.498770  0.055219
0.229657  0.199437  0.085228
0.266736  0.223763  0.081948
0.309772  0.253962  0.073772
0.349800  0.297732  0.076717
0.378864  0.315098  0.062272
0.422036  0.349497  0.063247
0.458091  0.375645  0.058978
0.519087  0.408842  0.061134
0.564565  0.416381  0.056667
0.626540  0.457940  0.057658
0.674140  0.476226  0.049650
0.721315  0.480872  0.054424
0.794707  0.500856  0.047482
0.855185  0.506185  0.051514
0.929997  0.525805  0.053955
0.279389  0.239792  0.097895
0.311008  0.262714  0.074737
0.342140  0.287817  0.066015
0.383057  0.325544  0.064790
0.415815  0.364327  0.070146
0.454297  0.399011  0.057660
0.481591  0.417529  0.059704
0.524423  0.442715  0.056511
0.583539  0.472602  0.053969
0.636485  0.501040  0.051468
0.701354  0.511775  0.054219
0.744974  0.539410  0.066011
0.811199  0.551169  0.061867
0.882278  0.567701  0.060872
0.950772  0.583156  0.060907
0.301240  0.267319  0.093642
0.350477  0.309525  0.076360
0.377338  0.333156  0.063961
0.408850  0.349394  0.066493
0.453970  0.403979  0.071384
0.479081  0.421430  0.060534
0.528857  0.455887  0.059987
0.565805  0.490195  0.070256
0.610218  0.518339  0.062576
0.656195  0.544365  0.058024
0.704778  0.569675  0.063123
0.761788  0.577043  0.066399
0.827701  0.599266  0.057806
0.887111  0.623932  0.061138
0.949195  0.639182  0.062347
0.360431  0.310661  0.086569
0.385327  0.337983  0.074163
0.413074  0.369086  0.063407
0.455458  0.395827  0.068376
0.484678  0.437005  0.068191
0.520818  0.453357  0.063960
0.563587  0.491457  0.063669
0.601952  0.526303  0.064235
0.637981  0.555835  0.058830
0.681884  0.583936  0.062273
0.726791  0.617844  0.059003
0.781004  0.638369  0.056404
0.832232  0.653485  0.062257
0.895076  0.661451  0.060487
0.957890  0.687191  0.070176
0.378580  0.338769  0.076421
0.412873  0.368255  0.073026
0.448479  0.409592  0.067579
0.476827  0.442595  0.070484
0.533265  0.474138  0.061580
0.553906  0.506508  0.067458
0.593811  0.531851  0.080222
0.640378  0.561491  0.061295
0.686776  0.598307  0.056996
0.711591  0.618661  0.060292
0.763505  0.657837  0.070066
0.803821  0.671459  0.061822
0.858208  0.699917  0.065212
0.914490  0.727818  0.059283
0.972041  0.734567  0.071402
0.412834  0.382771  0.072907
0.443100  0.403626  0.071530
0.481592  0.436566  0.069515
0.509897  0.463377  0.058893
0.555035  0.504556  0.066953
0.601175  0.538221  0.058271
0.624108  0.556440  0.057914
0.660485  0.584829  0.053515
0.712301  0.622092  0.061840
0.746687  0.651796  0.059624
0.788604  0.682512  0.065297
0.841239  0.708403  0.066102
0.889733  0.736408  0.058205
0.943845  0.766564  0.066272
0.992277  0.785908  0.062651
0.439371  0.416346  0.071532
0.477811  0.438427  0.067642
0.514230  0.474283  0.060368
0.547104  0.506596  0.058615
0.585745  0.543117  0.059007
0.619406  0.569595  0.073460
0.654610  0.599770  0.061095
0.699189  0.621565  0.066267
0.745400  0.653241  0.068225
0.774500  0.671003  0.067236
0.818575  0.707863  0.065763
0.865097  0.736281  0.071740
0.909697  0.758766  0.069080
0.951108  0.787263  0.061771
1.015952  0.812064  0.070261
0.477748  0.453345  0.059425
0.517258  0.490774  0.066126
0.552334  0.518403  0.064561
0.589658  0.541935  0.067975
0.619387  0.576747  0.067938
0.658312  0.598919  0.056499
0.690573  0.621462  0.065011
0.738249  0.656469  0.060401
0.762370  0.674936  0.065908
0.804848  0.693078  0.068187
0.842387  0.722598  0.064855
0.904418  0.755949  0.064162
0.940770  0.783220  0.070718
0.989905  0.810307  0.072146
1.032477  0.829523  0.062401
0.508857  0.486952  0.069113
0.542792  0.514217  0.069171
0.578022  0.542714  0.065746
0.622531  0.572641  0.066058
0.653315  0.606003  0.065735
0.683091  0.623870  0.060237
0.722509  0.655220  0.073119
0.759990  0.674800  0.063466
0.792932  0.701418  0.063090
0.839783  0.728331  0.071899
0.883808  0.749745  0.065639
0.929303  0.782391  0.072943
0.970742  0.809056  0.071434
1.026180  0.838536  0.068511
1.074554  0.855658  0.073015
0.055068  0.054646  0.022636
0.069058  0.068610  0.030429
0.103125  0.096866  0.046647
0.132045  0.116223  0.047177
0.193222  0.154288  0.058258
0.268571  0.188279  0.043296
0.338974  0.216965  0.042210
0.390398  0.230858  0.037405
0.460946  0.261852  0.036068
0.504812  0.268680  0.030420
0.573594  0.294171  0.031484
0.634198  0.311150  0.026479
0.710141  0.329087  0.026534
0.757173  0.339454  0.020583
0.832949  0.339650  0.015565
0.074318  0.079076  0.039941
0.088782  0.082833  0.039966
0.116699  0.107261  0.053239
0.167547  0.145729  0.064967
0.229088  0.183208  0.060868
0.296363  0.216112  0.044520
0.345945  0.228650  0.044350
0.400185  0.260067  0.046573
0.473754  0.277242  0.038446
0.527146  0.293556  0.035306
0.586822  0.317791  0.034805
0.649468  0.340970  0.033304
0.718643  0.351917  0.034368
0.779652  0.368079  0.030996
0.841357  0.388462  0.034433
0.089703  0.091672  0.052952
0.111447  0.105829  0.059571
0.146019  0.134373  0.071717
0.187814  0.166876  0.077976
0.241041  0.197063  0.072638
0.313701  0.231387  0.060906
0.363082  0.253595  0.052387
0.425776  0.279072  0.051523
0.476881  0.297744  0.043141
0.538081  0.318617  0.045397
0.607508  0.348087  0.040191
0.666598  0.360440  0.036252
0.742794  0.381773  0.040211
0.793614  0.401535  0.040645
0.868629  0.418329  0.035375
0.117928  0.126966  0.082893
0.144758  0.136206  0.079269
0.178406  0.166924  0.087582
0.210147  0.184870  0.094119
0.276530  0.216843  0.077657
0.329363  0.255913  0.072155
0.380352  0.277958  0.070764
0.443188  0.308520  0.068706
0.501599  0.327335  0.059114
0.560014  0.342266  0.054733
0.622351  0.365571  0.051388
0.682929  0.397097  0.049686
0.745876  0.403579  0.041959
0.807337  0.422314  0.044700
0.875027  0.449833  0.050437
0.154415  0.146742  0.091767
0.180923  0.170967  0.092680
0.209628  0.188868  0.097457
0.255381  0.214631  0.091053
0.311756  0.248520  0.099228
0.352260  0.272033  0.089632
0.406041  0.310029  0.074650
0.456853  0.322615  0.064944
0.518354  0.347984  0.079301
0.569258  0.380132  0.066454
0.629465  0.390292  0.052596
0.701685  0.421390  0.052324
0.762261  0.438384  0.055370
0.821343  0.455245  0.048990
0.883532  0.474387  0.052631
0.181521  0.181064  0.107308
0.223961  0.199877  0.103196
0.270475  0.237786  0.121486
0.293735  0.252377  0.112798
0.342499  0.285450  0.083135
0.385628  0.314443  0.089445
0.451495  0.345089  0.084154
0.477100  0.361369  0.092394
0.532077  0.390074  0.076769
0.586810  0.413606  0.076586
0.656488  0.428201  0.068852
0.717321  0.453031  0.063101
0.776777  0.465009  0.054895
0.852666  0.479563  0.055196
0.913900  0.515196  0.058576
0.238393  0.217822  0.133352
0.272896  0.237894  0.113548
0.293263  0.267619  0.122436
0.329833  0.290193  0.122500
0.379317  0.318914  0.095621
0.420921  0.360797  0.081826
0.450500  0.381983  0.081594
0.514118  0.409503  0.083992
0.558002  0.429074  0.084261
0.611893  0.438526  0.076930
0.676714  0.472765  0.068306
0.737917  0.485858  0.063689
0.792348  0.511201  0.065253
0.875424  0.519636  0.060499
0.927937  0.543844  0.060976
0.265977  0.246899  0.133989
0.296541  0.268712  0.120983
0.340520  0.304532  0.125546
0.367438  0.328547  0.112382
0.416153  0.357171  0.086018
0.452552  0.387466  0.091437
0.500118  0.425489  0.081428
0.548427  0.453999  0.079007
0.586690  0.472271  0.076805
0.626764  0.495048  0.078467
0.687235  0.513548  0.070284
0.751553  0.531323  0.065942
0.812677  0.550038  0.067433
0.876713  0.567027  0.071885
0.952794  0.579907  0.063603
0.305473  0.271840  0.124036
0.339610  0.301774  0.130253
0.373848  0.325613  0.122614
0.399506  0.362549  0.112925
0.441101  0.391378  0.097544
0.488124  0.426444  0.082498
0.519685  0.457259  0.086649
0.562855  0.487159  0.074643
0.605094  0.526027  0.075687
0.667248  0.559348  0.082592
0.714180  0.568382  0.082996
0.768187  0.576223  0.076435
0.831972  0.605795  0.071587
0.901184  0.623736  0.073059
0.947793  0.628371  0.071182
0.333487  0.298480  0.132551
0.390268  0.343666  0.123537
0.420261  0.373948  0.114204
0.444639  0.392974  0.096434
0.481768  0.440521  0.101569
0.526333  0.471948  0.085021
0.566028  0.506091  0.090670
0.594838  0.530465  0.089406
0.636823  0.562477  0.087902
0.681928  0.587792  0.073098
0.734060  0.628150  0.071641
0.785403  0.643211  0.067260
0.834081  0.655605  0.068950
0.905734  0.675578  0.072261
0.973453  0.694329  0.076272
0.370374  0.336790  0.125657
0.395642  0.365828  0.129746
0.434364  0.401204  0.113884
0.483380  0.441408  0.099385
0.522281  0.469231  0.091096
0.558202  0.507989  0.094729
0.595907  0.538207  0.088189
0.635396  0.571014  0.078604
0.675630  0.591136  0.089320
0.711345  0.620919  0.088403
0.761361  0.647291  0.076053
0.808103  0.677653  0.079933
0.855949  0.708093  0.063722
0.916817  0.737454  0.079714
0.975319  0.714746  0.078410
0.400947  0.365946  0.126532
0.441213  0.405772  0.115831
0.480680  0.441131  0.104253
0.506514  0.465836  0.094610
0.552269  0.513076  0.094824
0.592495  0.545944  0.088798
0.622569  0.562878  0.089189
0.662199  0.590988  0.093625
0.694592  0.617331  0.088687
0.739076  0.642851  0.086298
0.785873  0.679507  0.074831
0.833743  0.707245  0.098674
0.884677  0.740759  0.080565
0.924568  0.761030  0.076773
0.991772  0.786167  0.065895
0.448067  0.415723  0.115353
0.490454  0.455406  0.084841
0.508340  0.471549  0.095457
0.552226  0.508304  0.092670
0.582047  0.536534  0.092213
0.617690  0.563985  0.093144
0.663664  0.604956  0.093554
0.695795  0.618692  0.088709
0.745722  0.653082  0.094703
0.778116  0.674151  0.100785
0.820835  0.706265  0.083508
0.868532  0.743384  0.086598
0.904616  0.762612  0.083007
0.968342  0.788094  0.089478
1.012852  0.813506  0.081785
0.467794  0.448533  0.112361
0.493483  0.474691  0.097195
0.550488  0.512204  0.085916
0.568689  0.533885  0.088251
0.621223  0.572889  0.078576
0.655894  0.590762  0.081556
0.687945  0.629365  0.091852
0.737678  0.658168  0.088007
0.772991  0.682598  0.084460
0.802132  0.699793  0.099191
0.849790  0.733843  0.085413
0.892501  0.753571  0.095106
0.944090  0.783733  0.095683
0.988412  0.811896  0.076200
1.033498  0.838638  0.078159
0.509354  0.485298  0.112768
0.544060  0.520239  0.089414
0.565225  0.541043  0.096591
0.611214  0.564895  0.088304
0.639491  0.596562  0.083019
0.691482  0.627974  0.089683
0.722786  0.653510  0.086028
0.772031  0.680313  0.084970
0.794580  0.699544  0.093687
0.843695  0.727190  0.093916
0.884417  0.764834  0.089924
0.912909  0.778347  0.085173
0.970749  0.814247  0.084585
1.018590  0.835165  0.085570
1.075487  0.871121  0.093999
0.080364  0.082060  0.044718
0.104065  0.097480  0.057360
0.116522  0.107105  0.054608
0.153287  0.134910  0.066332
0.203725  0.171641  0.069670
0.268264  0.198101  0.058841
0.321169  0.225825  0.051798
0.400782  0.255132  0.042341
0.460046  0.273066  0.043889
0.502261  0.285855  0.039808
0.562921  0.294254  0.037710
0.635298  0.322214  0.030470
0.688359  0.338232  0.030278
0.773820  0.353964  0.031759
0.835483  0.358788  0.029198
0.097240  0.108678  0.077081
0.107173  0.116654  0.082616
0.135004  0.133036  0.090843
0.164946  0.163024  0.098103
0.226973  0.197203  0.093952
0.293023  0.230923  0.076325
0.343348  0.248202  0.068397
0.396299  0.271562  0.061847
0.475320  0.291631  0.055673
0.529808  0.314649  0.049532
0.585211  0.333952  0.042927
0.650730  0.348475  0.041955
0.710341  0.371721  0.042674
0.791300  0.380527  0.040393
0.843472  0.394063  0.039939
0.105854  0.126044  0.098513
0.123031  0.143091  0.115189
0.148246  0.159663  0.116291
0.190795  0.179628  0.109496
0.235851  0.209357  0.111879
0.304492  0.252062  0.100964
0.366153  0.273504  0.088585
0.416161  0.293679  0.073954
0.482481  0.319612  0.072775
0.535738  0.342054  0.082928
0.594632  0.361111  0.055902
0.663875  0.384388  0.050445
0.737063  0.392958  0.050117
0.795080  0.412228  0.053359
0.847950  0.422128  0.042782
0.127182  0.154084  0.133727
0.144998  0.165999  0.130970
0.169051  0.179501  0.149828
0.208341  0.200053  0.135934
0.247489  0.230197  0.131428
0.327475  0.273346  0.118797
0.385195  0.300516  0.109021
0.423928  0.321722  0.096444
0.500713  0.348909  0.081770
0.562326  0.371240  0.090398
0.603378  0.386162  0.074418
0.670695  0.408202  0.074822
0.740837  0.418505  0.056227
0.802436  0.440593  0.050212
0.866828  0.456395  0.051990
0.140389  0.176154  0.157901
0.177575  0.200470  0.179706
0.210618  0.209460  0.155471
0.234647  0.228692  0.156203
0.292029  0.265512  0.142725
0.331655  0.285765  0.145563
0.399101  0.313585  0.135817
0.470090  0.351279  0.116320
0.511873  0.368786  0.108845
0.572125  0.390098  0.102968
0.630153  0.412303  0.101968
0.696851  0.437793  0.093826
0.754793  0.453039  0.085667
0.816465  0.479353  0.065010
0.890886  0.495011  0.066086
0.166102  0.196240  0.183203
0.199780  0.215890  0.175491
0.244035  0.245874  0.179660
0.276969  0.266652  0.173495
0.319079  0.289411  0.161870
0.372520  0.327443  0.163685
0.431094  0.346815  0.137651
0.482486  0.370434  0.138400
0.541828  0.400918  0.118003
0.588536  0.416931  0.120139
0.649077  0.446964  0.099373
0.704857  0.474564  0.120892
0.767197  0.476725  0.092140
0.834803  0.509295  0.085215
0.895025  0.513204  0.084596
0.204884  0.229362  0.194742
0.244935  0.244290  0.185010
0.288860  0.271777  0.186955
0.321821  0.297483  0.176471
0.364363  0.329489  0.164559
0.404723  0.351914  0.166714
0.456166  0.382935  0.145327
0.508171  0.409345  0.141994
0.544254  0.418549  0.125781
0.610161  0.453506  0.135431
0.671014  0.478875  0.132801
0.729386  0.493097  0.138581
0.792665  0.510651  0.124358
0.858780  0.539590  0.115893
0.916874  0.555914  0.091932
0.256109  0.263275  0.200529
0.287011  0.282020  0.204251
0.325358  0.302580  0.187964
0.357111  0.330043  0.167564
0.407368  0.367538  0.183012
0.436996  0.386273  0.164298
0.485675  0.431331  0.155111
0.533251  0.450749  0.141264
0.590092  0.472799  0.129115
0.649293  0.496550  0.129365
0.680263  0.519174  0.136558
0.737106  0.544973  0.143614
0.798052  0.559969  0.130528
0.883812  0.574434  0.112099
0.932301  0.590884  0.110799
0.284356  0.281729  0.204470
0.331184  0.316588  0.199939
0.360989  0.330869  0.179591
0.405368  0.369786  0.189300
0.432152  0.395024  0.184005
0.472579  0.420559  0.173316
0.519976  0.468594  0.161418
0.558734  0.495390  0.140753
0.615570  0.522072  0.120381
0.660261  0.540092  0.128086
0.716701  0.567534  0.136640
0.755931  0.591132  0.137383
0.826280  0.607264  0.134840
0.888809  0.616741  0.120486
0.958957  0.640105  0.118469
0.309645  0.306752  0.205965
0.365138  0.347907  0.191801
0.403230  0.374332  0.188606
0.425749  0.396824  0.189319
0.464529  0.428724  0.186169
0.510364  0.461385  0.161669
0.556790  0.501823  0.161915
0.591400  0.529548  0.141973
0.633270  0.571185  0.143776
0.689259  0.591044  0.126879
0.735862  0.617331  0.136215
0.780709  0.638905  0.132906
0.841688  0.653330  0.130762
0.890242  0.672175  0.132587
0.952050  0.684184  0.122842
0.360422  0.346814  0.198196
0.395576  0.376494  0.186793
0.426621  0.408561  0.195093
0.478772  0.440680  0.173399
0.505475  0.463942  0.167672
0.535431  0.490791  0.160518
0.576495  0.531432  0.162702
0.629556  0.565703  0.146696
0.673662  0.598182  0.129717
0.713006  0.623586  0.142945
0.761069  0.653869  0.138015
0.801486  0.676701  0.140332
0.858617  0.707788  0.134917
0.911572  0.714050  0.134417
0.992532  0.744871  0.127849
0.397170  0.378066  0.198344
0.423134  0.404105  0.195269
0.473244  0.448786  0.191798
0.511146  0.474636  0.178040
0.544866  0.508567  0.173922
0.585834  0.538853  0.170984
0.611235  0.547379  0.159596
0.658280  0.599334  0.140853
0.694786  0.628460  0.145346
0.754888  0.663475  0.129409
0.792753  0.681396  0.137717
0.832176  0.707752  0.140972
0.874588  0.741334  0.142948
0.935671  0.773285  0.136347
0.988604  0.789580  0.144453
0.433262  0.410562  0.191989
0.459106  0.440516  0.183248
0.502761  0.467862  0.167165
0.527297  0.502117  0.185765
0.564814  0.528137  0.170401
0.624059  0.569733  0.163959
0.644986  0.594326  0.144612
0.698132  0.623443  0.140373
0.736592  0.656556  0.139376
0.779427  0.681449  0.138324
0.813615  0.705063  0.148749
0.855783  0.736568  0.134679
0.912291  0.772121  0.138481
0.960051  0.787620  0.152301
1.009557  0.812446  0.126809
0.459747  0.448168  0.207398
0.494367  0.469337  0.174664
0.521919  0.505756  0.191151
0.568085  0.527427  0.159302
0.605357  0.568669  0.153707
0.655674  0.607483  0.153565
0.687302  0.621402  0.139530
0.737498  0.660412  0.145251
0.763762  0.679511  0.135738
0.803018  0.706589  0.126227
0.842505  0.738328  0.139668
0.900523  0.761289  0.132029
0.937981  0.791207  0.142937
0.987062  0.817028  0.138051
1.033434  0.847003  0.159350
0.487638  0.474060  0.194877
0.537301  0.517570  0.187279
0.569314  0.554433  0.171778
0.600179  0.567703  0.161571
0.644770  0.599636  0.150590
0.674122  0.627073  0.150732
0.715836  0.653504  0.140681
0.761333  0.674340  0.139346
0.800486  0.712741  0.149544
0.841997  0.740855  0.156862
0.885833  0.762610  0.137921
0.918199  0.783034  0.152207
0.960901  0.813729  0.149472
1.013413  0.845873  0.142576
1.063000  0.865501  0.141959
0.099349  0.112723  0.084217
0.098232  0.123938  0.097191
0.124028  0.142610  0.116436
0.156858  0.162917  0.119616
0.202922  0.183273  0.096843
0.264590  0.211078  0.082544
0.342735  0.247307  0.078006
0.405020  0.265497  0.065874
0.441035  0.271875  0.070813
0.509613  0.301821  0.061378
0.560764  0.318204  0.059766
0.629284  0.333386  0.063960
0.689216  0.357596  0.050877
0.771414  0.360741  0.039500
0.831339  0.374290  0.040806
0.111200  0.131689  0.109573
0.122957  0.146773  0.134575
0.140977  0.161890  0.140888
0.168098  0.178591  0.136791
0.222536  0.209519  0.137503
0.280654  0.236760  0.118421
0.355270  0.271357  0.108150
0.414369  0.291458  0.100391
0.457308  0.301448  0.086650
0.519127  0.324181  0.079853
0.577643  0.345393  0.073967
0.643080  0.362517  0.072015
0.713817  0.389506  0.066275
0.772802  0.389305  0.046259
0.841593  0.401216  0.045592
0.124106  0.153792  0.137571
0.142438  0.172310  0.160338
0.163272  0.194784  0.179540
0.190131  0.218123  0.183048
0.233393  0.228333  0.159884
0.298972  0.263333  0.141169
0.362823  0.289834  0.128465
0.413555  0.308510  0.124664
0.474574  0.324960  0.106603
0.537525  0.356352  0.096086
0.593436  0.377318  0.104400
0.655056  0.390415  0.082779
0.705776  0.404013  0.087599
0.784279  0.424103  0.075300
0.872211  0.446931  0.066648
0.137904  0.178881  0.171344
0.152485  0.194345  0.186747
0.168401  0.210459  0.205974
0.196550  0.233025  0.206331
0.257465  0.267723  0.201314
0.315977  0.282059  0.173973
0.388183  0.319008  0.163812
0.428804  0.333148  0.144094
0.505162  0.361431  0.130408
0.565609  0.383678  0.124732
0.602529  0.400246  0.128048
0.665699  0.425099  0.124622
0.742053  0.444933  0.113600
0.797359  0.457199  0.092647
0.867181  0.479641  0.108947
0.155957  0.205085  0.208343
0.181679  0.221495  0.225615
0.196946  0.233195  0.213531
0.234244  0.261608  0.229172
0.278802  0.276263  0.206408
0.334073  0.308300  0.200580
0.382114  0.329417  0.183336
0.451241  0.358024  0.173074
0.501080  0.380227  0.163014
0.573205  0.401498  0.134849
0.629224  0.423443  0.145842
0.680196  0.447695  0.139012
0.735646  0.481607  0.138545
0.815906  0.484957  0.129758
0.882820  0.515232  0.115440
0.177707  0.229138  0.227898
0.196881  0.241800  0.237087
0.227709  0.264821  0.244578
0.253428  0.281446  0.240294
0.303751  0.307309  0.241918
0.352240  0.327521  0.217138
0.420089  0.364603  0.191025
0.469586  0.388828  0.205704
0.522437  0.409227  0.182852
0.563576  0.420277  0.170420
0.652846  0.451918  0.165693
0.700075  0.483261  0.159381
0.770197  0.501844  0.152963
0.828828  0.526776  0.143638
0.879748  0.541325  0.137737
0.204257  0.247786  0.249992
0.230955  0.267556  0.239887
0.256453  0.286388  0.253439
0.302032  0.311427  0.252470
0.340378  0.329380  0.236824
0.399386  0.371841  0.234853
0.446260  0.391296  0.211493
0.496489  0.425457  0.220194
0.548667  0.444518  0.199037
0.600935  0.458216  0.184029
0.661490  0.482290  0.176093
0.726429  0.511296  0.170864
0.777119  0.525302  0.181128
0.838780  0.547423  0.167460
0.913232  0.574184  0.160086
0.219703  0.273273  0.273100
0.268621  0.297953  0.261682
0.318774  0.329743  0.265279
0.343684  0.342831  0.258742
0.380321  0.370365  0.255822
0.432776  0.394584  0.213413
0.474661  0.441040  0.224985
0.532351  0.455293  0.228119
0.567824  0.476066  0.225578
0.638970  0.503934  0.206825
0.691193  0.542950  0.181826
0.745957  0.543983  0.194186
0.815934  0.572950  0.183269
0.856813  0.581606  0.182094
0.919297  0.604966  0.183292
0.271319  0.307825  0.267581
0.300444  0.324229  0.265197
0.341583  0.346002  0.276897
0.379051  0.368152  0.257160
0.424595  0.402591  0.250716
0.460183  0.440777  0.239657
0.499388  0.465228  0.231100
0.549846  0.492268  0.228143
0.591478  0.508284  0.232315
0.663391  0.544631  0.212207
0.721666  0.572858  0.184140
0.776572  0.593255  0.200316
0.814285  0.608206  0.197344
0.879014  0.631767  0.203690
0.954567  0.641502  0.198606
0.290194  0.325012  0.284849
0.338054  0.354964  0.270857
0.387411  0.384982  0.273439
0.420673  0.396483  0.258438
0.474516  0.441061  0.240826
0.495545  0.467830  0.239201
0.535150  0.496094  0.247431
0.570177  0.537583  0.224686
0.630895  0.563002  0.217450
0.672787  0.584330  0.201477
0.740168  0.621059  0.199181
0.787036  0.649278  0.203494
0.826233  0.654717  0.191098
0.910287  0.687117  0.199246
