LUT/LUT_20.CUBE
TITLE "LUT_20" 
#LUT size 
LUT_3D_SIZE 15 
DOMAIN_MIN 0.0 0.0 0.0 
DOMAIN_MAX 1.0 1.0 1.0 
#data point 
0.056395  0.058741  0.026773
0.070916  0.069850  0.031366
0.094479  0.090427  0.045489
0.134055  0.122409  0.063213
0.186595  0.165623  0.068467
0.247128  0.201778  0.064227
0.319674  0.237171  0.052949
0.363591  0.249446  0.051403
0.427698  0.291502  0.051637
0.475410  0.316101  0.048253
0.539579  0.331328  0.047793
0.575786  0.356099  0.051185
0.653664  0.386256  0.046177
0.710144  0.402804  0.049614
0.784559  0.428482  0.047236
0.073977  0.071316  0.032110
0.083214  0.083694  0.037497
0.115108  0.098141  0.046550
0.153865  0.132554  0.062940
0.207785  0.179727  0.070080
0.275378  0.209942  0.064072
0.333319  0.250644  0.066288
0.393693  0.281865  0.060233
0.441390  0.304408  0.056328
0.484252  0.319476  0.051247
0.553109  0.351901  0.058850
0.621536  0.382381  0.053565
0.684425  0.410717  0.050705
0.740149  0.431133  0.043872
0.792255  0.451930  0.055403
0.104272  0.097307  0.047068
0.100616  0.093398  0.048084
0.132861  0.121677  0.058693
0.168788  0.148721  0.076664
0.244089  0.201804  0.072864
0.284956  0.224584  0.067420
0.363869  0.270140  0.069319
0.403492  0.291052  0.058988
0.463229  0.322588  0.062797
0.516896  0.344011  0.055581
0.564396  0.366367  0.057510
0.635916  0.412628  0.056658
0.688104  0.429877  0.057277
0.758260  0.447507  0.059193
0.814477  0.475200  0.053100
0.117339  0.113833  0.056683
0.125825  0.119310  0.066872
0.164743  0.141797  0.070834
0.217982  0.184902  0.081766
0.279484  0.228961  0.077294
0.324472  0.254781  0.071137
0.378729  0.284523  0.068366
0.443316  0.306956  0.056127
0.486162  0.337534  0.061511
0.531086  0.364774  0.054153
0.587003  0.393482  0.060023
0.652802  0.416937  0.056259
0.700585  0.443050  0.047579
0.773716  0.460303  0.050364
0.835602  0.498536  0.051437
0.148339  0.135406  0.073212
0.176862  0.160410  0.082307
0.216746  0.185200  0.086202
0.255298  0.209683  0.079760
0.300023  0.237363  0.075812
0.362675  0.280023  0.082180
0.402211  0.304902  0.070943
0.460305  0.334385  0.066385
0.516607  0.366395  0.061809
0.564199  0.386826  0.059320
0.608092  0.424915  0.062666
0.689677  0.452072  0.058576
0.727291  0.470038  0.052421
0.793382  0.500352  0.051439
0.850539  0.516864  0.055143
0.176547  0.167337  0.098394
0.218747  0.189621  0.082391
0.253705  0.211061  0.086482
0.315419  0.247301  0.074058
0.340749  0.273494  0.072186
0.369380  0.295838  0.083832
0.433646  0.327529  0.073535
0.483043  0.366991  0.076552
0.522220  0.381706  0.063939
0.562103  0.410410  0.059411
0.636095  0.444221  0.059173
0.685043  0.469018  0.068557
0.760255  0.488896  0.055938
0.806430  0.524045  0.060318
0.869906  0.545807  0.062640
0.223631  0.198269  0.085547
0.262683  0.226675  0.088423
0.306438  0.252750  0.096173
0.346591  0.282241  0.095617
0.384157  0.299524  0.077252
0.428284  0.337120  0.085028
0.452242  0.355524  0.075562
0.517355  0.400877  0.077569
0.551344  0.416366  0.068548
0.622932  0.470207  0.066542
0.660459  0.487440  0.065244
0.701269  0.496139  0.064582
0.760860  0.529288  0.059971
0.826355  0.546150  0.062597
0.897890  0.574961  0.065750
0.278892  0.239879  0.100615
0.312855  0.259645  0.093644
0.335969  0.269008  0.086792
0.388865  0.306875  0.079961
0.423797  0.348313  0.084320
0.464944  0.372881  0.070706
0.497456  0.397050  0.074526
0.530570  0.423659  0.071070
0.579769  0.466631  0.072518
0.635733  0.496734  0.064213
0.692265  0.522470  0.064268
0.739240  0.551026  0.074610
0.793363  0.570733  0.073501
0.856145  0.593125  0.070506
0.921874  0.616335  0.063092
0.302895  0.251837  0.105316
0.353367  0.287897  0.088516
0.381105  0.307739  0.071506
0.419053  0.332372  0.077775
0.467955  0.378660  0.084817
0.495357  0.402111  0.082356
0.527712  0.426687  0.070327
0.580330  0.470258  0.078478
0.607055  0.504903  0.075291
0.669083  0.548631  0.068424
0.695004  0.561198  0.071631
0.746638  0.589521  0.075566
0.816436  0.611417  0.072689
0.859270  0.648804  0.076401
0.933084  0.663188  0.067930
0.363450  0.302565  0.098174
0.394204  0.322250  0.087319
0.423165  0.343338  0.082411
0.459728  0.377515  0.081831
0.498078  0.408482  0.075688
0.534817  0.432588  0.077729
0.572191  0.471591  0.075006
0.621315  0.503303  0.075222
0.655136  0.546841  0.066430
0.692083  0.573786  0.074339
0.738586  0.618674  0.070689
0.775007  0.632959  0.059675
0.826147  0.662064  0.079844
0.883263  0.665347  0.075810
0.942392  0.709029  0.074846
0.379008  0.317744  0.096830
0.429545  0.346274  0.093972
0.456817  0.393635  0.084584
0.495936  0.408675  0.079318
0.551449  0.450745  0.077355
0.565217  0.482280  0.071646
0.601441  0.505384  0.086601
0.657339  0.549498  0.071580
0.697973  0.586949  0.071248
0.726285  0.608805  0.068933
0.770401  0.649717  0.067817
0.804168  0.665264  0.073908
0.864866  0.703163  0.073206
0.914781  0.714245  0.070997
0.957624  0.739196  0.079913
0.432533  0.358170  0.088228
0.463487  0.374208  0.088608
0.497488  0.414954  0.080104
0.530229  0.440128  0.074953
0.576254  0.478554  0.073386
0.622294  0.510323  0.068602
0.643004  0.546883  0.065198
0.667233  0.582809  0.067213
0.722664  0.615776  0.070580
0.760843  0.640714  0.062491
0.795982  0.674434  0.071937
0.843220  0.699475  0.070930
0.891032  0.721170  0.069075
0.918979  0.767932  0.080656
0.986475  0.775741  0.075002
0.460133  0.384681  0.082950
0.493021  0.407974  0.075080
0.533414  0.443120  0.072254
0.566209  0.482510  0.063397
0.609241  0.518386  0.084951
0.641798  0.556618  0.080792
0.683501  0.582559  0.071423
0.712451  0.601305  0.079816
0.758046  0.636418  0.074289
0.782767  0.662664  0.073279
0.830713  0.686164  0.074685
0.882648  0.719394  0.083378
0.911048  0.750958  0.083765
0.951214  0.783966  0.075740
1.023933  0.801209  0.085271
0.503997  0.428715  0.075028
0.539096  0.465904  0.071994
0.572448  0.494398  0.071758
0.615145  0.523313  0.079986
0.648343  0.551591  0.075502
0.675295  0.572173  0.061127
0.711276  0.606661  0.073662
0.747544  0.632556  0.066964
0.776719  0.661994  0.075026
0.814174  0.674257  0.077066
0.857043  0.708824  0.069883
0.899810  0.736447  0.071984
0.944243  0.773242  0.079247
0.980477  0.796598  0.081797
1.023070  0.811476  0.077243
0.536996  0.455147  0.077160
0.558854  0.479124  0.075612
0.598234  0.514277  0.079788
0.649519  0.551654  0.063840
0.680345  0.579073  0.072814
0.698150  0.605509  0.075708
0.740756  0.627819  0.081718
0.783525  0.661723  0.072887
0.808070  0.683130  0.067847
0.852146  0.705047  0.070740
0.887316  0.729226  0.080861
0.923220  0.766417  0.079622
0.972240  0.785172  0.087873
1.026893  0.814986  0.079360
1.072031  0.851507  0.078329
0.070527  0.067277  0.029740
0.085541  0.077872  0.035506
0.102357  0.093587  0.044615
0.129991  0.111296  0.053170
0.180484  0.157286  0.072245
0.244034  0.191585  0.066466
0.319585  0.239447  0.067636
0.372006  0.267720  0.054731
0.429176  0.287765  0.052281
0.466550  0.304696  0.049999
0.541725  0.337671  0.046188
0.592562  0.368000  0.047379
0.665360  0.387409  0.045879
0.708738  0.412878  0.046958
0.774688  0.435090  0.050421
0.089859  0.084302  0.040573
0.093529  0.086791  0.042600
0.118113  0.103764  0.050229
0.166523  0.145360  0.071240
0.209132  0.181500  0.073781
0.288681  0.230344  0.064193
0.336398  0.250369  0.061872
0.376701  0.280137  0.056495
0.447556  0.306357  0.053542
0.502857  0.329360  0.052570
0.544915  0.351571  0.047658
0.607822  0.385256  0.047752
0.681207  0.417798  0.044933
0.735565  0.423410  0.050876
0.795758  0.453899  0.048822
0.099708  0.098192  0.045766
0.106587  0.101555  0.061645
0.145489  0.140213  0.074106
0.176070  0.162583  0.082546
0.231295  0.191547  0.086458
0.304166  0.239672  0.077962
0.340384  0.259663  0.062121
0.404172  0.294355  0.065719
0.458790  0.320369  0.061553
0.511366  0.339869  0.059080
0.579793  0.378740  0.058245
0.631868  0.402530  0.056215
0.700382  0.430772  0.052321
0.753864  0.461162  0.051372
0.827202  0.479150  0.059220
0.126430  0.123854  0.079183
0.146520  0.137897  0.073582
0.170186  0.162445  0.095171
0.207162  0.183811  0.096004
0.258436  0.212813  0.087657
0.327697  0.261330  0.076046
0.372474  0.280344  0.074155
0.435860  0.325970  0.081055
0.477586  0.345331  0.068882
0.522393  0.369542  0.063412
0.590011  0.398121  0.068960
0.651773  0.425994  0.064637
0.704425  0.449816  0.054028
0.761268  0.474580  0.053657
0.832056  0.497132  0.056988
0.155081  0.148838  0.089522
0.173051  0.166751  0.094850
0.208834  0.193882  0.107332
0.248965  0.209185  0.092244
0.305326  0.253965  0.105805
0.352681  0.265709  0.085593
0.403471  0.306749  0.087888
0.448645  0.331722  0.069645
0.502431  0.370023  0.083635
0.556697  0.400671  0.079033
0.602590  0.416921  0.057650
0.673261  0.445203  0.060884
0.734585  0.480816  0.063646
0.786191  0.499027  0.061412
0.837205  0.523856  0.059205
0.186235  0.170527  0.100026
0.215894  0.196118  0.110797
0.251811  0.227253  0.124583
0.290295  0.250485  0.122988
0.341621  0.275116  0.090184
0.388077  0.302842  0.095512
0.450895  0.338580  0.087015
0.470702  0.359133  0.100327
0.521916  0.388160  0.077528
0.576680  0.426774  0.088051
0.631725  0.448531  0.076855
0.685236  0.483375  0.066815
0.740577  0.490230  0.067710
0.814321  0.527952  0.062780
0.878034  0.562828  0.056735
0.231937  0.223493  0.143038
0.270937  0.236573  0.113454
0.289380  0.257884  0.130852
0.333627  0.273485  0.117281
0.384105  0.306612  0.099356
0.427863  0.341018  0.093477
0.463193  0.367842  0.092799
0.516696  0.397914  0.102656
0.549351  0.420604  0.092254
0.590173  0.447120  0.092738
0.661443  0.483639  0.074929
0.711281  0.506067  0.064601
0.765821  0.537083  0.065195
0.839067  0.559750  0.058969
0.892758  0.585922  0.063116
0.259200  0.237011  0.126597
0.288665  0.259982  0.133500
0.338830  0.291947  0.135428
0.374783  0.310870  0.130609
0.427061  0.340579  0.087292
0.461352  0.369443  0.101198
0.507122  0.407312  0.090948
0.557842  0.436246  0.082800
0.585639  0.460352  0.083642
0.619108  0.487417  0.085301
0.677697  0.523901  0.069881
0.730953  0.541646  0.071615
0.799565  0.567682  0.062878
0.849588  0.596125  0.069640
0.930161  0.609719  0.076569
0.307989  0.262323  0.125589
0.344099  0.293116  0.140798
0.378703  0.313584  0.119789
0.401335  0.340732  0.121914
0.447941  0.373805  0.108279
0.493761  0.412984  0.097210
0.531289  0.435129  0.104983
0.573071  0.475673  0.077729
0.616733  0.513377  0.087967
0.672683  0.548837  0.094566
0.718925  0.565296  0.083226
0.762497  0.584904  0.087715
0.818176  0.610883  0.080588
0.878047  0.649480  0.084846
0.928114  0.651273  0.076054
0.331430  0.281406  0.129613
0.395530  0.334436  0.127665
0.418579  0.354202  0.125212
0.466295  0.384749  0.105055
0.495066  0.413571  0.110674
0.543857  0.448323  0.090316
0.586724  0.488829  0.099849
0.611515  0.513919  0.094887
0.658229  0.548661  0.084632
0.688006  0.571314  0.082952
0.746357  0.624754  0.073059
0.776988  0.635939  0.072082
0.834180  0.655817  0.078648
0.886426  0.678740  0.078021
0.950085  0.708802  0.082903
0.369521  0.314032  0.141122
0.400372  0.341283  0.132076
0.440060  0.378317  0.127897
0.501642  0.418061  0.105170
0.533433  0.441022  0.102894
0.575140  0.487690  0.093777
0.624205  0.526631  0.090761
0.654661  0.554783  0.081335
0.693998  0.584784  0.087635
0.728697  0.615675  0.082158
0.775980  0.637621  0.075981
0.817830  0.674177  0.090546
0.856467  0.696398  0.064778
0.921895  0.719759  0.086268
0.960780  0.724072  0.093560
0.406307  0.345543  0.135666
0.450859  0.381298  0.124924
0.505986  0.428400  0.111005
0.531430  0.444082  0.100048
0.565831  0.493290  0.104597
0.611637  0.514558  0.100574
0.631727  0.539191  0.101636
0.681100  0.573248  0.100875
0.708381  0.599097  0.090766
0.738550  0.627578  0.092237
0.794794  0.661292  0.075427
0.844794  0.693386  0.092168
0.900054  0.728510  0.081742
0.927964  0.761217  0.084699
0.980805  0.776005  0.075624
0.464910  0.385374  0.118737
0.514269  0.432195  0.079912
0.539137  0.447735  0.104211
0.588870  0.490917  0.095467
0.600843  0.508043  0.100883
0.642554  0.551434  0.097492
0.686953  0.589865  0.091303
0.697332  0.600265  0.090950
0.758566  0.633930  0.097166
0.788435  0.663174  0.099744
0.825896  0.684837  0.084283
0.878279  0.729289  0.091556
0.917752  0.742594  0.087321
0.977260  0.776238  0.085018
1.008670  0.791002  0.085731
0.482430  0.412223  0.119212
0.516072  0.441669  0.099453
0.567650  0.479597  0.088348
0.585214  0.496658  0.089231
0.641761  0.554785  0.086763
0.667345  0.570991  0.082011
0.688853  0.596381  0.110029
0.747951  0.639545  0.083249
0.783970  0.660164  0.086146
0.813511  0.685505  0.096605
0.858851  0.716338  0.088846
0.896168  0.731460  0.097447
0.936419  0.766890  0.092517
0.986513  0.797447  0.084504
1.030583  0.818775  0.084539
0.538632  0.459818  0.122482
0.565176  0.488044  0.091040
0.582750  0.496408  0.099760
0.634644  0.533675  0.085802
0.665600  0.575023  0.091425
0.705882  0.602978  0.093234
0.738597  0.636904  0.088126
0.780892  0.660529  0.094204
0.807537  0.678582  0.095085
0.849306  0.706250  0.097611
0.895665  0.742368  0.095104
0.918454  0.760763  0.090779
0.974643  0.796201  0.097802
1.025533  0.819547  0.087573
1.073673  0.852509  0.104202
0.092276  0.085326  0.039210
0.106254  0.103976  0.059534
0.114930  0.109181  0.061421
0.155832  0.139304  0.076996
0.192930  0.168796  0.079228
0.253628  0.208687  0.072359
0.310137  0.240800  0.062830
0.382014  0.267407  0.062842
0.433758  0.299472  0.053920
0.473370  0.316042  0.052846
0.530750  0.343608  0.052176
0.596819  0.372614  0.056387
0.642444  0.394984  0.047151
0.734164  0.427091  0.053859
0.784876  0.429412  0.042561
0.108033  0.107592  0.066010
0.118940  0.119540  0.075510
0.136152  0.132844  0.082568
0.163281  0.157973  0.095370
0.222207  0.200649  0.097691
0.287717  0.234191  0.080732
0.340542  0.263430  0.075019
0.380710  0.281577  0.072312
0.447414  0.321774  0.059093
0.501011  0.348117  0.063770
0.559759  0.372222  0.058746
0.611883  0.397720  0.054139
0.663632  0.410339  0.054630
0.757926  0.444528  0.049732
0.798173  0.454590  0.052994
0.122709  0.124841  0.078304
0.135822  0.144793  0.107070
0.157208  0.152294  0.103459
0.190336  0.179098  0.106432
0.227100  0.207109  0.108768
0.302960  0.258501  0.109010
0.348594  0.282438  0.089891
0.390701  0.298608  0.082981
0.466803  0.332994  0.077361
0.520152  0.364000  0.090006
0.564597  0.389617  0.062859
0.629524  0.419612  0.056867
0.700212  0.433766  0.058186
0.756057  0.467257  0.059292
0.802053  0.476972  0.052008
0.147116  0.157124  0.117147
0.155188  0.161923  0.123444
0.158322  0.178144  0.142626
0.203969  0.202171  0.134892
0.234223  0.215709  0.131890
0.323286  0.276958  0.125815
0.376450  0.310009  0.117328
0.418331  0.320128  0.102517
0.483362  0.368643  0.091572
0.538199  0.387379  0.095597
0.578084  0.404317  0.085268
0.648576  0.436820  0.075385
0.703091  0.462834  0.068940
0.753652  0.475454  0.059707
0.825786  0.508168  0.063553
0.152192  0.175109  0.146189
0.192369  0.212151  0.177878
0.206711  0.207048  0.152155
0.219264  0.221636  0.160337
0.289089  0.258070  0.141154
0.331451  0.284327  0.139517
0.392097  0.315547  0.134853
0.460566  0.352296  0.112196
0.501374  0.382599  0.113363
0.559425  0.407160  0.104231
0.611749  0.434702  0.102304
0.669680  0.456921  0.088094
0.726069  0.483831  0.079205
0.780473  0.524056  0.075061
0.846639  0.540568  0.065876
0.171146  0.198388  0.171819
0.197121  0.213387  0.172897
0.239444  0.243353  0.172880
0.260054  0.251635  0.165867
0.318441  0.287017  0.166023
0.364819  0.318639  0.169626
0.426275  0.341457  0.140327
0.472222  0.369973  0.127666
0.542221  0.408956  0.108504
0.576322  0.430136  0.116044
0.634885  0.457905  0.097559
0.686510  0.490575  0.115728
0.734836  0.505136  0.091419
0.812675  0.546414  0.090730
0.855867  0.562403  0.082425
0.208015  0.224498  0.183477
0.237470  0.244784  0.181062
0.275954  0.270256  0.186720
0.323143  0.297437  0.188030
0.354097  0.317618  0.171459
0.403949  0.341180  0.169287
0.457418  0.374368  0.155363
0.499989  0.399905  0.141098
0.538956  0.426986  0.132558
0.594097  0.463428  0.131847
0.651352  0.494666  0.131692
0.706831  0.520768  0.133407
0.768496  0.536964  0.126199
0.831456  0.579067  0.106966
0.885613  0.584117  0.090725
0.259381  0.262155  0.200388
0.289295  0.283778  0.207454
0.328832  0.303038  0.192250
0.357720  0.321259  0.166956
0.396994  0.348481  0.185285
0.442892  0.371606  0.157662
0.499696  0.410977  0.159406
0.542101  0.437472  0.148510
0.591666  0.471185  0.117569
0.650247  0.503659  0.126608
0.680575  0.517546  0.127550
0.720051  0.550829  0.138029
0.783315  0.581433  0.126527
0.859018  0.607420  0.106660
0.896865  0.625395  0.111172
0.276331  0.275685  0.198990
0.330319  0.306910  0.195228
0.353261  0.315828  0.186655
0.404096  0.357069  0.185175
0.430690  0.380802  0.192262
0.470789  0.401527  0.173285
0.529605  0.447951  0.163901
0.566189  0.472888  0.143381
0.631041  0.509130  0.123086
0.668305  0.529149  0.127564
0.717890  0.565980  0.121040
0.753368  0.600735  0.127592
0.812243  0.612620  0.131108
0.869011  0.638797  0.129146
0.929550  0.664887  0.112995
0.314233  0.304858  0.218547
0.360653  0.333683  0.197585
0.403316  0.352719  0.185065
0.424919  0.385330  0.201116
0.462302  0.402963  0.194350
0.527990  0.442637  0.162243
0.571640  0.474964  0.163623
0.607118  0.505276  0.137791
0.651592  0.543807  0.134653
0.697642  0.581355  0.124326
0.746055  0.609162  0.131849
0.792294  0.631853  0.128484
0.838067  0.658663  0.140000
0.881288  0.683602  0.135335
0.933790  0.700048  0.117832
0.364759  0.333021  0.197639
0.396494  0.355043  0.190112
0.428496  0.388528  0.207374
0.487774  0.422436  0.171643
0.518623  0.442575  0.159551
0.548668  0.470019  0.164629
0.591574  0.512667  0.159943
0.644974  0.542988  0.143835
0.680186  0.583022  0.116504
0.720521  0.602470  0.130157
0.761332  0.634835  0.132224
0.798223  0.664225  0.130854
0.859990  0.710931  0.130321
0.904426  0.717863  0.126776
0.978361  0.756942  0.127234
0.406182  0.360187  0.205392
0.430760  0.387966  0.191974
0.477873  0.426057  0.194141
0.518508  0.448391  0.178351
0.572907  0.477406  0.176453
0.600821  0.509941  0.154966
0.620662  0.526910  0.156686
0.671225  0.565753  0.137618
0.718879  0.602945  0.148906
0.767373  0.644954  0.118539
0.792046  0.666741  0.130462
0.835901  0.710369  0.137987
0.883763  0.725902  0.132293
0.927777  0.760835  0.132995
0.987562  0.793711  0.143561
0.444111  0.380331  0.199074
0.469064  0.415294  0.193196
0.513828  0.441608  0.173340
0.536107  0.466159  0.196047
0.585632  0.506116  0.180382
0.637222  0.538752  0.164115
0.667536  0.564851  0.138668
0.703803  0.604603  0.144897
0.751133  0.637239  0.137924
0.784601  0.658918  0.132016
0.815528  0.688325  0.137911
0.855353  0.720111  0.138354
0.913545  0.753040  0.130103
0.967052  0.780668  0.154379
1.008683  0.792934  0.126314
0.469493  0.412834  0.206102
0.509558  0.439915  0.184689
0.531526  0.464481  0.193129
0.580819  0.511400  0.161178
0.617525  0.537449  0.149630
0.680560  0.587515  0.148300
0.706120  0.598809  0.138452
0.743949  0.647183  0.128741
0.779845  0.660752  0.130403
0.807630  0.683301  0.131692
0.843500  0.714507  0.129583
0.901574  0.753300  0.126495
0.937267  0.770690  0.134458
0.991885  0.802137  0.130837
1.035959  0.818550  0.150962
0.500565  0.442981  0.206425
0.555956  0.486635  0.194102
0.589766  0.517554  0.170446
0.624611  0.545418  0.155622
0.679021  0.565088  0.148344
0.694889  0.600105  0.149042
0.742434  0.634922  0.135468
0.768457  0.657541  0.138290
0.801700  0.680147  0.139677
0.854093  0.722330  0.147665
0.898129  0.747811  0.126600
0.921957  0.759404  0.143919
0.962032  0.796461  0.142292
1.019643  0.816673  0.134384
1.072191  0.850706  0.135811
0.113761  0.119887  0.072484
0.121689  0.124510  0.076754
0.138881  0.147785  0.105392
0.155433  0.163627  0.116337
0.195678  0.182749  0.095633
0.247500  0.210697  0.092869
0.338093  0.256009  0.086796
0.382337  0.280481  0.078451
0.411117  0.299168  0.071037
0.485506  0.337718  0.070504
0.522900  0.360583  0.069091
0.600605  0.383091  0.072232
0.643338  0.400850  0.060588
0.720860  0.429281  0.047045
0.773537  0.436613  0.053773
0.126327  0.135598  0.100764
0.131431  0.146296  0.123189
0.154783  0.168074  0.129701
0.176050  0.182553  0.135245
0.214380  0.205864  0.135850
0.271064  0.239057  0.118692
0.342563  0.280354  0.119857
0.398027  0.310933  0.100676
0.439484  0.320888  0.082078
0.491831  0.355555  0.084682
0.548267  0.378273  0.079023
0.605165  0.401849  0.077621
0.681894  0.430953  0.071618
0.730380  0.439938  0.056965
0.804974  0.470914  0.054089
0.135978  0.152796  0.123849
0.141433  0.170249  0.151481
0.167219  0.190077  0.161138
0.191758  0.213416  0.184862
0.223157  0.231596  0.161333
0.295582  0.264115  0.141224
0.357346  0.296153  0.137938
0.402516  0.316970  0.125261
0.469083  0.342300  0.101614
0.520661  0.382612  0.100097
0.569072  0.399592  0.101031
0.621394  0.422179  0.079871
0.677444  0.443221  0.073553
0.752772  0.472370  0.074087
0.830379  0.505028  0.064069
0.148149  0.174126  0.157084
0.163305  0.200172  0.184952
0.183825  0.216367  0.191435
0.202470  0.226184  0.194658
0.256649  0.260318  0.187863
0.303196  0.285050  0.177105
0.376475  0.315367  0.165597
0.422438  0.338515  0.134091
0.493650  0.373944  0.128465
0.552118  0.414691  0.115387
0.579781  0.419025  0.115347
0.641726  0.451264  0.115121
0.715588  0.484310  0.111033
0.760641  0.492869  0.094064
0.822981  0.517805  0.095511
0.164937  0.207736  0.202497
0.186081  0.229266  0.218625
0.198766  0.235455  0.212196
0.233510  0.261006  0.216546
0.275007  0.272453  0.201094
0.322105  0.305218  0.194145
0.374754  0.331159  0.188573
0.447800  0.369242  0.167558
0.483939  0.380363  0.156678
0.555940  0.419770  0.124513
0.606588  0.444886  0.130988
0.659539  0.467532  0.127867
0.708094  0.505016  0.135835
0.770560  0.524360  0.113329
0.851788  0.548728  0.113837
0.191575  0.229268  0.210125
0.204266  0.243162  0.227004
0.229317  0.262459  0.246546
0.248210  0.274157  0.241333
0.299434  0.305995  0.243556
0.355857  0.326132  0.223257
0.424409  0.362989  0.182051
0.465934  0.388377  0.201534
0.511579  0.414154  0.174080
0.552197  0.422693  0.167269
0.625767  0.471741  0.152243
0.669439  0.503526  0.155973
0.744049  0.532044  0.135824
0.791208  0.559219  0.138843
0.843664  0.572361  0.124966
0.216077  0.257554  0.244815
0.227589  0.258531  0.236692
0.259837  0.283155  0.255787
0.297812  0.306170  0.255761
0.333135  0.322764  0.236646
0.392228  0.363126  0.244947
0.443485  0.390041  0.213394
0.490140  0.424069  0.214071
0.549317  0.443810  0.197507
0.588339  0.458993  0.175937
0.639242  0.486969  0.177178
0.712587  0.529432  0.159253
0.752318  0.555968  0.170762
0.816500  0.583671  0.148109
0.880050  0.615924  0.155827
0.219179  0.265072  0.261293
0.272178  0.298160  0.261397
0.301341  0.319826  0.271287
0.338324  0.343461  0.273080
0.384594  0.359917  0.244333
0.437482  0.388252  0.215021
0.468195  0.419264  0.229324
0.529700  0.443407  0.220733
0.569778  0.473245  0.228768
0.626681  0.496953  0.194741
0.693928  0.544057  0.174047
0.727662  0.552899  0.189287
0.796107  0.592001  0.166602
0.824914  0.605078  0.182833
0.897591  0.622689  0.177072
0.266461  0.300260  0.262201
0.292500  0.316715  0.275196
0.332112  0.343550  0.270985
0.372283  0.358642  0.261378
0.426256  0.399759  0.257397
0.462166  0.424502  0.251961
0.499895  0.445833  0.233436
0.551372  0.481005  0.227204
0.591366  0.493402  0.231339
0.665116  0.540565  0.205223
0.719525  0.580806  0.173760
0.768863  0.595070  0.196523
0.800345  0.615914  0.191722
0.863520  0.659673  0.196811
0.920322  0.664349  0.187804
0.285194  0.325784  0.295610
0.335424  0.343292  0.271844
0.388122  0.374162  0.271077
0.420441  0.387825  0.258622
0.474543  0.429375  0.247618
0.516056  0.448209  0.247346
0.545217  0.470632  0.251698
0.589581  0.509776  0.227411
0.643419  0.541434  0.209235
0.675777  0.570910  0.195578
0.740522  0.610072  0.191287
0.792516  0.644604  0.188586
0.817080  0.656377  0.189322
0.901567  0.697480  0.196496
