LUT/LUT_11.CUBE
TITLE "LUT_11" 
#LUT size 
LUT_3D_SIZE 5 
#data point 
DOMAIN_MIN 0.000000 0.000000 0.000000
DOMAIN_MAX 0.857143 0.857143 0.857143
0.040079  0.041466  0.016618
0.142131  0.118421  0.052045
0.341159  0.209474  0.034108
0.526129  0.268323  0.025462
0.714424  0.309873  0.022762
0.115089  0.119003  0.062382
0.223384  0.185364  0.065663
0.391043  0.264560  0.053382
0.565297  0.334790  0.044299
0.754108  0.393270  0.039783
0.230297  0.202263  0.085068
0.345977  0.298807  0.071746
0.457205  0.376561  0.059337
0.623202  0.455541  0.054653
0.800207  0.493258  0.045031
0.356774  0.315060  0.085141
0.452808  0.397674  0.062805
0.561010  0.497376  0.058418
0.680510  0.586745  0.058433
0.831899  0.652751  0.056745
0.436279  0.422658  0.071978
0.545301  0.510362  0.057943
0.652841  0.602873  0.058103
0.772866  0.671991  0.064982
0.905248  0.759001  0.066668
0.097720  0.111802  0.086884
0.160454  0.161159  0.117444
0.346752  0.242165  0.080414
0.511926  0.293568  0.062552
0.695507  0.345344  0.048669
0.137111  0.176854  0.171836
0.197926  0.232302  0.205204
0.385817  0.320609  0.165454
0.568658  0.376302  0.127483
0.749234  0.438207  0.116254
0.200987  0.251044  0.249217
0.302319  0.310592  0.252963
0.444609  0.391881  0.212544
0.602930  0.457134  0.184769
0.782736  0.524315  0.181091
0.292213  0.327501  0.284619
0.418476  0.397699  0.258939
0.534179  0.498732  0.248292
0.670826  0.586047  0.205471
0.829363  0.651916  0.197142
0.411980  0.415346  0.282426
0.527555  0.513211  0.243905
0.632910  0.606687  0.245745
0.771595  0.694181  0.214286
0.914829  0.769772  0.198030
0.133890  0.182958  0.189255
0.175743  0.233036  0.235909
0.318799  0.302437  0.233387
0.528302  0.358943  0.184597
0.710525  0.389768  0.160763
0.178719  0.253731  0.277683
0.233148  0.308229  0.322310
0.355163  0.377462  0.329264
0.533522  0.439648  0.286571
0.737370  0.507020  0.251530
0.238550  0.324386  0.353217
0.290582  0.393241  0.420318
0.410200  0.442914  0.403806
0.586280  0.527679  0.376257
0.772945  0.586235  0.342217
0.289958  0.395713  0.435375
0.370358  0.461303  0.477504
0.509283  0.526116  0.463688
0.646284  0.611157  0.459093
0.828873  0.683000  0.414811
0.344068  0.458219  0.498487
0.481465  0.529315  0.492033
0.605211  0.609674  0.472340
0.742564  0.703872  0.459212
0.894825  0.786815  0.457031
0.162064  0.262946  0.310602
0.226495  0.318696  0.355866
0.330521  0.381101  0.359534
0.503778  0.426964  0.323838
0.721968  0.457929  0.284272
0.233545  0.340867  0.389193
0.286367  0.396827  0.441093
0.359281  0.449605  0.468830
0.526738  0.518018  0.437642
0.725098  0.572406  0.387094
0.293099  0.407207  0.462528
0.344956  0.467196  0.511913
0.409283  0.523748  0.555862
0.559177  0.588744  0.531626
0.749302  0.665569  0.498938
0.357315  0.480663  0.535161
0.409759  0.540572  0.584413
0.471761  0.605338  0.642924
0.634602  0.675214  0.624115
0.792726  0.742237  0.589579
0.404081  0.543719  0.594842
0.467229  0.602466  0.649537
0.546194  0.669176  0.701010
0.717913  0.738508  0.677913
0.874807  0.817960  0.672051
0.160224  0.348315  0.460219
0.260522  0.401632  0.478784
0.336864  0.464675  0.524800
0.486721  0.505156  0.472416
0.691829  0.522874  0.442074
0.244740  0.414701  0.509637
0.338660  0.480879  0.547127
0.400290  0.544787  0.599548
0.521850  0.588077  0.563125
0.706217  0.653434  0.541607
0.336834  0.484247  0.552752
0.410530  0.551336  0.608056
0.478628  0.621183  0.673074
0.569030  0.683349  0.697737
0.750476  0.743229  0.640761
0.393688  0.543994  0.611105
0.474261  0.620811  0.670658
0.524992  0.685034  0.747347
0.617743  0.752189  0.807777
0.778082  0.802493  0.756664
0.447464  0.622419  0.685859
0.516211  0.679902  0.746883
0.598210  0.750480  0.826085
0.691186  0.813275  0.864455
0.833897  0.884422  0.884177
