LUT/LUT_17.CUBE
TITLE "LUT_17" 
#LUT size 
LUT_3D_SIZE 5 
#data point 
DOMAIN_MIN 0.000000 0.000000 0.000000
DOMAIN_MAX 0.857143 0.857143 0.857143
0.051331  0.052407  0.027584
0.137296  0.122958  0.055819
0.321977  0.233159  0.047891
0.493101  0.306423  0.039432
0.666748  0.373277  0.043307
0.115185  0.112462  0.061764
0.216692  0.184080  0.078997
0.382872  0.277560  0.062818
0.539571  0.353954  0.050061
0.715855  0.431765  0.048362
0.227530  0.198479  0.083194
0.345782  0.288320  0.090085
0.458771  0.361518  0.071608
0.622847  0.465390  0.064904
0.770987  0.521482  0.051775
0.365262  0.303755  0.097223
0.460698  0.380632  0.079128
0.566872  0.479734  0.068572
0.688761  0.577751  0.069530
0.826313  0.663849  0.075476
0.452222  0.392498  0.079093
0.557694  0.494075  0.061473
0.672325  0.587593  0.067469
0.779342  0.662463  0.067306
0.911099  0.756506  0.078561
0.111926  0.117487  0.075382
0.155011  0.164100  0.122542
0.341236  0.256366  0.085592
0.491367  0.327536  0.065621
0.663432  0.388364  0.058732
0.145190  0.182653  0.162541
0.204153  0.228877  0.197478
0.378346  0.319417  0.163445
0.558037  0.403064  0.116556
0.725721  0.468411  0.113281
0.213540  0.253919  0.243034
0.299964  0.308436  0.251787
0.445647  0.388253  0.215475
0.587986  0.459970  0.179930
0.759298  0.546277  0.170755
0.290933  0.324527  0.292570
0.420877  0.396365  0.259508
0.544127  0.478310  0.251872
0.676625  0.573383  0.191947
0.822662  0.656096  0.189306
0.416452  0.401541  0.285632
0.532041  0.494733  0.250796
0.652259  0.585771  0.243597
0.781985  0.678585  0.206959
0.920029  0.755338  0.193558
0.152196  0.192671  0.176398
0.185830  0.228804  0.228669
0.304490  0.303325  0.235662
0.507285  0.377672  0.170062
0.673305  0.440719  0.150951
0.197696  0.256586  0.263733
0.239076  0.304505  0.311896
0.355448  0.379305  0.332242
0.516406  0.444088  0.276004
0.715642  0.528928  0.233311
0.244211  0.326656  0.351863
0.295462  0.391899  0.416705
0.402659  0.441772  0.407313
0.577956  0.532477  0.380013
0.755894  0.603987  0.331042
0.301149  0.396358  0.425698
0.372735  0.461718  0.474771
0.502359  0.525882  0.463211
0.638759  0.609259  0.463741
0.824051  0.688783  0.406203
0.348780  0.461375  0.498137
0.484840  0.529546  0.487961
0.610481  0.596918  0.484831
0.754456  0.695853  0.468583
0.894923  0.775225  0.456310
0.192162  0.265419  0.288122
0.239208  0.322620  0.344169
0.325973  0.380182  0.351487
0.486164  0.435634  0.311792
0.686886  0.500238  0.263042
0.258026  0.345629  0.374355
0.297427  0.398698  0.432432
0.353952  0.443545  0.461410
0.514613  0.519846  0.445968
0.704341  0.586543  0.378542
0.307018  0.407310  0.449686
0.353366  0.470099  0.508916
0.403721  0.512530  0.555077
0.553381  0.593402  0.535730
0.735039  0.677989  0.499341
0.360643  0.483991  0.521550
0.419340  0.540895  0.578304
0.473546  0.604761  0.639836
0.638955  0.680668  0.630456
0.787442  0.736459  0.600301
0.413890  0.533832  0.577010
0.477781  0.608203  0.645993
0.551905  0.676089  0.700674
0.714300  0.742942  0.680989
0.867034  0.811516  0.674982
0.251636  0.355786  0.398487
0.296650  0.402057  0.449258
0.346130  0.468617  0.512739
0.476928  0.511842  0.471297
0.660392  0.572406  0.414967
0.297702  0.414058  0.467592
0.358003  0.479228  0.525594
0.420299  0.546643  0.592513
0.524207  0.591934  0.563280
0.684926  0.667077  0.543291
0.361133  0.482083  0.532357
0.429229  0.552728  0.599264
0.492345  0.625509  0.665202
0.565403  0.679189  0.701043
0.751715  0.746190  0.645500
0.416525  0.548340  0.588772
0.492020  0.622413  0.664854
0.539058  0.681883  0.726706
0.621061  0.755877  0.802702
0.767929  0.802728  0.759974
0.481196  0.620622  0.662487
0.536158  0.683259  0.731858
0.613641  0.752116  0.821155
0.693401  0.816844  0.864628
0.831752  0.884014  0.893668
