LUT/LUT_18.CUBE
TITLE "LUT_18" 
#LUT size 
LUT_3D_SIZE 5 
#data point 
DOMAIN_MIN 0.000000 0.000000 0.000000
DOMAIN_MAX 0.857143 0.857143 0.857143
0.053848  0.056608  0.026860
0.138604  0.121580  0.058344
0.321140  0.237170  0.052079
0.488701  0.309223  0.038047
0.663919  0.378690  0.044547
0.115791  0.113110  0.059404
0.219250  0.186244  0.080080
0.379154  0.280947  0.065034
0.535938  0.356510  0.052105
0.709401  0.435683  0.047393
0.226591  0.196715  0.083228
0.345517  0.286932  0.093292
0.455556  0.361208  0.074571
0.618975  0.467359  0.066169
0.767711  0.527532  0.053874
0.366267  0.303740  0.098117
0.459308  0.381536  0.079395
0.566097  0.476598  0.072823
0.688289  0.573183  0.070133
0.825410  0.661346  0.076331
0.455334  0.391443  0.083859
0.562368  0.491503  0.062629
0.680578  0.585620  0.070243
0.779521  0.660337  0.071158
0.912732  0.752738  0.080633
0.113606  0.117727  0.076623
0.158205  0.160481  0.122488
0.334211  0.258375  0.084985
0.488105  0.333080  0.068016
0.658478  0.392039  0.056989
0.149959  0.178659  0.160067
0.205486  0.230259  0.199251
0.382399  0.317562  0.164562
0.553903  0.404570  0.116197
0.718757  0.471954  0.110410
0.215329  0.257511  0.242125
0.297620  0.305537  0.253546
0.445623  0.392523  0.211086
0.588289  0.461096  0.179607
0.756120  0.546420  0.168301
0.287644  0.322810  0.290412
0.423474  0.391431  0.258126
0.545328  0.475690  0.250380
0.675092  0.573412  0.192272
0.822556  0.655845  0.185997
0.415407  0.397122  0.283716
0.531579  0.493515  0.251559
0.654914  0.580409  0.242819
0.782275  0.674370  0.204398
0.922224  0.752514  0.193695
0.151887  0.193403  0.177853
0.183923  0.232264  0.226019
0.302090  0.301813  0.236065
0.506660  0.377483  0.168915
0.667310  0.447886  0.148904
0.198205  0.253196  0.264499
0.240635  0.302454  0.310453
0.353371  0.379883  0.333484
0.516938  0.445637  0.276171
0.712378  0.532600  0.232881
0.246630  0.325672  0.349555
0.297114  0.393333  0.418216
0.400588  0.438432  0.402510
0.576952  0.530525  0.381633
0.756105  0.608302  0.332463
0.300681  0.397990  0.424992
0.373330  0.459845  0.474096
0.503045  0.522343  0.465238
0.637227  0.607102  0.467004
0.819872  0.688385  0.408763
0.352436  0.459363  0.501608
0.486291  0.526117  0.491400
0.608268  0.596119  0.486048
0.754025  0.694011  0.469407
0.896497  0.773779  0.455415
0.192005  0.265946  0.283542
0.242589  0.322173  0.342330
0.324951  0.377036  0.349026
0.483507  0.439668  0.309682
0.685289  0.505102  0.263699
0.258709  0.346322  0.370712
0.303694  0.396506  0.428123
0.357717  0.443875  0.461200
0.510649  0.518725  0.443693
0.699775  0.589060  0.377463
0.302970  0.410957  0.448692
0.355455  0.467246  0.508727
0.401898  0.520844  0.548677
0.552532  0.591688  0.538684
0.733991  0.680152  0.500163
0.364907  0.481967  0.522286
0.419694  0.539340  0.580608
0.475057  0.602983  0.639523
0.640349  0.685615  0.631262
0.786620  0.740800  0.599967
0.415832  0.538008  0.575990
0.480482  0.605994  0.646517
0.549883  0.676192  0.703200
0.716572  0.743756  0.683874
0.864679  0.814025  0.672964
0.257327  0.353841  0.397299
0.300258  0.408658  0.445530
0.349625  0.466928  0.513133
0.476316  0.513068  0.470800
0.652835  0.578266  0.413219
0.301353  0.417009  0.466261
0.361919  0.478770  0.524375
0.421040  0.548588  0.590532
0.521935  0.590941  0.568559
0.683968  0.667120  0.545076
0.362637  0.486680  0.534314
0.425510  0.557893  0.600178
0.492271  0.625343  0.666370
0.564357  0.681876  0.698813
0.753355  0.745108  0.648718
0.421519  0.542251  0.589290
0.489509  0.625161  0.662003
0.541119  0.679857  0.724973
0.624188  0.755486  0.803274
0.768062  0.804225  0.764611
0.487158  0.618688  0.663151
0.541195  0.682683  0.732517
0.613072  0.756319  0.816879
0.697220  0.813112  0.862920
0.828141  0.889978  0.891691
