LUT/LUT_11.CUBE
TITLE "LUT_11" 
#LUT size 
LUT_3D_SIZE 15 
DOMAIN_MIN 0.0 0.0 0.0 
DOMAIN_MAX 1.0 1.0 1.0 
#data point 
0.040079  0.041466  0.016618
0.059945  0.058553  0.025201
0.095249  0.089015  0.042011
0.142131  0.118421  0.052045
0.209416  0.160456  0.046560
0.262062  0.184368  0.039506
0.341159  0.209474  0.034108
0.393204  0.222758  0.032498
0.458343  0.249888  0.028593
0.526129  0.268323  0.025462
0.583021  0.277831  0.024079
0.629340  0.295092  0.022446
0.714424  0.309873  0.022762
0.768776  0.323214  0.019831
0.843410  0.327700  0.014195
0.061618  0.054232  0.023470
0.078926  0.073103  0.032459
0.109286  0.095871  0.046800
0.165978  0.142722  0.055356
0.220556  0.173705  0.049655
0.287625  0.202493  0.044898
0.346313  0.234601  0.045207
0.410629  0.251829  0.040825
0.470813  0.266901  0.032799
0.522171  0.278358  0.030362
0.590767  0.305133  0.034577
0.662644  0.332160  0.035391
0.730178  0.337971  0.027538
0.786823  0.349314  0.028635
0.850633  0.367655  0.028304
0.095706  0.086974  0.044185
0.099126  0.092668  0.050147
0.134156  0.119546  0.056623
0.186641  0.151666  0.057030
0.260995  0.196727  0.053236
0.306453  0.215637  0.047978
0.367709  0.249247  0.046841
0.420625  0.268992  0.043155
0.486297  0.294609  0.051867
0.550264  0.305188  0.035754
0.602594  0.327428  0.034675
0.676880  0.355348  0.034768
0.742316  0.371083  0.032609
0.800087  0.384737  0.034527
0.865450  0.400732  0.032269
0.115089  0.119003  0.062382
0.133877  0.123115  0.064961
0.171697  0.154300  0.067321
0.223384  0.185364  0.065663
0.286963  0.227715  0.063989
0.341887  0.243075  0.052047
0.391043  0.264560  0.053382
0.453598  0.290820  0.043930
0.506086  0.314924  0.044780
0.565297  0.334790  0.044299
0.618258  0.357712  0.037170
0.688351  0.372115  0.042793
0.754108  0.393270  0.039783
0.813731  0.404083  0.038609
0.887417  0.430652  0.035887
0.151924  0.133123  0.069891
0.183787  0.153262  0.072031
0.223803  0.187817  0.079068
0.259991  0.208817  0.066541
0.306754  0.241074  0.062614
0.362642  0.281616  0.067309
0.408240  0.299862  0.055361
0.468674  0.328916  0.051084
0.534494  0.341824  0.051146
0.594008  0.362365  0.036204
0.635106  0.392217  0.050215
0.718392  0.415040  0.046138
0.769097  0.416469  0.045492
0.840577  0.439419  0.041174
0.899191  0.460010  0.048850
0.189375  0.169198  0.090128
0.221324  0.185548  0.074621
0.263596  0.218431  0.077109
0.309235  0.253111  0.060885
0.344861  0.283675  0.058911
0.380396  0.301926  0.066674
0.438925  0.342083  0.061736
0.488384  0.361978  0.057971
0.537665  0.369975  0.051069
0.591100  0.392541  0.046564
0.666811  0.419531  0.050757
0.718902  0.436572  0.054218
0.790582  0.447738  0.046270
0.852615  0.470049  0.053768
0.906377  0.491696  0.051769
0.230297  0.202263  0.085068
0.267535  0.225431  0.080343
0.306714  0.255853  0.069143
0.345977  0.298807  0.071746
0.378434  0.318539  0.061134
0.417681  0.355538  0.061895
0.457205  0.376561  0.059337
0.518866  0.404913  0.059768
0.565969  0.418413  0.057806
0.623202  0.455541  0.054653
0.676035  0.473379  0.046342
0.729373  0.477230  0.054253
0.800207  0.493258  0.045031
0.860267  0.502102  0.052973
0.933753  0.517334  0.052331
0.277814  0.240814  0.095789
0.309841  0.268210  0.072323
0.340351  0.289490  0.062457
0.381613  0.325938  0.062174
0.413957  0.369211  0.065483
0.456134  0.398490  0.056389
0.484419  0.423090  0.059918
0.522778  0.447374  0.054469
0.586227  0.473795  0.055314
0.635740  0.501458  0.051742
0.701017  0.513030  0.054815
0.747877  0.538880  0.059607
0.813656  0.547453  0.060128
0.886505  0.559879  0.058152
0.954761  0.583323  0.061328
0.299678  0.268154  0.090903
0.348569  0.309807  0.077717
0.373988  0.336803  0.065388
0.405482  0.359570  0.064866
0.453508  0.407276  0.068470
0.477692  0.427949  0.063857
0.526164  0.460270  0.056927
0.563743  0.493369  0.068301
0.608607  0.521195  0.058647
0.655921  0.544725  0.057231
0.703111  0.570911  0.060702
0.765117  0.577909  0.062258
0.833360  0.593861  0.058663
0.889915  0.619255  0.059425
0.946765  0.632465  0.063289
0.356774  0.315060  0.085141
0.380448  0.339347  0.074064
0.411585  0.373697  0.063184
0.452808  0.397674  0.062805
0.480639  0.439016  0.065836
0.515434  0.459816  0.064272
0.561010  0.497376  0.058418
0.597768  0.530357  0.064575
0.634469  0.562023  0.057855
0.680510  0.586745  0.058433
0.727997  0.619803  0.055350
0.780176  0.637807  0.055108
0.831899  0.652751  0.056745
0.899301  0.661330  0.060043
0.962899  0.685939  0.067653
0.374411  0.342229  0.076774
0.410705  0.372988  0.071078
0.446169  0.413623  0.063383
0.473371  0.445277  0.070860
0.531480  0.477766  0.062537
0.550725  0.512789  0.064069
0.591240  0.536984  0.074801
0.637899  0.564048  0.058747
0.683958  0.601126  0.053902
0.709934  0.623944  0.060452
0.763389  0.657189  0.065996
0.806068  0.675481  0.060277
0.859175  0.703717  0.063498
0.910399  0.728524  0.056620
0.971533  0.733815  0.069680
0.409307  0.386392  0.069868
0.436403  0.409585  0.067796
0.477890  0.440630  0.069024
0.505467  0.468168  0.061444
0.553675  0.513594  0.065236
0.595490  0.541084  0.058133
0.618277  0.560276  0.055785
0.655691  0.589862  0.054082
0.709240  0.628190  0.060065
0.745111  0.650400  0.055618
0.786916  0.685531  0.062139
0.838494  0.709065  0.065129
0.888524  0.735202  0.057809
0.941771  0.768409  0.065853
0.991048  0.785232  0.062810
0.436279  0.422658  0.071978
0.474109  0.446527  0.063885
0.510137  0.483007  0.061357
0.545301  0.510362  0.057943
0.579450  0.548404  0.056846
0.616864  0.572312  0.073611
0.652841  0.602873  0.058103
0.694460  0.629562  0.063681
0.741409  0.658455  0.066396
0.772866  0.671991  0.064982
0.816502  0.711417  0.063865
0.864800  0.739353  0.068682
0.905248  0.759001  0.066668
0.949567  0.787951  0.061232
1.017141  0.811119  0.068889
0.472055  0.462629  0.059889
0.511353  0.495159  0.064647
0.549956  0.524205  0.063039
0.585133  0.547665  0.065296
0.613926  0.580430  0.064592
0.651070  0.604110  0.053344
0.686177  0.624738  0.062288
0.735862  0.660999  0.059869
0.761530  0.677573  0.065937
0.804572  0.699375  0.065335
0.843215  0.727151  0.065730
0.899987  0.757809  0.063033
0.940820  0.785917  0.067281
0.988160  0.812685  0.069833
1.031159  0.835112  0.062741
0.502167  0.492814  0.066727
0.536781  0.520445  0.067964
0.574313  0.549311  0.061451
0.617940  0.577607  0.064814
0.650847  0.610067  0.066101
0.677722  0.627461  0.062348
0.718208  0.659867  0.068534
0.759705  0.680430  0.061265
0.790736  0.706410  0.063330
0.836394  0.730512  0.067841
0.876922  0.754013  0.063729
0.928920  0.784760  0.070776
0.971767  0.810674  0.069217
1.027434  0.841868  0.066928
1.073851  0.862809  0.069046
0.054569  0.053198  0.025516
0.070239  0.061136  0.031961
0.102422  0.093362  0.044456
0.135781  0.114967  0.048659
0.194469  0.152047  0.053444
0.270604  0.184692  0.039364
0.344792  0.213400  0.036823
0.393024  0.224246  0.036788
0.467371  0.256698  0.031890
0.509569  0.259071  0.027452
0.577979  0.285161  0.026848
0.645467  0.300608  0.022998
0.719993  0.314004  0.021543
0.766745  0.324592  0.020457
0.840626  0.321771  0.015280
0.075304  0.073787  0.039144
0.086352  0.082878  0.042145
0.116323  0.105899  0.050175
0.168911  0.146789  0.064999
0.231860  0.185960  0.060032
0.292156  0.212813  0.046889
0.349586  0.227574  0.038019
0.404738  0.252325  0.042515
0.475674  0.272697  0.037187
0.531719  0.289938  0.037395
0.592063  0.311135  0.032255
0.656564  0.332607  0.033541
0.720622  0.341769  0.032199
0.790300  0.356290  0.027142
0.847370  0.378101  0.028010
0.091174  0.091864  0.056418
0.106816  0.108192  0.056692
0.148256  0.136616  0.073005
0.191082  0.169075  0.073538
0.242516  0.196502  0.069502
0.311585  0.230480  0.058069
0.364862  0.253426  0.050535
0.426320  0.276697  0.048359
0.479257  0.298225  0.041163
0.540373  0.313728  0.043254
0.612623  0.337555  0.038769
0.672369  0.355297  0.036967
0.749250  0.373113  0.034939
0.800787  0.392756  0.036802
0.872971  0.408612  0.029414
0.117508  0.126546  0.083450
0.144409  0.138031  0.077303
0.179852  0.166677  0.088790
0.208501  0.188615  0.094754
0.273682  0.217789  0.079170
0.331517  0.253111  0.072476
0.379067  0.275717  0.070252
0.442503  0.307195  0.063551
0.504511  0.323764  0.055560
0.566134  0.336456  0.053973
0.627613  0.359888  0.049975
0.688851  0.391640  0.050329
0.745372  0.394085  0.040569
0.812559  0.417173  0.043331
0.879193  0.440156  0.046959
0.152366  0.148875  0.090357
0.181630  0.168529  0.093654
0.208784  0.188728  0.097696
0.256042  0.219537  0.092542
0.309464  0.251025  0.097393
0.351032  0.274691  0.086766
0.405006  0.307453  0.072689
0.457599  0.322784  0.063635
0.517273  0.344541  0.077992
0.575489  0.377399  0.066715
0.634091  0.388776  0.049532
0.700778  0.414108  0.050666
0.763515  0.430421  0.052060
0.825514  0.444071  0.047860
0.890004  0.469157  0.048186
0.183064  0.179035  0.104596
0.223129  0.200335  0.102412
0.268069  0.236231  0.121325
0.294172  0.252668  0.112343
0.343455  0.286941  0.082506
0.382495  0.317026  0.087311
0.448708  0.343693  0.079461
0.479035  0.360474  0.094871
0.533889  0.389553  0.079332
0.587625  0.408928  0.076801
0.659389  0.424247  0.067192
0.718168  0.449024  0.061174
0.783558  0.460991  0.054348
0.856992  0.474877  0.057207
0.917787  0.506040  0.056966
0.240324  0.218114  0.133968
0.273317  0.238566  0.112656
0.297566  0.265418  0.122781
0.331025  0.291476  0.119927
0.378399  0.321728  0.096197
0.420206  0.361480  0.081403
0.453228  0.387870  0.077696
0.516813  0.409224  0.085384
0.558382  0.429824  0.082322
0.616140  0.435739  0.075632
0.679814  0.468384  0.070900
0.739221  0.481857  0.061451
0.799116  0.506332  0.064407
0.880758  0.510464  0.059340
0.934168  0.534621  0.062632
0.269075  0.245221  0.128128
0.294883  0.268445  0.119692
0.334303  0.305583  0.123745
0.368787  0.332112  0.109126
0.413312  0.360914  0.087388
0.448159  0.391311  0.089733
0.497668  0.430866  0.078307
0.542327  0.458771  0.077355
0.585723  0.476749  0.076288
0.625239  0.497984  0.079357
0.687872  0.509401  0.070896
0.754635  0.533886  0.068920
0.815505  0.549661  0.065803
0.879933  0.562583  0.073241
0.954005  0.572279  0.058888
0.302051  0.274270  0.125296
0.337733  0.303218  0.128084
0.369494  0.329405  0.125242
0.398061  0.365850  0.111588
0.436983  0.398846  0.093703
0.485674  0.431813  0.081777
0.517428  0.460114  0.087104
0.560681  0.491687  0.073703
0.606936  0.527970  0.074809
0.664623  0.560285  0.082311
0.712623  0.568771  0.081276
0.770116  0.577664  0.073761
0.832109  0.604086  0.071893
0.902257  0.617007  0.074223
0.951569  0.624205  0.068893
0.332965  0.300151  0.130621
0.382720  0.345983  0.121671
0.417939  0.376508  0.112149
0.440603  0.396334  0.097507
0.477121  0.438805  0.098442
0.523839  0.478870  0.085561
0.559942  0.509934  0.088764
0.593363  0.533910  0.083590
0.631898  0.565632  0.086178
0.679548  0.593504  0.074489
0.732205  0.629803  0.073587
0.785850  0.642579  0.068910
0.838368  0.654895  0.070582
0.908620  0.672980  0.074576
0.975026  0.690742  0.074030
0.367248  0.339466  0.123186
0.393913  0.366646  0.128109
0.432976  0.405974  0.117275
0.480304  0.446609  0.100462
0.520945  0.475741  0.093288
0.554476  0.511335  0.094075
0.586967  0.541117  0.090369
0.628568  0.571571  0.079861
0.672814  0.595354  0.088729
0.713203  0.623358  0.086855
0.759043  0.651826  0.079072
0.810627  0.681877  0.081253
0.860763  0.709003  0.060716
0.918656  0.736459  0.078420
0.978285  0.719431  0.079183
0.397231  0.370163  0.127148
0.437018  0.411894  0.113359
0.479933  0.446018  0.105853
0.504096  0.473392  0.089782
0.549950  0.516299  0.093913
0.589358  0.551233  0.088935
0.619359  0.565884  0.087788
0.659306  0.592149  0.093611
0.691476  0.623569  0.088113
0.734690  0.644996  0.083597
0.782264  0.680517  0.072023
0.832512  0.708327  0.098018
0.882141  0.742026  0.080088
0.926304  0.762411  0.075291
0.993006  0.789488  0.067353
0.441499  0.419044  0.117035
0.485226  0.458153  0.087247
0.502195  0.476595  0.095233
0.547161  0.514225  0.094836
0.577870  0.542631  0.089209
0.614500  0.567652  0.092859
0.660612  0.608513  0.092809
0.692188  0.623972  0.089425
0.742443  0.654781  0.092498
0.776319  0.677050  0.097759
0.819468  0.708066  0.084393
0.869522  0.744342  0.088525
0.905761  0.760714  0.078757
0.967295  0.790142  0.088051
1.014497  0.815881  0.081334
0.464520  0.454435  0.113738
0.491361  0.479701  0.096651
0.545517  0.515974  0.086049
0.569176  0.539980  0.088302
0.615196  0.580434  0.077449
0.653055  0.596680  0.081146
0.688409  0.632431  0.095000
0.735270  0.662148  0.089253
0.771147  0.689371  0.087420
0.800192  0.707402  0.097605
0.852728  0.736635  0.085968
0.893507  0.756649  0.094627
0.944263  0.787452  0.092169
0.988283  0.817481  0.075561
1.033428  0.840164  0.076960
0.502640  0.493312  0.109890
0.540330  0.524450  0.091934
0.561625  0.546126  0.095541
0.607080  0.573810  0.086072
0.638066  0.599085  0.080550
0.689091  0.631718  0.089182
0.719523  0.657881  0.084231
0.766815  0.682715  0.083149
0.794006  0.705074  0.091548
0.836720  0.732356  0.096749
0.884880  0.767199  0.089944
0.913346  0.776518  0.086148
0.972609  0.814474  0.084419
1.016796  0.839301  0.086404
1.073324  0.875790  0.095163
0.079483  0.077965  0.046713
0.101896  0.095132  0.052965
0.117193  0.108499  0.056792
0.153669  0.139504  0.066748
0.206515  0.168732  0.068113
0.273339  0.196209  0.057132
0.323487  0.227401  0.052509
0.401454  0.252808  0.042206
0.461802  0.265497  0.042548
0.508905  0.276595  0.037829
0.571202  0.286464  0.033125
0.642870  0.311370  0.030988
0.697488  0.324011  0.031546
0.781448  0.340409  0.027887
0.846083  0.343001  0.031159
0.096683  0.107561  0.077654
0.107634  0.116403  0.085825
0.133498  0.136993  0.091243
0.166343  0.161998  0.099522
0.228736  0.197707  0.092441
0.291359  0.225973  0.076164
0.345934  0.246237  0.067750
0.399544  0.267549  0.063560
0.480512  0.289986  0.052411
0.535756  0.310178  0.049716
0.590140  0.326687  0.039645
0.655422  0.341704  0.038964
0.718379  0.363196  0.037658
0.797992  0.376518  0.035549
0.854360  0.383278  0.037324
0.104700  0.124921  0.100529
0.125347  0.140988  0.116482
0.148901  0.157977  0.122724
0.191794  0.180436  0.111824
0.234643  0.209860  0.111911
0.307678  0.248434  0.099087
0.367790  0.271545  0.087198
0.419458  0.291475  0.071030
0.480467  0.318980  0.074288
0.543424  0.335689  0.082725
0.600266  0.354697  0.054755
0.666612  0.373346  0.047555
0.737470  0.382555  0.048988
0.801630  0.403468  0.049979
0.855315  0.411416  0.040560
0.127817  0.151361  0.131533
0.147637  0.168014  0.134077
0.166739  0.183894  0.153091
0.206579  0.200291  0.134922
0.246969  0.227666  0.136795
0.326725  0.271338  0.120128
0.388227  0.297125  0.108262
0.429648  0.317223  0.096915
0.502667  0.347262  0.083024
0.563685  0.367142  0.093990
0.611067  0.379686  0.077819
0.671640  0.400816  0.072036
0.747331  0.414236  0.055853
0.808160  0.434275  0.053333
0.873919  0.450398  0.050169
0.142668  0.173899  0.160968
0.172313  0.202679  0.178756
0.211087  0.210832  0.157620
0.235657  0.231672  0.156231
0.295325  0.264487  0.145227
0.328425  0.287077  0.146509
0.398925  0.312901  0.137999
0.466173  0.351086  0.115414
0.513143  0.367012  0.112100
0.573789  0.385532  0.102053
0.634211  0.413240  0.104081
0.701643  0.433821  0.092602
0.763696  0.447260  0.081603
0.822822  0.468769  0.066286
0.892793  0.486242  0.061781
0.165298  0.197536  0.184520
0.201474  0.218115  0.174951
0.240464  0.244526  0.179587
0.275457  0.266164  0.169762
0.321380  0.291028  0.160413
0.374491  0.327428  0.162491
0.429402  0.349325  0.138431
0.482481  0.370765  0.138273
0.544190  0.398256  0.121086
0.593043  0.416565  0.125005
0.651481  0.443173  0.102468
0.710706  0.468365  0.119460
0.771256  0.473941  0.092591
0.843187  0.502916  0.088131
0.904894  0.506701  0.083433
0.205537  0.224912  0.193600
0.243315  0.247811  0.184706
0.292358  0.275955  0.185841
0.320006  0.298439  0.172216
0.366569  0.332907  0.160644
0.402116  0.354739  0.164195
0.456230  0.383498  0.144332
0.508040  0.409233  0.140891
0.549846  0.422382  0.127950
0.609723  0.452504  0.136651
0.672459  0.478801  0.132439
0.729748  0.490562  0.139406
0.796931  0.505783  0.125735
0.865025  0.532882  0.116322
0.922912  0.546995  0.094923
0.256730  0.263467  0.199848
0.284225  0.279751  0.204338
0.323343  0.305039  0.186983
0.357369  0.331887  0.171736
0.405755  0.369206  0.184267
0.433188  0.388408  0.163922
0.483003  0.433538  0.155011
0.529788  0.454664  0.138999
0.589445  0.471881  0.131905
0.649722  0.497123  0.128806
0.683256  0.519734  0.135771
0.740903  0.542094  0.144378
0.802653  0.552664  0.131582
0.886227  0.568484  0.113772
0.935189  0.584739  0.111485
0.280890  0.281881  0.201201
0.325812  0.316019  0.199447
0.357691  0.338239  0.179869
0.405134  0.371197  0.187089
0.428989  0.397738  0.186537
0.473088  0.425454  0.174035
0.514558  0.469938  0.156980
0.557862  0.495904  0.145963
0.612270  0.525555  0.118081
0.658675  0.541883  0.127459
0.714743  0.563817  0.136025
0.757556  0.589416  0.138591
0.827622  0.606245  0.136793
0.889448  0.615234  0.119107
0.961219  0.634659  0.123238
0.309676  0.309037  0.207343
0.361866  0.350043  0.187516
0.405805  0.378786  0.187391
0.423764  0.400722  0.190915
0.462462  0.433769  0.186512
0.505846  0.468638  0.160773
0.550327  0.504676  0.158932
0.585485  0.532582  0.145265
0.630937  0.574133  0.142163
0.686461  0.590786  0.126087
0.735391  0.618501  0.137611
0.781371  0.637024  0.136072
0.841228  0.652456  0.130695
0.892439  0.671498  0.133440
0.953228  0.682777  0.124242
0.360510  0.347552  0.200528
0.392853  0.386089  0.185278
0.426208  0.414048  0.195813
0.473628  0.442072  0.173031
0.503225  0.470117  0.167531
0.535095  0.496770  0.157416
0.572172  0.536096  0.165339
0.626882  0.568253  0.149038
0.669343  0.602442  0.129778
0.712876  0.623881  0.141699
0.756611  0.658147  0.139163
0.800731  0.678441  0.141206
0.857580  0.706083  0.135262
0.910163  0.713996  0.130528
0.992067  0.742900  0.129670
0.397015  0.383401  0.194960
0.418697  0.412857  0.192751
0.470085  0.455157  0.188855
0.509976  0.480705  0.173841
0.541460  0.510380  0.175170
0.582237  0.539123  0.169430
0.609212  0.547981  0.161994
0.652537  0.599253  0.140368
0.694268  0.632065  0.144806
0.753579  0.664847  0.129953
0.790191  0.683535  0.137977
0.830643  0.709274  0.142183
0.874591  0.741144  0.143251
0.935660  0.774097  0.138088
0.990452  0.788833  0.142821
0.432664  0.418710  0.190641
0.458543  0.447476  0.183336
0.496814  0.472407  0.168003
0.523614  0.510066  0.183882
0.561773  0.533740  0.169335
0.616747  0.573257  0.159954
0.638515  0.599749  0.144470
0.693545  0.626684  0.136768
0.733047  0.658954  0.137987
0.775606  0.684632  0.141255
0.814159  0.707595  0.152965
0.853007  0.739364  0.136986
0.909168  0.770747  0.138111
0.961893  0.789145  0.148199
1.009189  0.814746  0.127060
0.456685  0.452446  0.204527
0.491793  0.478648  0.172903
0.519200  0.509130  0.187485
0.563233  0.530353  0.160498
0.601730  0.573950  0.157920
0.651273  0.608942  0.155477
0.681600  0.624273  0.144048
0.735047  0.662756  0.144694
0.758743  0.685792  0.138503
0.800504  0.711121  0.126921
0.841927  0.741993  0.139499
0.899907  0.765757  0.132397
0.936096  0.793316  0.140355
0.986602  0.817907  0.140078
1.031911  0.847227  0.159935
0.483200  0.478663  0.194281
0.529911  0.519743  0.185917
0.563937  0.558237  0.170959
0.596399  0.569436  0.157720
0.643101  0.602975  0.155243
0.671724  0.634550  0.152335
0.710137  0.657098  0.141221
0.755426  0.681743  0.139634
0.796877  0.717965  0.145382
0.837804  0.742842  0.155700
0.879104  0.763907  0.141724
0.918145  0.787405  0.150592
0.963109  0.818455  0.148001
1.016361  0.846563  0.143780
1.058245  0.867372  0.145642
0.097720  0.111802  0.086884
0.097287  0.122939  0.096864
0.124764  0.144162  0.116248
0.160454  0.161159  0.117444
0.204140  0.182875  0.100229
0.270095  0.210030  0.083750
0.346752  0.242165  0.080414
0.404965  0.263276  0.066541
0.443181  0.268315  0.069354
0.511926  0.293568  0.062552
0.564331  0.313282  0.060895
0.636633  0.322085  0.064407
0.695507  0.345344  0.048669
0.778334  0.344704  0.038838
0.843621  0.357772  0.038675
0.109777  0.132859  0.110158
0.122596  0.149116  0.137652
0.137752  0.163363  0.141612
0.168641  0.178577  0.138418
0.224134  0.207000  0.134145
0.277784  0.236033  0.120922
0.354664  0.268952  0.103516
0.414655  0.287538  0.101694
0.459717  0.298101  0.086321
0.522541  0.320260  0.081080
0.579003  0.341483  0.077913
0.648088  0.355943  0.071369
0.717666  0.382077  0.069376
0.781367  0.379829  0.046562
0.848580  0.392553  0.045653
0.123966  0.154800  0.139573
0.140802  0.176252  0.163358
0.164211  0.195055  0.178391
0.188082  0.210406  0.187542
0.237106  0.229387  0.158995
0.300574  0.260743  0.140780
0.363331  0.287417  0.129270
0.418625  0.305820  0.123087
0.477081  0.323559  0.105918
0.542825  0.351771  0.100996
0.600812  0.370113  0.107337
0.660262  0.384731  0.080794
0.712759  0.393633  0.092805
0.785723  0.414253  0.077031
0.878288  0.439760  0.068975
0.137111  0.176854  0.171836
0.153273  0.191537  0.189493
0.160671  0.209768  0.204928
0.197926  0.232302  0.205204
0.259492  0.267591  0.200673
0.317306  0.283164  0.171911
0.385817  0.320609  0.165454
0.433728  0.330691  0.147483
0.504164  0.356224  0.129597
0.568658  0.376302  0.127483
0.609174  0.394782  0.129903
0.668765  0.418013  0.122996
0.749234  0.438207  0.116254
0.801939  0.450106  0.095369
0.876167  0.471808  0.109663
0.151154  0.204237  0.208570
0.178858  0.227740  0.221114
0.198323  0.227638  0.213535
0.234091  0.260516  0.227987
0.278337  0.280712  0.205891
0.336077  0.309397  0.197251
0.381639  0.331303  0.183590
0.451959  0.358298  0.175525
0.506704  0.377176  0.161004
0.575697  0.403035  0.135325
0.631444  0.421747  0.146691
0.684646  0.442931  0.138859
0.743933  0.475180  0.139258
0.821666  0.476555  0.130929
0.892673  0.507950  0.117335
0.177973  0.230509  0.226578
0.192032  0.243365  0.236427
0.229464  0.263408  0.241927
0.256366  0.278828  0.241140
0.305606  0.307061  0.239329
0.351042  0.329091  0.219598
0.423072  0.361053  0.189011
0.467288  0.384758  0.207258
0.523692  0.407275  0.185984
0.564450  0.422350  0.168958
0.655606  0.449520  0.165812
0.700467  0.480770  0.161848
0.773488  0.495551  0.154367
0.833444  0.517790  0.148590
0.884149  0.532487  0.141259
0.200987  0.251044  0.249217
0.230055  0.266489  0.243653
0.259759  0.289127  0.250337
0.302319  0.310592  0.252963
0.341261  0.332026  0.234674
0.398071  0.372898  0.232786
0.444609  0.391881  0.212544
0.499899  0.424888  0.222592
0.549041  0.442445  0.200237
0.602930  0.457134  0.184769
0.664377  0.480621  0.179947
0.733009  0.510547  0.172219
0.782736  0.524315  0.181091
0.842018  0.541313  0.168078
0.916345  0.570027  0.161932
0.218088  0.272411  0.273324
0.272019  0.299905  0.261633
0.318161  0.329747  0.264335
0.344076  0.344230  0.258801
0.382519  0.373065  0.251949
0.433173  0.397814  0.216826
0.476698  0.445287  0.225566
0.529289  0.458467  0.226956
0.566325  0.475683  0.225568
0.639347  0.505773  0.205240
0.690902  0.541517  0.183505
0.749315  0.542345  0.197591
0.817731  0.568562  0.186073
0.859191  0.580569  0.187830
0.920283  0.600528  0.185551
0.269564  0.307565  0.265554
0.301263  0.322602  0.270128
0.341539  0.348931  0.274104
0.375856  0.373541  0.254778
0.424458  0.407126  0.248946
0.462276  0.443124  0.239172
0.497470  0.467728  0.232802
0.546364  0.494978  0.225431
0.592706  0.514095  0.229028
0.662661  0.547073  0.209810
0.720320  0.570862  0.186855
0.778600  0.590581  0.204671
0.812601  0.604033  0.196784
0.884044  0.628445  0.204317
0.954800  0.639445  0.199578
0.292213  0.327501  0.284619
0.337274  0.356463  0.268394
0.384267  0.391585  0.272785
0.418476  0.397699  0.258939
0.470552  0.446144  0.235252
0.495998  0.473094  0.237974
0.534179  0.498732  0.248292
0.570504  0.536100  0.227891
0.628709  0.569507  0.217063
0.670826  0.586047  0.205471
0.739034  0.619447  0.200493
0.787649  0.646496  0.204468
0.829363  0.651916  0.197142
0.908600  0.683813  0.201141
