LUT/LUT_29.CUBE
TITLE "LUT_29" 
#LUT size 
LUT_3D_SIZE 5 
#data point 
DOMAIN_MIN 0.000000 0.000000 0.000000
DOMAIN_MAX 0.857143 0.857143 0.857143
0.072575  0.068895  0.032860
0.123930  0.117827  0.068230
0.312746  0.233874  0.060258
0.459976  0.336937  0.068150
0.623066  0.410467  0.052946
0.114970  0.110694  0.057566
0.203701  0.178832  0.092126
0.379895  0.289705  0.076810
0.515184  0.375506  0.069142
0.673948  0.467327  0.060153
0.230151  0.195974  0.080061
0.345501  0.280239  0.101278
0.450389  0.346893  0.082710
0.619381  0.478261  0.079110
0.740920  0.543790  0.076202
0.368057  0.300706  0.109996
0.459612  0.365017  0.094970
0.580377  0.460157  0.081030
0.703100  0.582549  0.081119
0.822734  0.665700  0.080945
0.469447  0.375851  0.090663
0.585446  0.470108  0.073953
0.697646  0.568367  0.077758
0.783376  0.651078  0.082273
0.909491  0.742062  0.084829
0.117942  0.119177  0.075336
0.158429  0.167541  0.121438
0.315279  0.263825  0.100252
0.470666  0.344362  0.082226
0.610365  0.429928  0.074289
0.157912  0.176751  0.144249
0.206489  0.225919  0.186488
0.364214  0.314087  0.157302
0.538574  0.420450  0.116622
0.686149  0.501073  0.103614
0.220876  0.261859  0.241552
0.291965  0.314275  0.261166
0.429383  0.380540  0.211463
0.575815  0.455488  0.161868
0.736927  0.566963  0.166092
0.284340  0.324894  0.298295
0.411252  0.377100  0.264661
0.530345  0.460588  0.249779
0.669891  0.562731  0.199947
0.812413  0.654777  0.182038
0.404700  0.390538  0.289814
0.539668  0.467572  0.248647
0.653841  0.555639  0.243251
0.796605  0.650416  0.192359
0.924399  0.746288  0.185226
0.164760  0.187898  0.171240
0.194787  0.230946  0.216302
0.287175  0.301690  0.246217
0.492579  0.389307  0.159936
0.648334  0.472910  0.135953
0.203825  0.258695  0.256039
0.258068  0.314058  0.308340
0.359895  0.381463  0.329374
0.502710  0.451585  0.272329
0.697878  0.552722  0.220885
0.262351  0.330856  0.335459
0.302733  0.392492  0.420690
0.391919  0.435361  0.404991
0.569380  0.529085  0.393514
0.739182  0.616302  0.325558
0.322481  0.400937  0.420992
0.373196  0.464076  0.470283
0.489736  0.520689  0.468258
0.633065  0.603568  0.472247
0.825631  0.693860  0.406281
0.360877  0.465425  0.496175
0.482596  0.530425  0.496047
0.589250  0.589877  0.493957
0.748632  0.686179  0.485447
0.905017  0.768347  0.458934
0.209661  0.266204  0.273759
0.259440  0.326349  0.338364
0.327634  0.371155  0.343144
0.464824  0.441539  0.314448
0.662773  0.526900  0.251861
0.263818  0.347770  0.371611
0.304507  0.403211  0.422561
0.361207  0.443528  0.457983
0.502661  0.514209  0.451089
0.698700  0.602802  0.377479
0.325545  0.414000  0.435825
0.364129  0.476277  0.502692
0.407087  0.518192  0.555328
0.548899  0.593566  0.539958
0.727980  0.669714  0.501921
0.373922  0.480093  0.519917
0.414543  0.534541  0.573974
0.481208  0.610686  0.639484
0.632300  0.680599  0.628697
0.771987  0.742210  0.612101
0.428131  0.547282  0.577947
0.481675  0.608898  0.643843
0.555005  0.678090  0.704213
0.703501  0.739820  0.694964
0.853676  0.809697  0.681847
0.282424  0.366824  0.392622
0.318069  0.411216  0.440101
0.362113  0.471916  0.503555
0.472899  0.509177  0.474068
0.627929  0.573036  0.410663
0.327765  0.423757  0.443326
0.374414  0.480921  0.509419
0.442112  0.553361  0.585509
0.519140  0.585664  0.566271
0.670583  0.658497  0.560454
0.374385  0.489860  0.521802
0.437197  0.559574  0.594550
0.495868  0.620101  0.656102
0.560883  0.681515  0.697834
0.743940  0.735670  0.650019
0.422693  0.546824  0.587318
0.504150  0.625937  0.660885
0.551164  0.678264  0.711673
0.631353  0.753269  0.803259
0.759049  0.803787  0.765715
0.495749  0.624896  0.659189
0.558635  0.685228  0.722108
0.626011  0.757716  0.810544
0.702935  0.819278  0.864943
0.829413  0.893376  0.901888
