LUT/LUT_26.CUBE
TITLE "LUT_26" 
#LUT size 
LUT_3D_SIZE 8 
DOMAIN_MIN 0.0 0.0 0.0 
DOMAIN_MAX 1.0 1.0 1.0 
#data point 
0.071317  0.065470  0.031378
0.099143  0.095412  0.048241
0.185804  0.161755  0.069018
0.311126  0.236805  0.057683
0.422618  0.303006  0.061720
0.529781  0.353801  0.055742
0.633210  0.403657  0.053783
0.757366  0.462906  0.054115
0.109055  0.100160  0.048329
0.127316  0.120975  0.055723
0.229185  0.196565  0.087189
0.357656  0.271063  0.089178
0.462248  0.328946  0.071003
0.547766  0.385644  0.065697
0.662434  0.447767  0.062189
0.785973  0.502650  0.057874
0.151656  0.142057  0.080138
0.220093  0.190224  0.092796
0.294023  0.238466  0.084056
0.395220  0.310726  0.084634
0.501593  0.373687  0.074694
0.592947  0.437292  0.071995
0.708617  0.485776  0.060884
0.832762  0.544367  0.059843
0.228124  0.188973  0.086078
0.309197  0.250920  0.106887
0.381327  0.297742  0.084187
0.450822  0.352009  0.077056
0.552959  0.414126  0.073742
0.653436  0.480173  0.067987
0.750519  0.535727  0.072648
0.877885  0.598352  0.067431
0.297583  0.259083  0.109464
0.386687  0.299567  0.083751
0.474300  0.371050  0.088796
0.525868  0.413815  0.082057
0.610607  0.497145  0.066086
0.697470  0.561170  0.078382
0.811245  0.613764  0.081575
0.919161  0.676805  0.072743
0.384842  0.314981  0.111213
0.460222  0.384188  0.086895
0.558822  0.444077  0.089011
0.612739  0.490153  0.089124
0.701393  0.580680  0.070354
0.781635  0.651415  0.075555
0.858708  0.700925  0.072924
0.951136  0.747834  0.087614
0.466467  0.378457  0.090718
0.529065  0.426901  0.080665
0.621078  0.505261  0.084991
0.695069  0.573662  0.072954
0.761422  0.628545  0.080629
0.830966  0.684159  0.081062
0.911462  0.739763  0.085684
1.026739  0.791535  0.086589
0.538027  0.436811  0.087658
0.607352  0.504976  0.091227
0.686851  0.561513  0.072866
0.747085  0.619323  0.088486
0.802433  0.671950  0.080775
0.889359  0.723058  0.089707
0.973805  0.778073  0.087273
1.076100  0.842050  0.084304
0.096776  0.088827  0.047295
0.116814  0.111105  0.055946
0.189052  0.164818  0.084134
0.302832  0.242913  0.080761
0.422503  0.300290  0.066763
0.516302  0.356617  0.059433
0.628228  0.418875  0.060941
0.759009  0.461594  0.052828
0.124617  0.124674  0.076297
0.162868  0.160314  0.099164
0.223710  0.203460  0.102260
0.330251  0.272371  0.094072
0.456072  0.341444  0.088189
0.557124  0.404697  0.070394
0.679048  0.453657  0.058286
0.786610  0.507996  0.060758
0.155622  0.170366  0.134130
0.204910  0.210799  0.146994
0.287588  0.259669  0.154149
0.387825  0.320233  0.127331
0.495437  0.386960  0.113847
0.605339  0.442092  0.102420
0.704091  0.498731  0.083420
0.822511  0.564317  0.077465
0.208084  0.221737  0.178360
0.278824  0.268538  0.187157
0.345520  0.313261  0.167686
0.450861  0.368758  0.157809
0.533010  0.416249  0.138013
0.637493  0.492583  0.131627
0.748783  0.554287  0.126198
0.863713  0.610953  0.085227
0.284989  0.278523  0.205428
0.349603  0.309849  0.185835
0.431336  0.371476  0.190816
0.536958  0.440486  0.165350
0.627403  0.502717  0.116899
0.714856  0.563078  0.112754
0.809470  0.620368  0.125707
0.925031  0.677201  0.121713
0.366518  0.335048  0.194014
0.435650  0.386543  0.202734
0.514724  0.433900  0.162452
0.583309  0.497291  0.151982
0.689482  0.571641  0.115146
0.765483  0.631310  0.115800
0.861716  0.704619  0.135920
0.978989  0.757056  0.139929
0.435993  0.380130  0.201997
0.521632  0.434166  0.170776
0.587672  0.492880  0.174193
0.679814  0.562028  0.129534
0.753389  0.626771  0.138164
0.823607  0.692938  0.139508
0.913301  0.744687  0.122227
0.999889  0.782944  0.131009
0.504508  0.441598  0.208767
0.591628  0.508691  0.167659
0.677207  0.550638  0.157261
0.754959  0.628087  0.137852
0.806131  0.680103  0.134501
0.896691  0.739370  0.122075
0.966811  0.782984  0.141498
1.062601  0.833775  0.133300
0.130619  0.143502  0.111215
0.148746  0.166989  0.121559
0.192607  0.192939  0.136718
0.313655  0.261847  0.123502
0.433105  0.326669  0.095750
0.530367  0.384987  0.093382
0.645962  0.435125  0.083492
0.737386  0.487402  0.076090
0.158501  0.181236  0.150435
0.188219  0.218287  0.195485
0.236957  0.255203  0.216628
0.338650  0.302899  0.182087
0.471607  0.368326  0.147203
0.554865  0.413489  0.139545
0.662358  0.478445  0.114964
0.787497  0.542521  0.106789
0.204634  0.244326  0.233053
0.217628  0.272235  0.261145
0.243665  0.275085  0.251784
0.368739  0.360383  0.258147
0.495686  0.414698  0.225799
0.597846  0.462659  0.154183
0.713152  0.525859  0.151013
0.818856  0.590029  0.148216
0.218438  0.277229  0.282507
0.258896  0.322004  0.321856
0.318963  0.351632  0.313648
0.408138  0.403224  0.312583
0.529644  0.460735  0.259331
0.626677  0.504676  0.232405
0.753278  0.581482  0.210153
0.850403  0.631561  0.197654
0.259049  0.321646  0.315965
0.330724  0.365993  0.333217
0.399030  0.403101  0.329014
0.485363  0.456460  0.329732
0.578862  0.504182  0.293505
0.699524  0.576903  0.291821
0.818896  0.642399  0.244172
0.919693  0.698598  0.249742
0.316265  0.370216  0.362054
0.398806  0.421082  0.363518
0.475413  0.450790  0.339496
0.563047  0.515256  0.332374
0.662112  0.579587  0.320200
0.760500  0.642235  0.270780
0.860412  0.707856  0.260904
0.961978  0.753852  0.263881
0.361944  0.401111  0.359082
0.453044  0.459138  0.358069
0.558528  0.515628  0.331172
0.638529  0.569313  0.335762
0.737185  0.630145  0.320669
0.816016  0.680892  0.307733
0.917275  0.737438  0.266082
1.016277  0.798574  0.246057
0.439069  0.451303  0.374652
0.557207  0.515947  0.352781
0.632131  0.564833  0.335666
0.711610  0.616766  0.319031
0.785690  0.671507  0.307336
0.898460  0.740684  0.279915
0.966342  0.784047  0.278440
1.074469  0.839561  0.261823
0.160210  0.194212  0.173537
0.176495  0.219077  0.210114
0.215658  0.256012  0.235488
0.295508  0.302517  0.244697
0.447956  0.368326  0.173697
0.539014  0.421998  0.149171
0.652326  0.468678  0.139015
0.751457  0.523567  0.140398
0.183738  0.224896  0.215230
0.217224  0.265525  0.259385
0.254958  0.303395  0.293697
0.327358  0.350385  0.302323
0.469258  0.400437  0.228228
0.570882  0.452782  0.211323
0.686100  0.507988  0.181442
0.793031  0.579387  0.186468
0.226215  0.275943  0.274470
0.258236  0.319858  0.317471
0.283539  0.355160  0.366245
0.387673  0.417816  0.371195
0.466059  0.461533  0.361467
0.602689  0.508288  0.272040
0.717181  0.568415  0.268380
0.834720  0.633207  0.252023
0.255174  0.325873  0.341575
0.288315  0.368094  0.382994
0.315915  0.401851  0.423820
0.390808  0.439429  0.404991
0.502331  0.495819  0.404967
0.637940  0.559629  0.348460
0.743723  0.613933  0.323117
0.873843  0.673110  0.295696
0.301344  0.387376  0.406608
0.342884  0.432216  0.448793
0.369013  0.451202  0.459214
0.474544  0.503399  0.452286
0.555165  0.562346  0.476306
0.647045  0.595615  0.416640
0.784612  0.672236  0.394550
0.915036  0.740642  0.358561
0.329329  0.427103  0.454843
0.362584  0.456573  0.473827
0.451042  0.489376  0.456887
0.517420  0.546914  0.482562
0.605942  0.595302  0.487408
0.712227  0.660226  0.487475
0.854573  0.739313  0.436901
0.941653  0.778413  0.424452
0.357730  0.460958  0.496051
0.431005  0.507885  0.505372
0.521004  0.539310  0.476793
0.593628  0.590357  0.492071
0.693745  0.655432  0.494124
0.801068  0.713214  0.460051
0.904226  0.772812  0.452934
1.006715  0.823161  0.469993
0.402161  0.503054  0.522059
0.489715  0.528346  0.490229
0.570696  0.583909  0.510337
0.673856  0.641862  0.487423
0.788388  0.710203  0.475252
0.865585  0.745664  0.461697
0.968812  0.805162  0.480907
1.059133  0.852329  0.482165
0.181463  0.233724  0.234427
0.222127  0.278851  0.282822
0.240085  0.301781  0.307321
0.305859  0.342805  0.308106
0.418220  0.398747  0.295944
0.544541  0.462200  0.245942
0.672142  0.513125  0.218727
0.775932  0.549670  0.189297
0.223101  0.285402  0.293359
0.251522  0.318199  0.322340
0.274209  0.357251  0.370609
0.342137  0.408357  0.404534
0.427844  0.445047  0.383406
0.553387  0.490695  0.330770
0.676955  0.549499  0.280081
0.786034  0.604114  0.253403
0.264038  0.335093  0.348781
0.287627  0.374903  0.391916
0.316447  0.403475  0.423294
0.388994  0.462428  0.463669
0.470679  0.501423  0.444506
0.571524  0.543256  0.423652
0.711080  0.613283  0.368685
0.829276  0.658735  0.338866
0.295252  0.384217  0.403851
0.322751  0.420825  0.441579
0.353890  0.455777  0.482571
0.380692  0.489706  0.525713
0.506230  0.539328  0.490775
0.600493  0.595322  0.498067
0.735791  0.657158  0.447326
0.857493  0.706844  0.403442
0.331332  0.428691  0.458850
0.362045  0.472669  0.506513
0.400346  0.510168  0.539456
0.447540  0.560184  0.586439
0.540698  0.599700  0.571743
0.643782  0.653947  0.575483
0.779531  0.705159  0.514116
0.912156  0.769832  0.481636
0.366526  0.469293  0.505128
0.388193  0.499165  0.538887
0.442995  0.558786  0.588301
0.482959  0.596545  0.620221
0.583430  0.627953  0.586974
0.693584  0.705387  0.622090
0.820628  0.757982  0.601354
0.948010  0.804088  0.547804
0.400449  0.520158  0.559825
0.431938  0.553469  0.590657
0.479496  0.597394  0.633211
0.559574  0.635627  0.618158
0.682502  0.691673  0.612636
0.770486  0.751242  0.641502
0.887132  0.798619  0.612551
1.000391  0.849072  0.592476
0.446573  0.567824  0.596940
0.473931  0.602500  0.637263
0.541177  0.630224  0.634317
0.650730  0.688821  0.629257
0.741346  0.728208  0.625600
0.839327  0.775492  0.618008
0.946470  0.829777  0.627403
1.051747  0.877193  0.608782
0.239864  0.309328  0.320216
0.254075  0.323004  0.340066
0.282068  0.370339  0.391638
0.318747  0.393484  0.403987
0.423157  0.438176  0.377622
0.519402  0.494627  0.370375
0.651730  0.528546  0.301402
0.778874  0.588635  0.275735
0.263801  0.344718  0.368028
0.290058  0.382991  0.411402
0.313631  0.406470  0.439410
0.359761  0.451030  0.467328
0.458001  0.503377  0.468467
0.555899  0.552737  0.458263
0.678166  0.601846  0.405426
0.809184  0.648436  0.365444
0.305455  0.398867  0.428170
0.334709  0.427798  0.452009
0.370822  0.477532  0.509211
0.397858  0.507852  0.529129
0.462705  0.542017  0.539567
0.588655  0.610633  0.538655
0.693285  0.637739  0.475103
0.833012  0.710653  0.449275
0.329129  0.431844  0.470627
0.366573  0.472183  0.497636
0.413437  0.530616  0.560601
0.424193  0.549341  0.584241
0.482019  0.598973  0.623662
0.614614  0.641193  0.581482
0.731754  0.692409  0.547453
0.851995  0.757616  0.542731
0.374836  0.486737  0.521003
0.402857  0.527737  0.564670
0.441214  0.569310  0.607221
0.481794  0.601757  0.637064
0.527410  0.656442  0.684353
0.640225  0.692987  0.649396
0.751796  0.734130  0.623542
0.911067  0.807520  0.603923
0.404295  0.528620  0.563132
0.441617  0.566255  0.600813
0.485211  0.613834  0.645520
0.515531  0.641058  0.682389
0.575642  0.701483  0.733514
0.692053  0.750378  0.723706
0.817681  0.798208  0.695754
0.939784  0.845085  0.675691
0.451105  0.573035  0.609169
0.490696  0.614749  0.654680
0.541085  0.662715  0.693995
0.565642  0.693071  0.723368
0.637528  0.741756  0.759192
0.735780  0.782897  0.755912
0.869943  0.837422  0.736584
0.979031  0.872570  0.706098
0.487904  0.617178  0.644982
0.524930  0.652939  0.683168
0.564650  0.696521  0.736828
0.602424  0.723007  0.759400
0.695741  0.776644  0.789044
0.828081  0.821547  0.748994
0.913848  0.865759  0.742482
1.028322  0.907673  0.743047
0.275597  0.372230  0.393432
0.301696  0.396109  0.420386
0.335656  0.434160  0.459487
0.364845  0.469112  0.505701
0.416716  0.490353  0.479223
0.517248  0.533700  0.467536
0.634508  0.575714  0.403594
0.773378  0.641762  0.382999
0.308171  0.409295  0.441749
0.333166  0.436998  0.473034
0.366132  0.470481  0.503602
0.400258  0.520355  0.564114
0.440964  0.548433  0.571482
0.559040  0.586397  0.520903
0.665860  0.641963  0.518863
0.803472  0.699339  0.462606
0.335932  0.441593  0.478775
0.373258  0.490865  0.522576
0.403674  0.523548  0.559488
0.441911  0.564671  0.604343
0.483855  0.608512  0.641800
0.597630  0.648476  0.610962
0.696140  0.696968  0.603683
0.816863  0.750468  0.565882
0.374271  0.485867  0.524230
0.403128  0.520080  0.553552
0.457117  0.578828  0.611416
0.495511  0.621260  0.656435
0.534927  0.667387  0.705693
0.600355  0.692377  0.688104
0.747882  0.744125  0.648897
0.861483  0.791836  0.634549
0.413276  0.527433  0.564095
0.454638  0.577951  0.611671
0.492982  0.616115  0.647284
0.545338  0.672846  0.702842
0.587170  0.716024  0.758189
0.633133  0.733297  0.749678
0.772382  0.779749  0.708452
0.893389  0.839847  0.704315
0.451387  0.576001  0.608608
0.489018  0.618290  0.657583
0.527762  0.665042  0.701245
0.594442  0.726222  0.768576
0.627384  0.759998  0.807989
0.681245  0.800887  0.846876
0.794823  0.835873  0.815101
0.925983  0.873766  0.758566
0.488483  0.623082  0.659866
0.529133  0.656472  0.689765
0.566785  0.703095  0.748437
0.624000  0.758452  0.812565
0.676938  0.796069  0.839085
0.735033  0.842732  0.883634
0.831287  0.891527  0.900067
0.969454  0.905086  0.798184
0.525786  0.659197  0.696515
0.565406  0.700976  0.744786
0.601732  0.740196  0.799361
0.665341  0.792262  0.843498
0.717535  0.830386  0.883706
0.788307  0.883615  0.915674
0.875915  0.921963  0.929225
1.005914  0.952704  0.861714
0.313361  0.415522  0.450561
0.334096  0.447196  0.485101
0.375677  0.491183  0.530933
0.406692  0.529178  0.571584
0.446768  0.574453  0.612867
0.516293  0.591354  0.581842
0.643825  0.636336  0.542312
0.793903  0.696332  0.485653
0.340419  0.451353  0.492261
0.368797  0.492507  0.537876
0.417066  0.538616  0.580069
0.452581  0.579734  0.617657
0.495077  0.622958  0.657879
0.548437  0.657622  0.674480
0.645394  0.684574  0.625776
0.796653  0.739658  0.574818
0.370599  0.487059  0.534698
0.414821  0.537747  0.575160
0.454377  0.582574  0.625309
0.508785  0.637304  0.669574
0.543848  0.688186  0.728223
0.585269  0.721553  0.759859
0.703929  0.738884  0.688342
0.838622  0.794430  0.668099
0.419682  0.536146  0.576295
0.449557  0.575978  0.613034
0.500997  0.626873  0.667314
0.558297  0.684558  0.725292
0.579879  0.722382  0.766991
0.630011  0.755733  0.803438
0.694428  0.796642  0.818238
0.851834  0.827765  0.733806
0.448052  0.572005  0.605658
0.495376  0.620860  0.653062
0.533190  0.662333  0.701008
0.572198  0.718740  0.767919
0.616596  0.754287  0.802540
0.678452  0.795653  0.843938
0.753192  0.857324  0.898652
0.865824  0.878900  0.838560
0.480940  0.602120  0.642557
0.525485  0.651459  0.683304
0.572456  0.708626  0.749556
0.608582  0.746183  0.798995
0.646656  0.776395  0.834709
0.730480  0.841271  0.883386
0.800125  0.894428  0.921156
0.886095  0.926675  0.930638
0.528101  0.657737  0.690583
0.571569  0.706896  0.751173
0.600783  0.742914  0.798030
0.646979  0.775591  0.819354
0.705021  0.823805  0.873146
0.773324  0.870919  0.908165
0.844813  0.915648  0.946310
0.917279  0.959214  0.973643
0.564609  0.696451  0.735509
0.580509  0.723168  0.783296
0.634794  0.771026  0.831235
0.691173  0.821147  0.869959
0.748633  0.854865  0.898660
0.831683  0.907470  0.938092
0.893880  0.946928  0.962367
0.958571  0.977643  0.986270
