LUT/LUT_32.CUBE
TITLE "LUT_32" 
#LUT size 
LUT_3D_SIZE 5 
#data point 
DOMAIN_MIN 0.000000 0.000000 0.000000
DOMAIN_MAX 0.857143 0.857143 0.857143
0.077574  0.074029  0.029170
0.120172  0.118193  0.069708
0.314149  0.237746  0.067409
0.459826  0.340034  0.067218
0.615977  0.421354  0.053909
0.120350  0.113825  0.056641
0.197652  0.177869  0.092946
0.378299  0.294915  0.085437
0.517035  0.380473  0.072301
0.665245  0.476853  0.069659
0.224811  0.193367  0.085411
0.342312  0.282919  0.106163
0.456982  0.342672  0.078183
0.610451  0.472323  0.080264
0.734895  0.549920  0.081087
0.360478  0.292672  0.112073
0.463534  0.369499  0.095478
0.579258  0.458905  0.085819
0.700869  0.576240  0.081357
0.821254  0.669190  0.082846
0.470452  0.373867  0.094056
0.590355  0.468634  0.084045
0.692081  0.571562  0.083524
0.783207  0.657569  0.085359
0.910844  0.738024  0.084671
0.120384  0.123750  0.072712
0.160631  0.166523  0.120954
0.319400  0.261544  0.098326
0.462606  0.338746  0.089591
0.606733  0.439141  0.075232
0.160192  0.176057  0.139966
0.210285  0.228295  0.181990
0.362335  0.313764  0.161827
0.538312  0.414332  0.115775
0.679483  0.504205  0.099078
0.221350  0.260200  0.240747
0.290931  0.313073  0.262683
0.432514  0.376197  0.207174
0.573258  0.449726  0.162013
0.738115  0.572330  0.166296
0.284238  0.325670  0.301721
0.400115  0.383104  0.258737
0.531727  0.454175  0.244694
0.665996  0.557632  0.197724
0.815106  0.654190  0.179513
0.400412  0.389845  0.287250
0.537732  0.466304  0.251549
0.652544  0.549523  0.247950
0.790066  0.653421  0.182509
0.926388  0.737201  0.183196
0.162321  0.189653  0.165499
0.194418  0.227057  0.206692
0.277946  0.301185  0.245368
0.489399  0.393267  0.162449
0.645505  0.478184  0.133682
0.202417  0.262478  0.250405
0.259855  0.313162  0.303943
0.354252  0.380612  0.334283
0.504042  0.451351  0.272729
0.693888  0.552250  0.218856
0.266695  0.329554  0.335815
0.306079  0.394876  0.415139
0.389147  0.437245  0.404975
0.562410  0.530161  0.391197
0.734647  0.619894  0.325804
0.324238  0.406362  0.423279
0.377283  0.460540  0.464976
0.482927  0.517642  0.470094
0.629554  0.598972  0.475091
0.826264  0.696401  0.407165
0.360657  0.467102  0.492986
0.481868  0.531878  0.494947
0.584328  0.586485  0.500731
0.746507  0.683826  0.491927
0.904368  0.764577  0.465380
0.210660  0.265663  0.271612
0.263472  0.333892  0.334423
0.325099  0.369915  0.345464
0.461135  0.439978  0.316098
0.659282  0.531740  0.250404
0.261924  0.342325  0.364103
0.310471  0.394261  0.421107
0.359524  0.443931  0.459378
0.506933  0.516128  0.455208
0.696504  0.599801  0.385281
0.328139  0.420223  0.435017
0.368294  0.471405  0.500492
0.412988  0.520526  0.549477
0.548646  0.592199  0.542630
0.730303  0.669227  0.502964
0.375555  0.486577  0.515880
0.415970  0.529917  0.571521
0.489427  0.611797  0.642093
0.628152  0.673935  0.635008
0.766316  0.737771  0.610220
0.431720  0.545478  0.572695
0.486173  0.608556  0.636454
0.556968  0.676766  0.704538
0.699621  0.745189  0.694997
0.850803  0.806768  0.684925
0.283981  0.372496  0.394535
0.317889  0.411636  0.436138
0.365595  0.464759  0.503501
0.467504  0.508907  0.478496
0.627071  0.573984  0.413960
0.327561  0.422729  0.442818
0.371331  0.481499  0.507508
0.440589  0.550105  0.583191
0.510396  0.586624  0.578769
0.665561  0.664189  0.562266
0.379275  0.488762  0.524310
0.439021  0.564515  0.595776
0.495923  0.617534  0.654534
0.559424  0.679199  0.701100
0.748840  0.741969  0.649230
0.419569  0.550825  0.585977
0.502330  0.626132  0.658936
0.551386  0.681852  0.712542
0.634025  0.756276  0.793033
0.765760  0.804957  0.767481
0.493706  0.619543  0.653580
0.562664  0.686901  0.724719
0.633139  0.759170  0.811213
0.703297  0.820959  0.863998
0.837191  0.887982  0.897066
