LUT/LUT_2.CUBE
TITLE "LUT_2" 
#LUT size 
LUT_3D_SIZE 5 
#data point 
DOMAIN_MIN 0.000000 0.000000 0.000000
DOMAIN_MAX 0.857143 0.857143 0.857143
0.012627  0.009749  0.006812
0.187580  0.068155  -0.001766
0.402916  0.081615  -0.004434
0.615535  0.077343  -0.008255
0.825753  0.085187  -0.011155
0.103485  0.128873  0.040327
0.225510  0.195457  0.031937
0.421716  0.226203  0.021742
0.622189  0.254854  0.014316
0.833585  0.262509  0.007634
0.159061  0.283259  0.044113
0.295889  0.353432  0.030757
0.439771  0.412921  0.023693
0.633214  0.438078  0.023800
0.847030  0.439327  0.028712
0.181068  0.485783  0.038346
0.362717  0.503279  0.029094
0.499159  0.561615  0.026792
0.655228  0.623567  0.024069
0.850287  0.646982  0.026319
0.194950  0.670582  0.030783
0.385335  0.684492  0.016477
0.556005  0.718133  0.022450
0.713126  0.771021  0.033256
0.872216  0.817549  0.030237
0.017807  0.071380  0.148705
0.183493  0.095762  0.162306
0.402912  0.091226  0.150209
0.607990  0.088402  0.158922
0.826078  0.085647  0.166734
0.077126  0.166478  0.216033
0.205573  0.230897  0.211971
0.410700  0.272765  0.176116
0.615471  0.287508  0.170794
0.825020  0.287999  0.168865
0.146717  0.288134  0.248434
0.279365  0.360580  0.225873
0.432542  0.422584  0.211783
0.636381  0.438528  0.211433
0.835271  0.461953  0.195391
0.171465  0.476625  0.240216
0.353237  0.496279  0.232763
0.487250  0.570110  0.224554
0.655849  0.629955  0.215117
0.851257  0.645997  0.207012
0.182226  0.662831  0.234643
0.386839  0.678563  0.224581
0.550193  0.717247  0.229551
0.706897  0.775933  0.221662
0.879287  0.824855  0.207089
0.024772  0.094604  0.329624
0.184353  0.115103  0.334045
0.405483  0.115757  0.340277
0.618745  0.110907  0.343339
0.841470  0.103531  0.338762
0.071293  0.247525  0.351748
0.193314  0.300487  0.356531
0.393427  0.302760  0.368541
0.607555  0.304349  0.366372
0.827062  0.300665  0.368525
0.137966  0.315570  0.431838
0.262026  0.376464  0.441641
0.419574  0.444619  0.413929
0.618953  0.483047  0.391271
0.834066  0.500302  0.377331
0.170111  0.468852  0.456816
0.335871  0.505438  0.460759
0.479074  0.579579  0.437504
0.644425  0.634696  0.433924
0.851101  0.653875  0.426539
0.166236  0.652820  0.464107
0.381927  0.663942  0.453937
0.549721  0.708728  0.438033
0.700390  0.770249  0.433776
0.864384  0.832485  0.435052
-0.002999  0.091654  0.570410
0.177943  0.114735  0.570276
0.406139  0.115980  0.547099
0.617362  0.107475  0.548803
0.833922  0.105747  0.554822
0.031559  0.282786  0.571928
0.200910  0.316845  0.568956
0.401434  0.321432  0.549222
0.612677  0.328069  0.558570
0.832138  0.322803  0.554077
0.101300  0.384838  0.606210
0.264897  0.469770  0.581249
0.409817  0.520253  0.568714
0.601672  0.525599  0.574241
0.817933  0.522253  0.573340
0.163350  0.493362  0.653411
0.328613  0.534108  0.657616
0.457522  0.606186  0.653878
0.635253  0.666596  0.627951
0.822586  0.706888  0.605818
0.162694  0.651667  0.686577
0.353630  0.665389  0.694752
0.537672  0.697145  0.671987
0.698124  0.775519  0.655627
0.870337  0.835276  0.652472
-0.002907  0.093407  0.783308
0.188796  0.106291  0.787251
0.388444  0.115252  0.789326
0.614644  0.110875  0.767485
0.831927  0.106188  0.762999
0.024188  0.280248  0.781467
0.204597  0.311623  0.778371
0.388876  0.330091  0.789768
0.613271  0.327191  0.762887
0.824646  0.329893  0.770376
0.086374  0.430961  0.782707
0.246417  0.492738  0.775813
0.400001  0.536223  0.784412
0.606944  0.549945  0.783720
0.825014  0.537658  0.770915
0.146381  0.521305  0.836947
0.321292  0.590107  0.808579
0.471039  0.672933  0.790480
0.595267  0.744679  0.819857
0.817364  0.744202  0.778138
0.163975  0.677644  0.858916
0.362345  0.690627  0.858059
0.557730  0.721510  0.854911
0.678287  0.801423  0.871310
0.846901  0.875052  0.851865
