LUT/LUT_33.CUBE
TITLE "LUT_33" 
#LUT size 
LUT_3D_SIZE 8 
DOMAIN_MIN 0.0 0.0 0.0 
DOMAIN_MAX 1.0 1.0 1.0 
#data point 
0.079545  0.071544  0.032478
0.096614  0.095042  0.044887
0.175371  0.153680  0.073931
0.312762  0.235997  0.071738
0.413241  0.302634  0.064221
0.509295  0.369940  0.074050
0.616387  0.419766  0.060145
0.727919  0.485539  0.061145
0.112475  0.104514  0.051822
0.124885  0.118940  0.060938
0.223439  0.197984  0.090483
0.346417  0.277224  0.089673
0.460974  0.340254  0.086798
0.532095  0.396854  0.074003
0.646427  0.460165  0.072043
0.752947  0.527988  0.061402
0.147240  0.140886  0.082690
0.209681  0.192825  0.108174
0.293112  0.247758  0.095866
0.396998  0.315704  0.084279
0.491819  0.362702  0.075835
0.591707  0.445153  0.079496
0.688516  0.504075  0.072346
0.814969  0.566624  0.067517
0.223233  0.189746  0.085661
0.308032  0.256613  0.102122
0.385486  0.299726  0.091535
0.453772  0.342146  0.080882
0.553132  0.420559  0.083872
0.647837  0.483150  0.081299
0.734275  0.546979  0.083111
0.858021  0.615483  0.070113
0.301719  0.261993  0.121571
0.384014  0.300225  0.089375
0.472798  0.362389  0.096296
0.528715  0.402051  0.088027
0.615852  0.489477  0.076090
0.691696  0.558802  0.082581
0.803222  0.617502  0.088569
0.908757  0.691768  0.078230
0.383060  0.309127  0.113808
0.465066  0.373785  0.087886
0.559190  0.433525  0.093951
0.614818  0.487202  0.097950
0.701922  0.576812  0.076695
0.778562  0.641147  0.078420
0.857755  0.704198  0.080442
0.953742  0.752057  0.093556
0.473935  0.370211  0.094855
0.524518  0.420100  0.095838
0.627208  0.494693  0.084424
0.692183  0.571230  0.086002
0.759367  0.621256  0.094026
0.833434  0.674924  0.087159
0.909129  0.737361  0.085655
1.022180  0.787376  0.091098
0.540995  0.434465  0.094332
0.618897  0.508602  0.097570
0.694758  0.561787  0.081747
0.747424  0.613452  0.086899
0.809139  0.662217  0.084531
0.883143  0.710618  0.101691
0.967492  0.769883  0.089659
1.075334  0.828898  0.087926
0.103446  0.100454  0.049575
0.117944  0.111644  0.059833
0.184455  0.168536  0.085202
0.287244  0.235782  0.087253
0.409236  0.305300  0.076323
0.507227  0.373416  0.073634
0.611657  0.441951  0.072746
0.734166  0.485837  0.058211
0.132903  0.124930  0.072997
0.162077  0.158343  0.097901
0.221883  0.199546  0.113157
0.316799  0.269181  0.102928
0.434431  0.339244  0.093664
0.550789  0.405005  0.075923
0.676834  0.479465  0.067386
0.758241  0.516357  0.066750
0.154477  0.162560  0.123746
0.199437  0.203329  0.148392
0.279853  0.258318  0.153406
0.391590  0.326357  0.121225
0.488714  0.383351  0.118579
0.598386  0.442838  0.110708
0.686085  0.506631  0.093832
0.806980  0.585169  0.092187
0.209137  0.225426  0.182747
0.268072  0.268350  0.198792
0.337926  0.300463  0.166155
0.447428  0.368780  0.156436
0.529907  0.412609  0.128443
0.632483  0.494594  0.134445
0.748526  0.559457  0.129836
0.849486  0.633821  0.094348
0.285084  0.279522  0.199097
0.339346  0.305641  0.185065
0.432285  0.374009  0.197496
0.534786  0.440299  0.173438
0.621317  0.494549  0.116045
0.714094  0.573487  0.102201
0.800607  0.624442  0.119461
0.911376  0.686849  0.122475
0.366567  0.332604  0.195029
0.433919  0.385788  0.199654
0.503002  0.424337  0.157619
0.583461  0.480726  0.154827
0.690670  0.569720  0.112671
0.766237  0.628921  0.113589
0.869792  0.704623  0.129154
0.981070  0.757745  0.135540
0.429841  0.377627  0.205313
0.523282  0.429397  0.173206
0.591856  0.486221  0.181731
0.681053  0.554598  0.125938
0.755243  0.617200  0.128999
0.836965  0.687862  0.127552
0.913033  0.744537  0.116352
0.994377  0.780471  0.127758
0.503750  0.429381  0.216161
0.600114  0.495299  0.164118
0.678068  0.552046  0.164034
0.759284  0.620742  0.134417
0.816774  0.677967  0.130056
0.894869  0.737306  0.114465
0.971019  0.770125  0.132670
1.068600  0.829538  0.139528
0.141985  0.142650  0.099702
0.151846  0.162244  0.122656
0.184652  0.193110  0.140533
0.313354  0.260369  0.125592
0.425633  0.331669  0.089760
0.529092  0.387777  0.095858
0.627451  0.457035  0.083631
0.711404  0.506371  0.081408
0.167107  0.180784  0.148105
0.191268  0.217082  0.191223
0.230087  0.251816  0.216853
0.340255  0.305418  0.178197
0.470529  0.375099  0.146998
0.536100  0.416230  0.142501
0.656428  0.486804  0.103230
0.776239  0.561191  0.108239
0.211864  0.249074  0.228496
0.220591  0.269113  0.253741
0.242344  0.274198  0.244529
0.363012  0.356263  0.255068
0.485031  0.418056  0.227758
0.587441  0.468049  0.153967
0.700086  0.538067  0.143497
0.807172  0.606533  0.142278
0.225626  0.274384  0.270370
0.264547  0.321136  0.321773
0.313678  0.354733  0.320706
0.414671  0.403136  0.312056
0.523059  0.450306  0.261145
0.624790  0.505162  0.218261
0.756854  0.589556  0.205181
0.837790  0.636110  0.193596
0.256987  0.318434  0.317453
0.323312  0.372269  0.343585
0.393920  0.399516  0.334068
0.481772  0.454064  0.336387
0.571219  0.496908  0.292278
0.699673  0.572272  0.284075
0.823076  0.648384  0.231239
0.917295  0.704986  0.233616
0.311243  0.358994  0.354061
0.385983  0.422386  0.374840
0.476247  0.449428  0.338653
0.553629  0.507480  0.328352
0.661274  0.574954  0.328772
0.765574  0.635463  0.273056
0.853991  0.693506  0.264160
0.960261  0.755396  0.255815
0.350857  0.394880  0.366488
0.452744  0.453892  0.363208
0.560471  0.503422  0.336087
0.636722  0.557671  0.341653
0.738884  0.624030  0.318645
0.814191  0.674337  0.293823
0.914672  0.734270  0.266140
1.013184  0.805143  0.241642
0.437137  0.456575  0.380463
0.549469  0.512553  0.346496
0.626187  0.556394  0.331111
0.722462  0.610865  0.316573
0.799856  0.666360  0.302675
0.909001  0.740045  0.274642
0.962503  0.775927  0.273487
1.086261  0.836768  0.251347
0.162410  0.190929  0.163237
0.177025  0.218087  0.203661
0.225063  0.259614  0.227817
0.276073  0.297381  0.247644
0.448478  0.368676  0.168042
0.539066  0.429884  0.143822
0.646396  0.480506  0.136560
0.736973  0.543927  0.140602
0.191674  0.229791  0.211910
0.223312  0.266777  0.250953
0.253088  0.305765  0.286659
0.325918  0.349968  0.298409
0.463758  0.408290  0.230231
0.556474  0.458228  0.202408
0.675678  0.525400  0.185197
0.782652  0.590580  0.180060
0.236457  0.281031  0.269157
0.262028  0.317922  0.317279
0.285413  0.360336  0.355542
0.388738  0.420180  0.369602
0.457975  0.463702  0.364907
0.588816  0.506814  0.274470
0.707206  0.577262  0.258094
0.824660  0.647602  0.247862
0.264857  0.329286  0.337537
0.290616  0.368985  0.382072
0.318699  0.401202  0.416591
0.394105  0.434812  0.409610
0.500043  0.495243  0.408100
0.632098  0.563318  0.346968
0.732506  0.619047  0.325135
0.858015  0.681883  0.297538
0.311753  0.391518  0.406083
0.343826  0.436963  0.449344
0.370059  0.447343  0.455883
0.468689  0.502611  0.452767
0.559113  0.562627  0.476982
0.641272  0.592121  0.428258
0.780777  0.667994  0.397598
0.906180  0.744136  0.359991
0.338309  0.428554  0.451035
0.360677  0.459954  0.474490
0.438681  0.484855  0.458369
0.515365  0.541071  0.488791
0.597865  0.593868  0.489843
0.712711  0.659227  0.482733
0.864634  0.735664  0.436910
0.933498  0.780719  0.429207
0.363986  0.465391  0.494435
0.429974  0.508716  0.505878
0.513920  0.541327  0.470105
0.584176  0.585321  0.502711
0.685664  0.649900  0.493724
0.803403  0.709526  0.466818
0.904312  0.763663  0.461209
0.990867  0.814367  0.488732
0.401631  0.507128  0.527536
0.483999  0.529646  0.493373
0.558403  0.579116  0.516336
0.666793  0.637720  0.489192
0.788228  0.704219  0.482170
0.866625  0.749050  0.463376
0.966627  0.808444  0.489807
1.053067  0.853864  0.489424
0.187969  0.232246  0.215482
0.226719  0.281418  0.272371
0.250108  0.303547  0.295813
0.299674  0.332804  0.318623
0.405772  0.400084  0.294715
0.545132  0.460419  0.244292
0.662463  0.524310  0.207319
0.758231  0.561461  0.176788
0.239480  0.287165  0.284643
0.244116  0.309266  0.317514
0.289675  0.354052  0.365236
0.344731  0.408214  0.403022
0.419422  0.436460  0.383784
0.552900  0.497202  0.330268
0.674505  0.553494  0.273958
0.784730  0.614498  0.251289
0.265943  0.339012  0.345979
0.302504  0.377219  0.390120
0.318496  0.402597  0.426187
0.381758  0.462228  0.456708
0.462385  0.499462  0.454061
0.564786  0.548255  0.434803
0.712291  0.612705  0.373206
0.825208  0.665783  0.332877
0.297933  0.378391  0.398555
0.333071  0.425528  0.441665
0.357001  0.461625  0.485317
0.382355  0.491513  0.526120
0.501624  0.543700  0.491779
0.602889  0.596448  0.499915
0.731650  0.668223  0.455722
0.855907  0.708682  0.396366
0.334122  0.426899  0.453985
0.361837  0.467119  0.500620
0.405136  0.508758  0.539966
0.454461  0.557217  0.582247
0.533750  0.596364  0.576091
0.639917  0.654671  0.577967
0.774771  0.709825  0.523835
0.919208  0.781027  0.482668
0.365879  0.469725  0.499605
0.402303  0.508065  0.534420
0.442423  0.555112  0.582984
0.481497  0.599163  0.623257
0.580049  0.626342  0.585019
0.698330  0.711994  0.635595
0.818308  0.760156  0.602095
0.941076  0.809293  0.550367
0.408967  0.526112  0.551355
0.443374  0.555588  0.583128
0.479280  0.603377  0.633379
0.559188  0.628712  0.615996
0.678870  0.691784  0.612910
0.776424  0.744395  0.632650
0.884508  0.804810  0.622315
0.998232  0.843108  0.603276
0.448639  0.568460  0.603876
0.479025  0.604348  0.635610
0.537126  0.632363  0.631081
0.649564  0.681380  0.631263
0.731908  0.726169  0.632376
0.850990  0.781728  0.624600
0.945521  0.832950  0.639196
1.043666  0.881180  0.608890
0.245664  0.311097  0.308952
0.264595  0.326223  0.340761
0.291148  0.365112  0.376213
0.323236  0.392324  0.395750
0.417918  0.441073  0.383186
0.512764  0.493508  0.367967
0.636638  0.534826  0.294570
0.765416  0.605566  0.269642
0.271466  0.349413  0.368848
0.301885  0.388459  0.410477
0.318331  0.410895  0.434925
0.365487  0.450628  0.464815
0.451102  0.504864  0.481530
0.553697  0.556067  0.465792
0.675981  0.601973  0.404404
0.798846  0.653384  0.363202
0.310068  0.400613  0.418184
0.344934  0.430985  0.449607
0.380148  0.483280  0.510422
0.405114  0.504300  0.528993
0.462809  0.539184  0.534458
0.582957  0.607946  0.546022
0.680504  0.632656  0.475444
0.827732  0.714920  0.452172
0.327013  0.436629  0.469069
0.373361  0.472434  0.488943
0.415432  0.527550  0.560432
0.422085  0.545546  0.588834
0.485394  0.600737  0.624088
0.609328  0.645708  0.588304
0.729904  0.693942  0.547915
0.840222  0.757014  0.560863
0.381583  0.487914  0.523943
0.418627  0.531078  0.560842
0.449142  0.575381  0.605129
0.480938  0.603656  0.635487
0.530110  0.653087  0.687962
0.645663  0.699397  0.655691
0.746433  0.735600  0.626821
0.908961  0.804546  0.597319
0.409967  0.524173  0.562625
0.449597  0.569711  0.606311
0.482641  0.611475  0.647546
0.514602  0.646158  0.678216
0.573092  0.697168  0.733836
0.689535  0.751201  0.724808
0.822068  0.802179  0.697712
0.934968  0.846784  0.675167
0.453596  0.574575  0.608929
0.495982  0.618942  0.650174
0.546015  0.666431  0.688795
0.574744  0.691218  0.727626
0.632528  0.745298  0.770021
0.729575  0.790641  0.766976
0.865709  0.837014  0.744328
0.978355  0.869136  0.706467
0.494725  0.616619  0.648111
0.524678  0.646359  0.671510
0.565615  0.692866  0.734658
0.603173  0.724395  0.752527
0.695799  0.786952  0.796038
0.815050  0.819894  0.751254
0.911163  0.858044  0.748682
1.027995  0.909996  0.739576
0.287857  0.373519  0.391590
0.311778  0.392294  0.407238
0.342416  0.436701  0.459561
0.364161  0.471027  0.501937
0.417986  0.488878  0.477858
0.510501  0.530177  0.473589
0.623609  0.573180  0.417339
0.771324  0.645543  0.385604
0.315049  0.411396  0.440706
0.339997  0.445275  0.474868
0.359652  0.467530  0.501888
0.401030  0.524389  0.552453
0.442625  0.548176  0.572935
0.549532  0.577236  0.527884
0.652474  0.637808  0.523826
0.795195  0.708161  0.471791
0.348282  0.452726  0.477269
0.379649  0.488555  0.516079
0.409744  0.523441  0.558487
0.451652  0.564689  0.594257
0.488153  0.608918  0.633344
0.593464  0.650845  0.614268
0.688325  0.697780  0.613808
0.805470  0.746681  0.570795
0.377621  0.489139  0.522830
0.405176  0.515470  0.549041
0.463344  0.584370  0.615151
0.495238  0.618492  0.652694
0.533349  0.664770  0.703289
0.590067  0.694556  0.694023
0.746318  0.746723  0.650068
0.862778  0.790409  0.646954
0.413102  0.528591  0.561774
0.464438  0.589873  0.612325
0.493918  0.616424  0.648446
0.538850  0.668151  0.701601
0.594445  0.724953  0.771237
0.630287  0.737891  0.756888
0.761957  0.777497  0.716474
0.896998  0.842442  0.710266
0.452376  0.578169  0.609452
0.492906  0.624869  0.662759
0.532362  0.664316  0.699712
0.597942  0.726931  0.769517
0.632887  0.764719  0.805660
0.686455  0.804980  0.846069
0.796791  0.832516  0.816021
0.927085  0.869465  0.763074
0.495913  0.621111  0.652810
0.535412  0.658291  0.687215
0.570507  0.701580  0.741509
0.630695  0.761792  0.807891
0.675622  0.797619  0.840975
0.736895  0.842301  0.885248
0.833139  0.894480  0.896252
0.962970  0.905188  0.797949
0.530237  0.658911  0.695595
0.573295  0.698871  0.734074
0.603702  0.737398  0.791629
0.677983  0.802786  0.848101
0.721376  0.837510  0.880623
0.800788  0.884574  0.911811
0.873126  0.921583  0.928432
0.999898  0.947010  0.862423
0.321127  0.417456  0.450866
0.338276  0.444232  0.481406
0.382920  0.497681  0.530460
0.411228  0.531935  0.573842
0.457961  0.578313  0.615077
0.505796  0.589244  0.580961
0.631912  0.645251  0.552577
0.783206  0.703628  0.490383
0.348563  0.451941  0.483270
0.372113  0.487566  0.526099
0.427759  0.545532  0.582697
0.458140  0.587864  0.619699
0.499893  0.618600  0.655059
0.549590  0.659024  0.679797
0.636890  0.679564  0.634699
0.792618  0.738238  0.579672
0.378551  0.492267  0.536825
0.417411  0.535087  0.573830
0.459935  0.590737  0.625296
0.511672  0.639596  0.675390
0.551541  0.677306  0.720827
0.591012  0.723907  0.755487
0.698371  0.740568  0.700556
0.831403  0.792538  0.668903
0.421128  0.538571  0.569775
0.453008  0.580503  0.616247
0.505990  0.631704  0.667661
0.565858  0.688922  0.722881
0.581802  0.715491  0.764668
0.628740  0.763742  0.805676
0.690834  0.797850  0.816200
0.854269  0.832428  0.739868
0.447001  0.574817  0.611902
0.496628  0.621989  0.654389
0.537511  0.670800  0.702732
0.585721  0.716559  0.764671
0.630504  0.753422  0.797348
0.683416  0.803023  0.849967
0.756188  0.860670  0.897384
0.861429  0.881546  0.840539
0.485344  0.611729  0.642430
0.523424  0.649813  0.683797
0.578843  0.708037  0.742692
0.616841  0.753252  0.804452
0.646373  0.782973  0.827735
0.738038  0.845784  0.885991
0.800882  0.893232  0.929412
0.884309  0.932327  0.933770
0.530891  0.661370  0.699396
0.575517  0.705044  0.745453
0.604312  0.740716  0.787139
0.653054  0.772447  0.820705
0.712998  0.824927  0.869469
0.781758  0.881909  0.912861
0.844280  0.921191  0.950377
0.909583  0.951863  0.969321
0.569144  0.699907  0.727859
0.586964  0.722430  0.778574
0.638200  0.771005  0.819673
0.702163  0.818646  0.866383
0.756504  0.859806  0.902324
0.831709  0.907200  0.936615
0.890039  0.938092  0.960815
0.944798  0.973729  0.983343
