LUT/LUT_31.CUBE
TITLE "LUT_31" 
#LUT size 
LUT_3D_SIZE 5 
#data point 
DOMAIN_MIN 0.000000 0.000000 0.000000
DOMAIN_MAX 0.857143 0.857143 0.857143
0.077440  0.067791  0.031313
0.120199  0.118179  0.068106
0.312314  0.236592  0.063012
0.460474  0.334405  0.069207
0.620158  0.417095  0.053996
0.119339  0.114053  0.054987
0.200031  0.176225  0.090258
0.377222  0.290556  0.082987
0.514584  0.378163  0.071972
0.665753  0.476312  0.065210
0.228170  0.192128  0.084560
0.344846  0.282748  0.103045
0.457133  0.342256  0.081305
0.612157  0.476658  0.080860
0.737157  0.548359  0.079118
0.365063  0.299184  0.112485
0.462146  0.371508  0.100386
0.578144  0.456428  0.083538
0.704445  0.576185  0.079407
0.820630  0.669220  0.086468
0.471297  0.373220  0.097252
0.584760  0.468346  0.082631
0.694234  0.572473  0.082705
0.781866  0.657175  0.082705
0.912007  0.738877  0.081993
0.121679  0.120726  0.071957
0.160258  0.169039  0.119410
0.318006  0.264282  0.098502
0.463574  0.339295  0.086945
0.609115  0.437251  0.076867
0.161399  0.173642  0.144755
0.209992  0.226460  0.185916
0.361794  0.314946  0.161372
0.538563  0.418398  0.113836
0.681121  0.503438  0.103159
0.217374  0.262524  0.241160
0.293979  0.309557  0.263378
0.432025  0.378351  0.208229
0.571738  0.451160  0.162014
0.736468  0.568680  0.166033
0.285891  0.324648  0.298566
0.404008  0.380864  0.264738
0.529182  0.457643  0.246796
0.666483  0.559705  0.199461
0.816406  0.653108  0.179379
0.403523  0.392986  0.286141
0.539370  0.461277  0.252954
0.654015  0.551542  0.246550
0.790692  0.653770  0.186360
0.926349  0.736556  0.184967
0.159073  0.186869  0.166875
0.196007  0.228238  0.208505
0.281679  0.304222  0.246312
0.489544  0.390477  0.161397
0.647019  0.475087  0.135976
0.205207  0.258756  0.255301
0.259539  0.313216  0.305894
0.356955  0.377397  0.334150
0.503336  0.452152  0.271799
0.696824  0.551092  0.219374
0.260621  0.329279  0.336251
0.305081  0.395722  0.413747
0.388979  0.437066  0.406999
0.563831  0.528935  0.390557
0.735540  0.618746  0.321437
0.322238  0.407386  0.421079
0.379106  0.464438  0.464419
0.486506  0.516393  0.471131
0.630908  0.600674  0.474280
0.824641  0.693806  0.407172
0.362996  0.465998  0.493074
0.483587  0.532261  0.498645
0.584171  0.588527  0.498671
0.743117  0.686400  0.489324
0.900423  0.767621  0.462675
0.211685  0.269298  0.270833
0.261421  0.328242  0.339589
0.327179  0.367498  0.343691
0.463805  0.441810  0.315581
0.660101  0.529878  0.252458
0.262978  0.343018  0.366850
0.307691  0.397987  0.421332
0.359177  0.444343  0.459441
0.506361  0.518492  0.452101
0.694730  0.601759  0.377554
0.325194  0.420068  0.434501
0.368326  0.474247  0.500011
0.408708  0.525016  0.547727
0.546799  0.590819  0.540329
0.729413  0.671034  0.501005
0.376269  0.486775  0.519125
0.413467  0.530300  0.571144
0.485640  0.609788  0.645187
0.630596  0.674177  0.633363
0.764838  0.738237  0.609316
0.429572  0.544718  0.573797
0.484219  0.610812  0.635959
0.556101  0.675062  0.702589
0.699831  0.739438  0.698554
0.852185  0.808530  0.685491
0.281030  0.370640  0.393577
0.318211  0.412053  0.436619
0.362788  0.468863  0.503565
0.469834  0.510260  0.476792
0.626646  0.576020  0.413192
0.330302  0.421816  0.442621
0.375280  0.481566  0.508105
0.438508  0.556892  0.583169
0.513051  0.586193  0.570014
0.667402  0.665502  0.561662
0.380448  0.485211  0.524364
0.441760  0.558379  0.598119
0.494799  0.619419  0.653857
0.559543  0.677781  0.701385
0.744476  0.739118  0.648990
0.423791  0.548615  0.587699
0.500424  0.626363  0.660677
0.553962  0.676872  0.712273
0.632834  0.753407  0.794030
0.762552  0.807942  0.768690
0.490727  0.622706  0.656702
0.557629  0.691265  0.723508
0.629246  0.762217  0.811019
0.702764  0.817808  0.864701
0.835239  0.892122  0.896689
