LUT/LUT_28.CUBE
TITLE "LUT_28" 
#LUT size 
LUT_3D_SIZE 8 
DOMAIN_MIN 0.0 0.0 0.0 
DOMAIN_MAX 1.0 1.0 1.0 
#data point 
0.070063  0.070765  0.034055
0.099578  0.097422  0.048593
0.184790  0.159965  0.075346
0.312732  0.233620  0.062663
0.418066  0.307603  0.061801
0.523866  0.359504  0.059622
0.624395  0.408056  0.054046
0.743916  0.476189  0.053492
0.108354  0.102855  0.051091
0.129642  0.119302  0.057929
0.226262  0.196831  0.087543
0.354041  0.273813  0.087121
0.463473  0.330851  0.076882
0.541742  0.390333  0.069541
0.656862  0.453445  0.066463
0.776447  0.507339  0.059785
0.151331  0.145372  0.078961
0.213546  0.192025  0.099554
0.295912  0.239660  0.086011
0.398324  0.310057  0.084939
0.504238  0.369252  0.074730
0.592020  0.438090  0.074572
0.703174  0.490940  0.067990
0.824254  0.552743  0.062627
0.228441  0.196448  0.079723
0.308714  0.251151  0.104714
0.383339  0.299276  0.084567
0.451231  0.348682  0.082127
0.553904  0.417118  0.077176
0.658155  0.480533  0.073488
0.742849  0.541836  0.076789
0.870103  0.599214  0.070862
0.297533  0.256573  0.111231
0.386836  0.296576  0.084812
0.474509  0.371352  0.090560
0.535053  0.412524  0.084696
0.617800  0.498953  0.072437
0.695563  0.560414  0.074287
0.808012  0.614147  0.084345
0.919438  0.686934  0.076541
0.385488  0.316213  0.110466
0.463522  0.380514  0.087147
0.560611  0.439402  0.090554
0.609064  0.488629  0.091198
0.700896  0.579503  0.074066
0.780460  0.650295  0.074237
0.856591  0.702637  0.077441
0.949950  0.754045  0.093407
0.471998  0.376445  0.089541
0.526032  0.425625  0.088371
0.622906  0.504689  0.090814
0.697380  0.569806  0.074921
0.756367  0.624819  0.086339
0.835744  0.681209  0.081618
0.908652  0.743721  0.087115
1.024135  0.791975  0.088776
0.540146  0.435432  0.091246
0.609117  0.507006  0.084675
0.688792  0.562848  0.078577
0.750538  0.616690  0.086996
0.810214  0.664835  0.082793
0.886496  0.719602  0.092107
0.972503  0.775829  0.088666
1.076694  0.839262  0.084872
0.100107  0.090549  0.047506
0.117561  0.112674  0.057556
0.189595  0.161304  0.086033
0.298105  0.243582  0.082266
0.415829  0.302204  0.068889
0.513335  0.365806  0.063874
0.624647  0.427292  0.061790
0.753436  0.472859  0.059451
0.126769  0.121034  0.073101
0.163548  0.159140  0.098072
0.227251  0.199674  0.100876
0.329473  0.266793  0.101164
0.451290  0.339596  0.091884
0.558098  0.403844  0.070844
0.676629  0.462357  0.061070
0.777780  0.506918  0.062985
0.155929  0.170810  0.131541
0.203661  0.207233  0.146571
0.284564  0.263888  0.154371
0.384589  0.324549  0.124589
0.491829  0.385740  0.115374
0.607879  0.442721  0.104693
0.699540  0.502681  0.085784
0.816711  0.571153  0.081431
0.207343  0.225463  0.183251
0.276309  0.267384  0.188819
0.342355  0.305565  0.168138
0.455205  0.370320  0.157410
0.537433  0.414921  0.135213
0.634982  0.491985  0.132382
0.753613  0.558836  0.122800
0.854995  0.615364  0.089865
0.284747  0.278998  0.207690
0.344173  0.310411  0.181186
0.434507  0.372398  0.192000
0.536858  0.437984  0.172549
0.623619  0.502605  0.120771
0.714081  0.566070  0.113625
0.804142  0.625064  0.125884
0.924730  0.681996  0.119501
0.367251  0.336336  0.195122
0.435854  0.384508  0.200108
0.516330  0.434442  0.161499
0.580554  0.488761  0.151644
0.688160  0.567489  0.115862
0.765140  0.631422  0.119339
0.862735  0.703907  0.130573
0.981073  0.755309  0.142546
0.429038  0.381877  0.204629
0.522888  0.430525  0.173593
0.589931  0.495025  0.174979
0.684315  0.562136  0.131488
0.754613  0.624527  0.135244
0.828828  0.690050  0.137232
0.915332  0.744638  0.116401
0.999390  0.778605  0.130581
0.508874  0.438399  0.210296
0.594498  0.501825  0.163858
0.680348  0.552535  0.159778
0.755851  0.631476  0.140363
0.814619  0.679888  0.134336
0.895249  0.739269  0.115749
0.967640  0.781427  0.139925
1.068382  0.833260  0.136582
0.130380  0.141075  0.108827
0.151899  0.162974  0.129897
0.190749  0.193459  0.138468
0.313849  0.259709  0.124211
0.430231  0.320704  0.092048
0.530032  0.383547  0.089215
0.641566  0.440998  0.081442
0.728915  0.494182  0.076580
0.161051  0.178011  0.148492
0.187665  0.215841  0.193231
0.237601  0.256878  0.215814
0.338389  0.304273  0.180051
0.470942  0.374177  0.148927
0.549232  0.415967  0.139674
0.657227  0.484608  0.112984
0.781500  0.547996  0.104644
0.208883  0.244289  0.226961
0.222645  0.269039  0.261313
0.243718  0.278868  0.242698
0.367704  0.357788  0.259493
0.495977  0.418071  0.229041
0.594264  0.461996  0.152114
0.709190  0.528933  0.142551
0.818499  0.596727  0.144828
0.216554  0.279081  0.282809
0.258454  0.322167  0.321259
0.318098  0.354053  0.311841
0.406384  0.409082  0.315604
0.529067  0.457379  0.257724
0.626692  0.503412  0.231485
0.755560  0.583945  0.209728
0.848550  0.635109  0.195690
0.257499  0.320823  0.316854
0.328800  0.365166  0.332653
0.399387  0.400642  0.332598
0.484964  0.453230  0.333302
0.581244  0.502181  0.299101
0.699505  0.573737  0.287823
0.820306  0.645581  0.242288
0.918874  0.696898  0.244760
0.312965  0.371108  0.358427
0.399425  0.425047  0.368149
0.478080  0.450046  0.337822
0.562532  0.511445  0.333412
0.663934  0.579438  0.322611
0.761508  0.641180  0.267348
0.861784  0.703048  0.259369
0.961209  0.754345  0.262619
0.360418  0.400553  0.363758
0.451682  0.457553  0.364327
0.559970  0.513106  0.329550
0.642223  0.563888  0.338827
0.736178  0.629818  0.321359
0.815738  0.677808  0.311941
0.916604  0.740770  0.263154
1.019273  0.795841  0.246996
0.443283  0.454440  0.376006
0.554256  0.516090  0.350355
0.634031  0.560978  0.335006
0.710958  0.616458  0.316373
0.788646  0.674580  0.305044
0.900196  0.738029  0.282245
0.967571  0.780175  0.277705
1.077854  0.839312  0.256450
0.160644  0.190365  0.171314
0.181197  0.219064  0.213388
0.215959  0.254511  0.233646
0.290623  0.304665  0.241767
0.447290  0.368743  0.170159
0.540727  0.427249  0.147711
0.650809  0.473349  0.136796
0.746516  0.530295  0.138881
0.187374  0.228205  0.211256
0.221047  0.263177  0.255756
0.259209  0.304143  0.292025
0.325162  0.353629  0.304020
0.464444  0.400845  0.225113
0.566498  0.451131  0.206464
0.679923  0.513596  0.180141
0.788075  0.583673  0.184363
0.221570  0.275180  0.272325
0.258600  0.318797  0.318778
0.284415  0.355879  0.365314
0.392267  0.415199  0.370280
0.459857  0.462975  0.363719
0.594900  0.507570  0.276433
0.713894  0.572664  0.267665
0.830809  0.639482  0.249079
0.258566  0.328599  0.338572
0.287715  0.368458  0.382741
0.317211  0.405113  0.420832
0.394053  0.435672  0.405858
0.505152  0.497286  0.405308
0.639569  0.561896  0.347241
0.741519  0.614157  0.323690
0.868948  0.679619  0.293515
0.301605  0.388426  0.404106
0.345612  0.432453  0.453490
0.369839  0.450494  0.456964
0.473991  0.503854  0.455009
0.557490  0.565885  0.480561
0.648410  0.591820  0.423721
0.780182  0.667568  0.397271
0.911885  0.736644  0.358209
0.333229  0.426314  0.454370
0.366754  0.458993  0.480430
0.444318  0.487286  0.456612
0.518955  0.543963  0.487263
0.604639  0.595111  0.491080
0.714718  0.661918  0.485369
0.861681  0.737097  0.436527
0.938303  0.781829  0.428434
0.359582  0.464001  0.495766
0.432677  0.510786  0.505713
0.520632  0.539982  0.477081
0.592242  0.591444  0.491826
0.696939  0.654121  0.491058
0.804992  0.714763  0.461872
0.904260  0.768461  0.458057
1.005710  0.821300  0.474000
0.402613  0.506077  0.527183
0.482654  0.529482  0.489806
0.562709  0.578034  0.513095
0.673256  0.639798  0.487213
0.789180  0.706731  0.476473
0.865325  0.746947  0.461642
0.968111  0.810508  0.484459
1.059987  0.850591  0.488743
0.182092  0.228667  0.229632
0.223629  0.278668  0.282376
0.244231  0.301081  0.304240
0.302001  0.341680  0.312517
0.410451  0.399908  0.303124
0.542413  0.461004  0.248851
0.673013  0.519087  0.219490
0.768668  0.554141  0.184611
0.230847  0.284091  0.285396
0.249668  0.314090  0.319228
0.282950  0.358512  0.370077
0.337339  0.407340  0.403946
0.424358  0.440092  0.386133
0.550015  0.490642  0.328323
0.676833  0.549436  0.276992
0.789109  0.610856  0.255949
0.264562  0.340680  0.351439
0.291196  0.377832  0.389344
0.314243  0.405007  0.425159
0.387762  0.460951  0.464799
0.468647  0.500064  0.448610
0.570855  0.548043  0.425559
0.706677  0.614758  0.369509
0.824866  0.658389  0.335975
0.295969  0.382417  0.408847
0.326518  0.421450  0.438770
0.355227  0.457201  0.483765
0.382265  0.490220  0.524900
0.501367  0.538705  0.492480
0.596529  0.596436  0.502644
0.730410  0.659160  0.448016
0.859717  0.707366  0.401553
0.328701  0.428570  0.455191
0.363913  0.472050  0.504255
0.397664  0.508428  0.543485
0.448955  0.557735  0.585929
0.537764  0.599973  0.571778
0.640301  0.651700  0.572884
0.779065  0.703454  0.518816
0.913533  0.767718  0.483083
0.364763  0.472255  0.504057
0.389820  0.502507  0.537201
0.441253  0.559706  0.580751
0.481800  0.599205  0.622369
0.583203  0.630857  0.587316
0.695711  0.705640  0.628081
0.817105  0.755309  0.602817
0.945803  0.804757  0.547911
0.405766  0.522223  0.556726
0.438943  0.556162  0.587583
0.483539  0.596159  0.629838
0.553847  0.634321  0.618441
0.682610  0.692496  0.615036
0.774628  0.748826  0.638398
0.886404  0.802009  0.614409
1.000744  0.846582  0.598954
0.445482  0.568211  0.599268
0.475118  0.602635  0.638789
0.539778  0.631335  0.631078
0.651243  0.688635  0.633929
0.737652  0.722701  0.624695
0.839647  0.777846  0.622351
0.942172  0.835369  0.630369
1.044524  0.878454  0.609020
0.242738  0.304349  0.314166
0.256094  0.326298  0.341962
0.285531  0.365266  0.388385
0.322815  0.393629  0.401090
0.420490  0.438009  0.382794
0.516180  0.498072  0.371916
0.649878  0.533457  0.300008
0.776513  0.589764  0.276604
0.266207  0.343423  0.370385
0.294352  0.383462  0.407136
0.316516  0.409774  0.435131
0.360550  0.451384  0.467647
0.458396  0.501619  0.472093
0.557030  0.553122  0.463624
0.675792  0.604980  0.401564
0.807782  0.649504  0.366523
0.306759  0.402144  0.424534
0.336198  0.429871  0.450328
0.371461  0.478543  0.511413
0.399280  0.509250  0.526436
0.461591  0.543484  0.544121
0.584617  0.608555  0.534765
0.694112  0.638725  0.473997
0.829845  0.710433  0.449930
0.327120  0.430659  0.467695
0.369630  0.470493  0.494117
0.413676  0.527905  0.560717
0.425757  0.551157  0.585328
0.482991  0.597180  0.622446
0.610831  0.640194  0.582729
0.730998  0.694247  0.549182
0.847128  0.761930  0.548633
0.372683  0.488515  0.524439
0.403266  0.527065  0.560818
0.445282  0.570483  0.603852
0.480777  0.603755  0.636796
0.527311  0.656767  0.683823
0.641852  0.691629  0.648585
0.753854  0.735043  0.623631
0.909688  0.805912  0.603638
0.407328  0.524486  0.560739
0.447199  0.565111  0.604368
0.483421  0.614325  0.647448
0.511099  0.643932  0.685317
0.575866  0.703952  0.734329
0.687215  0.751230  0.724280
0.821743  0.798343  0.694700
0.937721  0.841405  0.673243
0.451547  0.574989  0.611001
0.492028  0.620844  0.655292
0.546101  0.666225  0.692212
0.571134  0.696973  0.718757
0.634753  0.745227  0.759698
0.734053  0.780577  0.757058
0.867886  0.833018  0.736388
0.972890  0.873006  0.707256
0.489068  0.613876  0.647243
0.524261  0.650569  0.678047
0.562472  0.700554  0.737498
0.604423  0.721092  0.757246
0.697950  0.783405  0.785826
0.822196  0.821934  0.749568
0.912923  0.862324  0.745560
1.025408  0.909056  0.740431
0.279423  0.369712  0.390188
0.305115  0.393015  0.415654
0.336643  0.432536  0.459298
0.358912  0.472693  0.506671
0.419633  0.490021  0.480022
0.515400  0.531421  0.469966
0.630614  0.575272  0.411221
0.770070  0.645931  0.383812
0.313388  0.405692  0.441211
0.338471  0.441441  0.475023
0.365696  0.470413  0.500752
0.403000  0.521489  0.558755
0.442856  0.547940  0.571218
0.555622  0.583253  0.524436
0.663530  0.642243  0.518282
0.805433  0.701954  0.461483
0.340986  0.446097  0.476846
0.377428  0.487032  0.523936
0.408081  0.523643  0.557274
0.447996  0.565832  0.600764
0.482723  0.607011  0.641682
0.594845  0.648734  0.611122
0.691943  0.697306  0.603962
0.817859  0.746924  0.565459
0.373026  0.489180  0.522461
0.400766  0.518533  0.552299
0.457855  0.582154  0.613917
0.495692  0.623285  0.653851
0.533585  0.665237  0.701888
0.597152  0.692104  0.692932
0.744487  0.741570  0.648647
0.865078  0.792982  0.637885
0.415582  0.528000  0.559620
0.459939  0.582047  0.609153
0.494217  0.612179  0.647912
0.545102  0.672720  0.697264
0.587956  0.720467  0.763120
0.633275  0.735050  0.754761
0.767567  0.775496  0.706074
0.896144  0.838445  0.704139
0.451114  0.572564  0.611564
0.491618  0.622428  0.659947
0.530995  0.664300  0.703492
0.594643  0.724488  0.771607
0.627939  0.757554  0.805772
0.687445  0.804529  0.848948
0.797000  0.835874  0.813928
0.932886  0.872587  0.760196
0.494074  0.623386  0.659753
0.531752  0.658548  0.690743
0.569114  0.700783  0.744184
0.622138  0.758183  0.811740
0.678072  0.794867  0.842098
0.732710  0.843087  0.881901
0.832730  0.891284  0.901494
0.966852  0.909209  0.796078
0.526156  0.663265  0.699236
0.566155  0.700384  0.741849
0.603960  0.741745  0.798471
0.670166  0.795401  0.844910
0.718683  0.830607  0.880079
0.796709  0.883915  0.913459
0.873393  0.919313  0.931674
1.007886  0.953686  0.861537
0.317208  0.417908  0.448141
0.340036  0.445061  0.484861
0.377026  0.494780  0.527952
0.407605  0.528817  0.570111
0.454527  0.576674  0.616164
0.510367  0.587788  0.582039
0.640236  0.639244  0.545537
0.787009  0.695472  0.489535
0.345940  0.448161  0.488886
0.364896  0.492214  0.534707
0.422439  0.547951  0.582827
0.452867  0.582552  0.618798
0.495770  0.624828  0.657774
0.545503  0.657770  0.672985
0.643425  0.679196  0.629957
0.796320  0.742200  0.574789
0.367661  0.488753  0.535360
0.416067  0.536187  0.573965
0.459557  0.579628  0.620366
0.509475  0.638708  0.672207
0.545144  0.683671  0.727578
0.591117  0.716516  0.754638
0.702660  0.741540  0.695035
0.834624  0.793480  0.666434
0.414073  0.540773  0.578024
0.450569  0.577374  0.613379
0.504442  0.626758  0.668216
0.557719  0.686812  0.723584
0.585722  0.718160  0.763327
0.629256  0.758607  0.804203
0.695555  0.799050  0.817291
0.852761  0.827288  0.733161
0.448078  0.570702  0.609650
0.496331  0.620818  0.655601
0.536330  0.667996  0.700073
0.577001  0.715100  0.765571
0.620180  0.749905  0.800551
0.676715  0.795599  0.845629
0.753388  0.859528  0.905589
0.861815  0.879707  0.841252
0.478880  0.605903  0.641944
0.525456  0.651621  0.681901
0.573845  0.707740  0.744114
0.613056  0.746261  0.798785
0.650781  0.777497  0.831508
0.733797  0.842581  0.885125
0.803945  0.890600  0.920550
0.883654  0.931044  0.930813
0.528484  0.658697  0.698676
0.573468  0.705281  0.745931
0.603891  0.743483  0.790192
0.650281  0.777498  0.823453
0.711436  0.821384  0.872212
0.775938  0.876803  0.908743
0.842862  0.921165  0.946026
0.918855  0.956914  0.969020
0.565546  0.696622  0.733842
0.581200  0.721831  0.773969
0.638664  0.772790  0.825119
0.697447  0.822191  0.863589
0.752119  0.857564  0.901178
0.831496  0.911615  0.932695
0.895137  0.944807  0.961460
0.955535  0.978855  0.983081
