LUT/LUT_13.CUBE
TITLE "LUT_13" 
#LUT size 
LUT_3D_SIZE 5 
#data point 
DOMAIN_MIN 0.000000 0.000000 0.000000
DOMAIN_MAX 0.857143 0.857143 0.857143
0.045592  0.040748  0.023044
0.140078  0.122449  0.050085
0.335669  0.217926  0.037923
0.516357  0.284696  0.031793
0.695743  0.335590  0.032648
0.118360  0.117982  0.060605
0.219313  0.184734  0.070450
0.388226  0.273705  0.058828
0.554959  0.342209  0.041881
0.736267  0.406560  0.041909
0.230396  0.200286  0.084278
0.349560  0.290213  0.079660
0.459016  0.371644  0.060650
0.624214  0.460642  0.056970
0.788427  0.503690  0.043994
0.363118  0.307195  0.090159
0.455856  0.394149  0.067827
0.561556  0.488022  0.063988
0.683453  0.584302  0.061938
0.830024  0.656415  0.063737
0.440829  0.411558  0.074173
0.545610  0.503344  0.057163
0.659744  0.591605  0.059759
0.776192  0.666637  0.071155
0.910249  0.757296  0.073421
0.102621  0.115482  0.083183
0.155038  0.162365  0.117743
0.340699  0.252707  0.080490
0.504807  0.309350  0.060313
0.683397  0.365452  0.051255
0.136828  0.179072  0.168941
0.199261  0.232222  0.202842
0.386081  0.320820  0.162920
0.563166  0.389375  0.123503
0.738462  0.447857  0.112294
0.203672  0.251924  0.250739
0.300077  0.308999  0.249789
0.446109  0.391608  0.210391
0.601819  0.459911  0.180981
0.776290  0.533244  0.178271
0.291278  0.328567  0.284841
0.420969  0.397119  0.262187
0.536687  0.492180  0.249847
0.675100  0.584570  0.202180
0.824249  0.653928  0.193315
0.413907  0.407850  0.287360
0.531974  0.505740  0.244092
0.641863  0.594386  0.241231
0.773275  0.683391  0.209605
0.916996  0.763647  0.197748
0.140930  0.187844  0.186139
0.180527  0.230474  0.231675
0.314091  0.307512  0.236801
0.513938  0.368009  0.178559
0.696522  0.414623  0.153254
0.189647  0.257817  0.269908
0.233369  0.305488  0.314621
0.357640  0.380167  0.334292
0.524532  0.442813  0.283715
0.727242  0.516725  0.243967
0.238123  0.327870  0.351179
0.293077  0.388202  0.421692
0.406834  0.442247  0.403995
0.585970  0.528626  0.377661
0.767499  0.590887  0.339303
0.293081  0.397490  0.434668
0.366160  0.461189  0.475594
0.507153  0.522774  0.461619
0.645303  0.607307  0.461956
0.824104  0.682998  0.411274
0.345646  0.463403  0.500559
0.481573  0.529997  0.492916
0.607925  0.601813  0.479759
0.746341  0.700623  0.463013
0.899339  0.781075  0.455500
0.173748  0.262871  0.297280
0.233769  0.319018  0.348081
0.329843  0.380013  0.359517
0.497436  0.432452  0.319610
0.708451  0.479835  0.269133
0.241638  0.341960  0.386232
0.291577  0.400855  0.438347
0.354596  0.449932  0.460440
0.523510  0.521665  0.436995
0.717363  0.582087  0.380660
0.299958  0.411971  0.455604
0.347449  0.467787  0.510139
0.408010  0.520613  0.556405
0.558546  0.591187  0.534777
0.742822  0.669797  0.502394
0.361064  0.480609  0.528737
0.412830  0.538863  0.585790
0.471901  0.604265  0.644186
0.636778  0.677096  0.627377
0.787454  0.737245  0.591440
0.405138  0.538440  0.585070
0.470831  0.600631  0.642990
0.547210  0.670987  0.697776
0.715026  0.740458  0.676275
0.872462  0.817536  0.674292
0.216589  0.346097  0.421635
0.278654  0.407119  0.461431
0.341278  0.464961  0.516349
0.483365  0.506429  0.471074
0.672556  0.556396  0.417651
0.272912  0.414757  0.479933
0.344914  0.480451  0.532644
0.408760  0.546584  0.598327
0.520781  0.586138  0.566743
0.698600  0.661730  0.542233
0.347669  0.483250  0.542033
0.417227  0.555716  0.601514
0.484338  0.623568  0.668602
0.574880  0.680689  0.702429
0.752876  0.741465  0.646508
0.407337  0.549383  0.600263
0.481715  0.623316  0.663973
0.531775  0.680475  0.739327
0.618140  0.754962  0.807867
0.772972  0.801602  0.755624
0.463434  0.620812  0.673382
0.524637  0.677893  0.744979
0.604310  0.748010  0.826932
0.693089  0.813967  0.859520
0.828156  0.881690  0.885254
