LUT/LUT_38.CUBE
TITLE "LUT_38" 
#LUT size 
LUT_3D_SIZE 15 
DOMAIN_MIN 0.0 0.0 0.0 
DOMAIN_MAX 1.0 1.0 1.0 
#data point 
0.076706  0.070237  0.037513
0.087115  0.087506  0.046725
0.106820  0.100499  0.049623
0.127813  0.118574  0.064014
0.169670  0.147735  0.078379
0.234686  0.201491  0.085466
0.306558  0.238308  0.073770
0.332729  0.264478  0.088736
0.411078  0.304671  0.075271
0.455878  0.345281  0.073016
0.506857  0.374767  0.071870
0.546249  0.396987  0.083460
0.613124  0.430127  0.062901
0.650834  0.476132  0.070989
0.712513  0.502052  0.066839
0.095220  0.090036  0.043450
0.106277  0.098075  0.051562
0.112192  0.108819  0.056086
0.147455  0.136400  0.078441
0.200645  0.182158  0.101536
0.256845  0.215135  0.087174
0.319683  0.252094  0.086979
0.383718  0.292180  0.081746
0.421358  0.320864  0.080471
0.464078  0.348887  0.074934
0.516274  0.373805  0.077516
0.590617  0.420897  0.073380
0.648077  0.466624  0.066459
0.687316  0.489079  0.073050
0.729828  0.517419  0.070632
0.118595  0.108336  0.053360
0.108770  0.101562  0.051724
0.125994  0.112642  0.055652
0.158549  0.151294  0.087772
0.225861  0.204045  0.096997
0.270399  0.225307  0.084065
0.350212  0.275101  0.089376
0.382197  0.297788  0.081812
0.459230  0.334978  0.087713
0.490755  0.366140  0.083754
0.536935  0.398684  0.081798
0.605066  0.451384  0.075853
0.641280  0.468279  0.076583
0.702139  0.493795  0.074349
0.738871  0.533732  0.061242
0.123181  0.113773  0.057928
0.132774  0.119308  0.056290
0.154149  0.142613  0.077726
0.200001  0.181090  0.096125
0.263176  0.220847  0.091164
0.304883  0.254145  0.093554
0.379735  0.294902  0.094367
0.414395  0.318938  0.091694
0.474758  0.355534  0.062050
0.518359  0.385845  0.085305
0.560259  0.421565  0.088600
0.613907  0.456541  0.091454
0.650335  0.480868  0.072732
0.729232  0.524098  0.067649
0.776286  0.569481  0.068503
0.143311  0.132214  0.084465
0.165235  0.151526  0.085900
0.203382  0.188919  0.100784
0.229762  0.207273  0.114583
0.289854  0.245072  0.094797
0.355669  0.279828  0.099551
0.389721  0.314758  0.087980
0.449388  0.336549  0.086200
0.484954  0.363905  0.076608
0.554684  0.407550  0.079406
0.592775  0.452337  0.091384
0.655822  0.492803  0.079964
0.680817  0.514434  0.075156
0.741906  0.545723  0.075591
0.797921  0.577300  0.072234
0.161733  0.162033  0.100702
0.208851  0.183027  0.095084
0.228341  0.202953  0.095811
0.284918  0.234715  0.098416
0.331665  0.260547  0.091630
0.357283  0.291499  0.105354
0.417141  0.322701  0.100152
0.476805  0.367871  0.090124
0.511112  0.384585  0.079073
0.539178  0.400675  0.080437
0.606819  0.465067  0.077198
0.657542  0.495899  0.086842
0.726311  0.543006  0.079711
0.768373  0.577108  0.085604
0.813852  0.593983  0.070323
0.217043  0.194763  0.092280
0.250402  0.229102  0.125150
0.303958  0.259624  0.104280
0.339802  0.275702  0.104196
0.376800  0.297180  0.100344
0.423759  0.331716  0.105719
0.452039  0.342892  0.088314
0.510947  0.399619  0.096988
0.545857  0.422494  0.086298
0.609156  0.472561  0.081792
0.643364  0.489142  0.083318
0.671088  0.517172  0.089886
0.734884  0.555003  0.090878
0.801627  0.592296  0.068524
0.850432  0.619496  0.079496
0.267059  0.236858  0.119055
0.302973  0.253695  0.102819
0.321080  0.264296  0.111534
0.371373  0.293607  0.097144
0.424848  0.340791  0.114876
0.459107  0.359091  0.088038
0.492525  0.373120  0.086861
0.550206  0.410934  0.085028
0.585347  0.447705  0.088020
0.627049  0.493167  0.082679
0.671042  0.528691  0.081001
0.726756  0.559220  0.093592
0.762544  0.595718  0.076279
0.832445  0.639306  0.082812
0.895394  0.663240  0.072940
0.305693  0.263892  0.125568
0.353540  0.288516  0.102448
0.381355  0.292705  0.094573
0.413202  0.323685  0.094026
0.472719  0.364994  0.091749
0.492014  0.385357  0.089705
0.524950  0.407783  0.093310
0.586316  0.443809  0.092610
0.613322  0.480994  0.081665
0.663577  0.533597  0.087612
0.691027  0.559400  0.081864
0.742442  0.598535  0.099611
0.801428  0.615640  0.088732
0.835363  0.656163  0.077365
0.906370  0.696227  0.087263
0.359588  0.290023  0.124119
0.378754  0.307454  0.103942
0.422366  0.330453  0.095495
0.462567  0.372063  0.105140
0.496066  0.398115  0.095108
0.530994  0.426055  0.093092
0.578894  0.457069  0.092576
0.626188  0.488891  0.087807
0.654048  0.524506  0.087789
0.702698  0.572859  0.082747
0.752265  0.606340  0.092662
0.784864  0.635862  0.078471
0.827694  0.669916  0.088027
0.862195  0.675978  0.083919
0.915809  0.727242  0.087230
0.381370  0.306368  0.119080
0.427097  0.345796  0.114682
0.472043  0.370427  0.093668
0.499181  0.380807  0.086990
0.553439  0.435197  0.099465
0.585618  0.451782  0.085422
0.615650  0.476085  0.097295
0.668314  0.528385  0.076950
0.707624  0.577432  0.081851
0.727585  0.590584  0.088122
0.782958  0.642278  0.082825
0.802624  0.648069  0.088813
0.861379  0.701640  0.082735
0.915593  0.728484  0.075953
0.948787  0.752720  0.100925
0.421856  0.333394  0.110076
0.463627  0.363735  0.102088
0.500726  0.398541  0.103096
0.543435  0.428096  0.097277
0.587887  0.451591  0.092759
0.634846  0.501500  0.090224
0.657484  0.523087  0.083718
0.675402  0.553550  0.088451
0.736561  0.596539  0.088172
0.756527  0.618079  0.078717
0.805554  0.657850  0.094874
0.843660  0.685030  0.088233
0.884428  0.709605  0.080261
0.923001  0.746816  0.086855
0.970082  0.767657  0.086710
0.468796  0.358978  0.097576
0.481434  0.385796  0.100629
0.525946  0.420985  0.100303
0.593311  0.459267  0.086778
0.626386  0.495303  0.085562
0.655082  0.524986  0.098527
0.698198  0.564664  0.084766
0.720424  0.580453  0.082048
0.763518  0.619959  0.094825
0.786179  0.649421  0.090928
0.827462  0.669890  0.082205
0.891632  0.717896  0.085306
0.907935  0.736058  0.085959
0.941092  0.758034  0.089988
1.017269  0.784940  0.090365
0.511974  0.402851  0.097380
0.565144  0.445682  0.095290
0.573424  0.457476  0.083390
0.625353  0.498276  0.092060
0.652155  0.528185  0.082446
0.669208  0.545925  0.086752
0.720653  0.580271  0.077959
0.768565  0.622110  0.084322
0.792811  0.649125  0.093349
0.819772  0.660903  0.092154
0.846370  0.690394  0.082054
0.903889  0.726517  0.085669
0.940483  0.764664  0.099341
0.990898  0.791853  0.105007
1.014402  0.787478  0.093930
0.542523  0.428425  0.100100
0.577833  0.448869  0.083151
0.629646  0.505030  0.106203
0.673433  0.536889  0.076257
0.689279  0.554189  0.086040
0.708612  0.572298  0.090531
0.743354  0.605047  0.095558
0.787397  0.645323  0.087208
0.803932  0.649112  0.079855
0.855938  0.693566  0.097822
0.883892  0.708559  0.099214
0.934391  0.748724  0.095295
0.970360  0.770372  0.100481
1.024661  0.791917  0.090104
1.081128  0.827225  0.090836
0.090240  0.082591  0.043732
0.103775  0.098150  0.042725
0.107349  0.102184  0.047209
0.120440  0.111960  0.058819
0.164091  0.146335  0.069833
0.231844  0.196754  0.083910
0.312217  0.256839  0.095783
0.356327  0.283348  0.094297
0.406787  0.315287  0.070425
0.434815  0.323775  0.069711
0.500680  0.369126  0.067654
0.560156  0.407712  0.076928
0.616482  0.436809  0.067213
0.655771  0.476153  0.068097
0.706728  0.506330  0.077217
0.098219  0.097901  0.048462
0.107570  0.100990  0.046486
0.109934  0.107096  0.058702
0.151311  0.140403  0.070337
0.180297  0.168328  0.101771
0.277856  0.224274  0.088199
0.311251  0.249650  0.082192
0.368728  0.279830  0.075641
0.417567  0.321855  0.078949
0.484524  0.363267  0.090356
0.509586  0.385001  0.074939
0.557012  0.408457  0.071024
0.627559  0.460669  0.073172
0.673070  0.488019  0.073208
0.732186  0.523495  0.073776
0.104613  0.099260  0.047781
0.118934  0.112584  0.063456
0.139753  0.127535  0.063471
0.169268  0.158184  0.084308
0.213184  0.190734  0.100910
0.297988  0.242664  0.087667
0.326347  0.255393  0.082146
0.384892  0.297220  0.087575
0.449699  0.335633  0.079225
0.487854  0.364538  0.086379
0.538115  0.401095  0.075945
0.597837  0.435555  0.069006
0.652744  0.469859  0.067903
0.708786  0.514799  0.073319
0.769999  0.549315  0.068843
0.136760  0.128926  0.074263
0.132257  0.130296  0.076001
0.157313  0.155775  0.089564
0.181277  0.168522  0.089887
0.240478  0.220840  0.111870
0.320388  0.258848  0.097611
0.353847  0.278249  0.099224
0.427549  0.336204  0.097363
0.471543  0.355347  0.097230
0.504616  0.382223  0.081327
0.558916  0.427283  0.087230
0.619083  0.450339  0.083784
0.675930  0.495530  0.076622
0.702940  0.515022  0.074768
0.772157  0.569582  0.069044
0.162207  0.157631  0.090617
0.167681  0.154172  0.087241
0.191883  0.182789  0.116961
0.228518  0.207861  0.116549
0.290159  0.245492  0.122510
0.343486  0.277211  0.098260
0.387983  0.299354  0.103040
0.443361  0.340061  0.082709
0.493729  0.379805  0.087810
0.531555  0.408371  0.098634
0.586286  0.431155  0.078296
0.627567  0.479693  0.082689
0.678902  0.519648  0.094367
0.737325  0.535618  0.081550
0.774039  0.579861  0.082220
0.182735  0.170481  0.098828
0.210068  0.193583  0.102202
0.239974  0.215201  0.122174
0.278492  0.247635  0.129319
0.333925  0.279762  0.108009
0.394241  0.312977  0.108122
0.439335  0.342782  0.110982
0.466373  0.361525  0.115803
0.505556  0.388631  0.098020
0.561071  0.432901  0.105333
0.598961  0.460510  0.091040
0.652507  0.492049  0.080008
0.692471  0.515030  0.076665
0.768515  0.561203  0.074970
0.841820  0.623336  0.072676
0.230433  0.222248  0.145610
0.259025  0.232084  0.120487
0.275614  0.257322  0.143735
0.316201  0.276613  0.140996
0.371238  0.302103  0.122366
0.418254  0.331427  0.096697
0.464254  0.355048  0.100150
0.497966  0.392458  0.122272
0.543165  0.430185  0.112419
0.579682  0.443493  0.099716
0.647167  0.514403  0.095592
0.681889  0.516456  0.085336
0.749263  0.564697  0.077429
0.785337  0.597188  0.082464
0.845261  0.630517  0.077342
0.253652  0.228654  0.122521
0.287115  0.256983  0.129852
0.337616  0.292013  0.139309
0.367545  0.309648  0.147778
0.425182  0.331313  0.101849
0.445859  0.355812  0.116723
0.515123  0.401878  0.093228
0.547459  0.424864  0.095385
0.581136  0.451492  0.116281
0.612949  0.492519  0.090956
0.677077  0.525711  0.091040
0.707703  0.551206  0.080156
0.773367  0.597111  0.077791
0.807721  0.615034  0.084012
0.882210  0.657542  0.072160
0.294527  0.265148  0.138367
0.339757  0.295467  0.164846
0.368062  0.311339  0.123645
0.402877  0.333361  0.124732
0.455403  0.357444  0.111497
0.484585  0.384974  0.114384
0.536758  0.421467  0.109916
0.576310  0.460468  0.101809
0.615506  0.483829  0.096635
0.666981  0.542599  0.095597
0.696843  0.555713  0.093430
0.748422  0.602932  0.093290
0.796305  0.628950  0.091132
0.853252  0.668268  0.094245
0.884594  0.686604  0.087782
0.320255  0.273460  0.138297
0.385522  0.321334  0.129712
0.411785  0.334921  0.134138
0.467624  0.368649  0.109915
0.498386  0.394144  0.116749
0.548174  0.439216  0.109759
0.590388  0.464482  0.109329
0.624731  0.495663  0.105772
0.663916  0.526193  0.108110
0.706063  0.566575  0.097017
0.753958  0.609544  0.080615
0.769315  0.618648  0.089603
0.823136  0.653499  0.091013
0.874845  0.692291  0.087643
0.934288  0.730622  0.089688
0.367947  0.308181  0.148553
0.392273  0.330900  0.154675
0.428023  0.352016  0.119317
0.509528  0.400346  0.111317
0.538869  0.429322  0.118923
0.580584  0.458456  0.100988
0.628423  0.507334  0.097834
0.677939  0.544697  0.098454
0.698206  0.564098  0.089048
0.737453  0.600885  0.091272
0.781106  0.635530  0.098275
0.826653  0.661955  0.092632
0.852094  0.685051  0.080060
0.910103  0.724341  0.101215
0.931972  0.728992  0.103417
0.395563  0.340682  0.145831
0.454744  0.368579  0.140080
0.505000  0.406859  0.124265
0.534662  0.420354  0.113650
0.585197  0.475224  0.116564
0.607702  0.483988  0.098536
0.638870  0.503169  0.111081
0.687371  0.552464  0.117173
0.721786  0.584084  0.096011
0.743736  0.611658  0.090696
0.800118  0.653425  0.077458
0.856900  0.681429  0.108127
0.892530  0.720097  0.091139
0.916224  0.740371  0.096540
0.983181  0.762886  0.085774
0.466090  0.373540  0.124932
0.521426  0.419509  0.100095
0.548729  0.437285  0.115243
0.599836  0.472750  0.100691
0.611813  0.488210  0.109709
0.672423  0.533604  0.115661
0.703247  0.569502  0.103502
0.709954  0.581926  0.102676
0.766091  0.619175  0.097034
0.791751  0.645971  0.103504
0.823165  0.676551  0.111820
0.884585  0.706319  0.097566
0.905025  0.744973  0.097818
0.980440  0.769508  0.099122
1.004157  0.769202  0.093110
0.494726  0.391835  0.138950
0.533039  0.421270  0.111830
0.579567  0.456257  0.095599
0.587068  0.464255  0.104031
0.658443  0.529593  0.103093
0.686107  0.533135  0.094688
0.701151  0.581528  0.116230
0.767046  0.632822  0.082538
0.794308  0.634228  0.094033
0.823552  0.672982  0.107980
0.864452  0.700325  0.099438
0.881582  0.716535  0.105594
0.933890  0.754077  0.096565
0.972086  0.772225  0.085627
1.006849  0.790327  0.097629
0.536851  0.433593  0.129187
0.576381  0.453912  0.104412
0.593088  0.468092  0.098074
0.654223  0.509615  0.101843
0.675528  0.549381  0.105478
0.719803  0.570530  0.104732
0.753966  0.606615  0.107627
0.781375  0.649414  0.114981
0.820803  0.670551  0.113351
0.843691  0.691374  0.112616
0.904243  0.736668  0.107287
0.910482  0.738534  0.107268
0.977520  0.771009  0.095990
1.024200  0.802473  0.104360
1.065955  0.817296  0.103650
0.106419  0.103740  0.052735
0.107889  0.111347  0.063894
0.116688  0.116542  0.063071
0.159511  0.142721  0.075629
0.185983  0.167700  0.086768
0.222123  0.196096  0.088879
0.281644  0.231388  0.092072
0.372331  0.283253  0.085229
0.403388  0.316148  0.081816
0.453173  0.343936  0.081727
0.508147  0.380313  0.074034
0.565622  0.407073  0.073625
0.597330  0.449237  0.075522
0.663759  0.479475  0.073556
0.725511  0.491113  0.070560
0.121181  0.112774  0.056779
0.134796  0.130958  0.073349
0.152021  0.143516  0.077665
0.154841  0.142375  0.078507
0.210504  0.178937  0.087286
0.277724  0.243800  0.109418
0.332735  0.268467  0.103999
0.360473  0.287945  0.104286
0.431541  0.332161  0.080212
0.477644  0.350095  0.082395
0.525830  0.399236  0.076163
0.576355  0.434295  0.073695
0.627737  0.463498  0.074812
0.707406  0.501638  0.072067
0.732463  0.526329  0.071198
0.132790  0.131571  0.070094
0.146414  0.144870  0.091575
0.162036  0.155061  0.095185
0.184342  0.177920  0.105054
0.217798  0.199108  0.113714
0.289612  0.246523  0.116608
0.309534  0.263831  0.116575
0.387004  0.303678  0.109243
0.430881  0.342213  0.098584
0.504988  0.385691  0.101151
0.551741  0.413945  0.089288
0.593274  0.438517  0.085110
0.662619  0.484758  0.069268
0.702744  0.503886  0.075081
0.742480  0.531426  0.070863
0.152661  0.156248  0.103667
0.160097  0.163544  0.108758
0.176175  0.183173  0.131057
0.211494  0.197230  0.134437
0.224818  0.217524  0.131545
0.314869  0.273322  0.141706
0.368364  0.305490  0.127419
0.400845  0.317692  0.128411
0.467172  0.360646  0.101785
0.514694  0.388665  0.078811
0.551879  0.422310  0.098003
0.624686  0.469859  0.083005
0.654545  0.493914  0.079464
0.691872  0.515744  0.077367
0.770336  0.549217  0.079287
0.154645  0.164290  0.118647
0.185766  0.209310  0.168303
0.198156  0.202277  0.149490
0.221019  0.224451  0.153163
0.276583  0.260677  0.156863
0.319184  0.286037  0.148000
0.384908  0.317442  0.125230
0.443817  0.353159  0.116311
0.489344  0.377671  0.122656
0.541169  0.410360  0.107182
0.592420  0.446862  0.105884
0.638892  0.489430  0.097510
0.683678  0.506185  0.093242
0.734429  0.560022  0.083154
0.794711  0.594106  0.093037
0.177006  0.199272  0.158759
0.199515  0.205579  0.155208
0.227366  0.228987  0.177028
0.259234  0.250158  0.162105
0.298052  0.274874  0.162730
0.354116  0.316244  0.171795
0.408003  0.340697  0.140840
0.466160  0.380074  0.123758
0.526916  0.405922  0.110664
0.572174  0.439196  0.124139
0.618807  0.475478  0.097573
0.654721  0.501237  0.115431
0.703625  0.535067  0.096266
0.774992  0.588842  0.098223
0.815796  0.615022  0.084930
0.206092  0.227725  0.189169
0.240049  0.238791  0.179514
0.261392  0.257476  0.192899
0.310838  0.283804  0.187118
0.335741  0.299328  0.161726
0.397780  0.331987  0.170013
0.442259  0.364021  0.151735
0.495970  0.398996  0.142095
0.527709  0.402766  0.133019
0.587668  0.451900  0.119436
0.625091  0.491407  0.136299
0.686487  0.538318  0.120349
0.744936  0.562753  0.133557
0.799929  0.609384  0.112554
0.840420  0.636977  0.093470
0.267513  0.276152  0.203441
0.279966  0.280966  0.217226
0.318937  0.304464  0.189734
0.360418  0.319744  0.180909
0.386335  0.337049  0.175862
0.437088  0.356410  0.158859
0.484824  0.406980  0.178994
0.539245  0.434488  0.137443
0.591890  0.458903  0.134403
0.636495  0.491221  0.133693
0.670734  0.521758  0.132986
0.704398  0.547588  0.123516
0.749803  0.583110  0.118483
0.812140  0.629864  0.108005
0.862187  0.664897  0.095660
0.291123  0.281787  0.200777
0.319879  0.305518  0.196590
0.335676  0.303075  0.182042
0.385729  0.342554  0.184793
0.419984  0.376030  0.193150
0.454689  0.382634  0.177026
0.531741  0.439924  0.179316
0.556473  0.445877  0.136732
0.614249  0.493984  0.118829
0.662928  0.532527  0.129022
0.713870  0.569766  0.101673
0.739094  0.598199  0.124590
0.793395  0.623260  0.128869
0.834297  0.654492  0.131595
0.904196  0.691475  0.118783
0.298799  0.295383  0.214210
0.354112  0.334164  0.213536
0.383951  0.342367  0.172271
0.416663  0.376593  0.212746
0.462778  0.393545  0.192783
0.524047  0.434032  0.164829
0.570345  0.469819  0.170488
0.609136  0.485725  0.120589
0.662743  0.524414  0.141346
0.697530  0.563016  0.125449
0.741259  0.602116  0.110793
0.782721  0.626423  0.118647
0.818388  0.656330  0.124881
0.872076  0.696388  0.131128
0.912792  0.717014  0.125528
0.362208  0.331139  0.196124
0.385065  0.340147  0.204089
0.432764  0.381402  0.196321
0.494036  0.404796  0.165040
0.501456  0.418843  0.161863
0.553444  0.446960  0.171448
0.579381  0.475276  0.150459
0.649242  0.537908  0.139183
0.684353  0.563893  0.111634
0.731592  0.599908  0.129846
0.765645  0.627086  0.114721
0.813835  0.652610  0.121649
0.868224  0.700020  0.128032
0.900635  0.703489  0.125036
0.977213  0.760400  0.135465
0.391703  0.348444  0.208301
0.432788  0.375928  0.205057
0.478321  0.408768  0.203321
0.509897  0.415882  0.175383
0.562990  0.463503  0.178753
0.602114  0.489397  0.157611
0.627801  0.508208  0.149109
0.687517  0.544563  0.129221
0.719287  0.577678  0.147754
0.779488  0.631005  0.113374
0.799422  0.641905  0.120238
0.826057  0.697216  0.122714
0.891603  0.724006  0.125648
0.936050  0.746302  0.131913
0.973130  0.781854  0.143359
0.430802  0.374266  0.209285
0.457024  0.392107  0.207134
0.525814  0.427362  0.181591
0.542799  0.442549  0.186484
0.597083  0.482338  0.184084
0.647788  0.528238  0.161916
0.677687  0.556200  0.125491
0.706944  0.575879  0.132073
0.750829  0.610589  0.127065
0.798376  0.652469  0.124538
0.831656  0.682898  0.122534
0.864552  0.698243  0.138585
0.923836  0.749096  0.115687
0.953411  0.772134  0.150084
0.989516  0.776753  0.116770
0.469661  0.402255  0.201142
0.521515  0.420571  0.188007
0.520358  0.430853  0.186277
0.591880  0.485238  0.166143
0.622733  0.511567  0.145268
0.678674  0.563519  0.137450
0.717323  0.571637  0.134388
0.763867  0.629875  0.117801
0.787861  0.640251  0.137559
0.809291  0.656994  0.135945
0.838745  0.691925  0.132002
0.907718  0.734508  0.141032
0.932183  0.747084  0.126618
0.995962  0.779901  0.130726
1.020180  0.807367  0.138463
0.502996  0.421645  0.212799
0.542678  0.456482  0.204153
0.595145  0.492056  0.163233
0.636442  0.518414  0.156221
0.681334  0.552572  0.173012
0.718348  0.592193  0.139671
0.766676  0.617676  0.133071
0.784722  0.633090  0.139076
0.828690  0.675520  0.126318
0.865112  0.698878  0.143288
0.897863  0.730742  0.121082
0.920091  0.747405  0.137907
0.972979  0.767635  0.124036
1.029940  0.796247  0.121090
1.066446  0.820757  0.145271
0.124074  0.125623  0.075592
0.116637  0.111408  0.060465
0.143345  0.145324  0.096987
0.158570  0.166946  0.117036
0.195687  0.176208  0.096514
0.236401  0.208401  0.101806
0.314197  0.265138  0.105034
0.375845  0.295383  0.103039
0.408009  0.312988  0.102886
0.456126  0.342085  0.092991
0.507098  0.387019  0.085403
0.569703  0.413960  0.083736
0.596099  0.447608  0.082318
0.665049  0.481104  0.069724
0.718582  0.508746  0.080539
0.135891  0.142606  0.101751
0.147614  0.149553  0.102478
0.161809  0.165471  0.117774
0.184838  0.194446  0.135654
0.206242  0.199434  0.126117
0.242976  0.224344  0.123997
0.325012  0.276072  0.117538
0.384351  0.306949  0.117779
0.429665  0.332489  0.104476
0.476612  0.361537  0.102595
0.533218  0.404823  0.080632
0.573643  0.423279  0.085422
0.648311  0.479355  0.083509
0.702025  0.493961  0.069204
0.742991  0.539479  0.073683
0.144255  0.152201  0.112500
0.165678  0.180873  0.132075
0.177440  0.190851  0.135359
0.199695  0.219586  0.175856
0.229097  0.225625  0.151043
0.296497  0.255289  0.139241
0.337077  0.289342  0.142101
0.382795  0.321569  0.140635
0.450452  0.355722  0.108659
0.505604  0.391435  0.107233
0.546473  0.421647  0.105105
0.610023  0.456523  0.085992
0.641221  0.476237  0.094313
0.702256  0.519948  0.083769
0.781177  0.563178  0.076640
0.162024  0.173801  0.142617
0.173631  0.201561  0.165459
0.187026  0.212203  0.180897
0.206405  0.222999  0.175602
0.259011  0.264740  0.189932
0.291641  0.282869  0.185728
0.364726  0.317200  0.161990
0.405683  0.336759  0.136454
0.480635  0.380976  0.121133
0.530770  0.415465  0.113241
0.541708  0.416474  0.118140
0.621111  0.478288  0.109993
0.674490  0.515871  0.103449
0.711767  0.532870  0.085610
0.785427  0.560691  0.098418
0.186781  0.210238  0.187566
0.203212  0.231330  0.207718
0.201684  0.235265  0.203909
0.232224  0.250778  0.206613
0.265938  0.271002  0.204922
0.315440  0.300100  0.200067
0.345740  0.313859  0.193024
0.440239  0.364747  0.157287
0.461822  0.371487  0.158991
0.542463  0.411077  0.112837
0.593776  0.468850  0.121002
0.623615  0.478432  0.120539
0.685857  0.526048  0.127075
0.720626  0.555687  0.111527
0.799990  0.583719  0.106634
0.198232  0.228084  0.201819
0.206449  0.235848  0.215852
0.225334  0.256563  0.226428
0.251598  0.276030  0.237312
0.303635  0.311508  0.246386
0.346132  0.329168  0.224544
0.426528  0.361826  0.185302
0.450717  0.384743  0.192350
0.504735  0.396931  0.163655
0.536740  0.433261  0.165168
0.601974  0.479523  0.149172
0.656139  0.519650  0.144801
0.726000  0.553046  0.123122
0.757612  0.588435  0.145570
0.793083  0.609437  0.135907
0.219375  0.253814  0.228797
0.226920  0.257344  0.234051
0.264094  0.288940  0.249365
0.290089  0.313206  0.260610
0.332159  0.323191  0.245835
0.396171  0.370460  0.242485
0.432376  0.376074  0.213572
0.483158  0.407270  0.205167
0.530455  0.441295  0.186903
0.563331  0.450276  0.165445
0.617658  0.484178  0.164056
0.700132  0.551397  0.152675
0.732770  0.574907  0.154637
0.785219  0.614154  0.118458
0.848259  0.663235  0.155266
0.230509  0.269767  0.252578
0.270819  0.299367  0.267669
0.293904  0.320437  0.278771
0.326815  0.335417  0.272819
0.364536  0.343565  0.242835
0.438416  0.380050  0.209913
0.457589  0.397050  0.240880
0.514986  0.430998  0.215181
0.555155  0.463988  0.223303
0.600148  0.489562  0.190562
0.685940  0.550627  0.157222
0.714811  0.570553  0.179693
0.770682  0.602599  0.169416
0.806542  0.617787  0.162018
0.849543  0.653940  0.162334
0.266553  0.299337  0.262930
0.290104  0.322425  0.280421
0.322075  0.343681  0.273862
0.358007  0.355924  0.267413
0.408357  0.375997  0.243376
0.450657  0.406448  0.265375
0.501999  0.432803  0.235360
0.546469  0.460428  0.210599
0.582680  0.494448  0.231121
0.660844  0.532948  0.186967
0.731700  0.581109  0.163989
0.755020  0.600777  0.171346
0.777973  0.617292  0.178904
0.847094  0.665794  0.193410
0.903346  0.708046  0.183122
0.285262  0.322515  0.300828
0.334165  0.346338  0.277151
0.375414  0.367498  0.271835
0.392798  0.376131  0.271524
0.473048  0.415433  0.254222
0.516177  0.440966  0.249223
0.522840  0.449644  0.249994
0.600982  0.497323  0.233068
0.639260  0.524579  0.203049
0.666272  0.546622  0.201130
0.748118  0.596654  0.161338
0.795837  0.637189  0.166804
0.813391  0.658931  0.170829
0.885563  0.704950  0.180905
