LUT/LUT_18.CUBE
TITLE "LUT_18" 
#LUT size 
LUT_3D_SIZE 8 
DOMAIN_MIN 0.0 0.0 0.0 
DOMAIN_MAX 1.0 1.0 1.0 
#data point 
0.053848  0.056608  0.026860
0.095899  0.091254  0.046579
0.195086  0.165817  0.067255
0.321140  0.237170  0.052079
0.430442  0.284912  0.048823
0.540357  0.326482  0.040523
0.663919  0.378690  0.044547
0.795470  0.412816  0.042440
0.101069  0.098239  0.050237
0.134885  0.120902  0.056368
0.245506  0.200027  0.066880
0.366013  0.264192  0.067151
0.468124  0.320588  0.057643
0.571901  0.362720  0.049897
0.696272  0.415285  0.049228
0.820168  0.460405  0.054741
0.144941  0.131374  0.070151
0.219139  0.185774  0.084338
0.304778  0.235023  0.074577
0.403816  0.297315  0.072220
0.521339  0.359356  0.060947
0.611134  0.417633  0.060748
0.735637  0.463159  0.058797
0.863773  0.505204  0.057195
0.226591  0.196715  0.083228
0.307405  0.253342  0.093280
0.381778  0.302885  0.075116
0.455556  0.361208  0.074571
0.554772  0.419878  0.063209
0.663110  0.484811  0.060066
0.767711  0.527532  0.053874
0.907137  0.562806  0.060475
0.303618  0.250457  0.106981
0.379610  0.309849  0.068381
0.464338  0.387324  0.083931
0.527288  0.439561  0.071606
0.610860  0.509553  0.074395
0.696221  0.565481  0.070885
0.819435  0.606710  0.066032
0.939688  0.658634  0.061283
0.376077  0.324663  0.091262
0.459212  0.392353  0.076937
0.549884  0.453036  0.078378
0.607153  0.508879  0.084290
0.694912  0.585898  0.067431
0.767499  0.648568  0.067411
0.863175  0.698953  0.075258
0.957311  0.738415  0.080415
0.455334  0.391443  0.083859
0.530178  0.448807  0.071410
0.605523  0.520789  0.076083
0.680578  0.585620  0.070243
0.753957  0.637885  0.074040
0.827420  0.691620  0.068889
0.912732  0.752738  0.080633
1.023018  0.806823  0.081304
0.533248  0.460665  0.077591
0.599813  0.518715  0.072311
0.675710  0.585274  0.075278
0.735959  0.629344  0.077759
0.809443  0.687976  0.067387
0.884471  0.732221  0.083527
0.972211  0.788408  0.084695
1.076553  0.849535  0.080395
0.090504  0.082065  0.040590
0.116745  0.108594  0.061232
0.197629  0.164570  0.076431
0.314125  0.236879  0.060854
0.441264  0.295112  0.053696
0.535528  0.338790  0.046516
0.651508  0.385182  0.041731
0.793560  0.414951  0.039922
0.121383  0.124510  0.083913
0.153983  0.156732  0.099686
0.228294  0.206441  0.112403
0.350011  0.278079  0.088830
0.470287  0.330960  0.077043
0.574885  0.385500  0.060536
0.704631  0.430049  0.055730
0.810794  0.467568  0.049093
0.143966  0.172963  0.149446
0.200427  0.210812  0.156368
0.291125  0.257088  0.136727
0.395295  0.314420  0.132179
0.504691  0.378269  0.114498
0.617689  0.431479  0.103913
0.729851  0.475945  0.079672
0.856160  0.530113  0.063662
0.208620  0.226600  0.186030
0.282112  0.271091  0.188359
0.359221  0.320278  0.171258
0.457351  0.379553  0.152131
0.543252  0.420381  0.132936
0.656517  0.495325  0.134448
0.772687  0.529377  0.126419
0.895231  0.580779  0.089547
0.275140  0.271724  0.204017
0.353434  0.320613  0.183392
0.435089  0.381429  0.193248
0.526858  0.449002  0.163869
0.631369  0.511101  0.123604
0.714329  0.566292  0.123044
0.814736  0.613222  0.131290
0.933261  0.663002  0.115903
0.363598  0.331450  0.197488
0.433520  0.394315  0.205050
0.516626  0.446365  0.160900
0.587369  0.515400  0.157730
0.680035  0.585368  0.114330
0.761423  0.636199  0.130707
0.859315  0.709962  0.128748
0.981525  0.756754  0.129026
0.437007  0.388446  0.196181
0.512374  0.447446  0.171874
0.585158  0.506309  0.176002
0.665559  0.569259  0.140242
0.750556  0.641703  0.133521
0.814148  0.694880  0.139977
0.916060  0.757417  0.127524
1.010239  0.802087  0.126729
0.497535  0.448042  0.202691
0.585261  0.526863  0.170989
0.677846  0.571709  0.147797
0.736721  0.638748  0.139192
0.802590  0.689001  0.144550
0.898435  0.754985  0.130525
0.962862  0.800342  0.145509
1.066854  0.854242  0.135918
0.125783  0.142738  0.113881
0.143323  0.162624  0.130481
0.189787  0.200636  0.142603
0.324160  0.266196  0.119693
0.445032  0.311527  0.092555
0.545228  0.365980  0.086161
0.669550  0.407800  0.074910
0.782076  0.443279  0.073419
0.151303  0.181823  0.168170
0.177057  0.217758  0.207428
0.230137  0.254437  0.220707
0.347344  0.308657  0.179416
0.480260  0.366406  0.136788
0.564403  0.405166  0.135826
0.688356  0.456926  0.119370
0.817699  0.505044  0.106227
0.194084  0.242093  0.239622
0.213754  0.269994  0.272489
0.248575  0.282350  0.255610
0.382281  0.361155  0.251994
0.504280  0.409962  0.220225
0.611712  0.457998  0.169651
0.737961  0.521596  0.161588
0.847984  0.557782  0.153428
0.203223  0.276157  0.281461
0.257488  0.319709  0.321761
0.318470  0.345938  0.311959
0.417722  0.405460  0.313609
0.532884  0.454840  0.266982
0.648001  0.502356  0.229758
0.761376  0.568201  0.217387
0.870532  0.609484  0.198029
0.253245  0.321627  0.323692
0.332353  0.368056  0.328666
0.409415  0.405981  0.329768
0.494932  0.464728  0.330305
0.584511  0.511325  0.302213
0.700392  0.576242  0.291789
0.822232  0.641208  0.249326
0.941153  0.676281  0.254787
0.317644  0.372029  0.359373
0.398171  0.412369  0.355359
0.477804  0.461666  0.333791
0.564884  0.518981  0.319019
0.664082  0.597735  0.319703
0.759731  0.646689  0.283074
0.862045  0.709071  0.263824
0.975174  0.751172  0.268687
0.378907  0.406253  0.361521
0.465400  0.463047  0.349816
0.560226  0.525449  0.334447
0.630864  0.573288  0.332661
0.731703  0.644245  0.322474
0.810056  0.697080  0.308240
0.916052  0.754676  0.258660
1.019768  0.810722  0.251831
0.452163  0.455117  0.366816
0.564546  0.527238  0.348457
0.632341  0.587345  0.331875
0.710027  0.635211  0.319323
0.779326  0.685418  0.313038
0.890311  0.747271  0.282023
0.967288  0.792054  0.287733
1.065698  0.857946  0.264052
0.151887  0.193403  0.177853
0.174511  0.216592  0.211833
0.212883  0.250955  0.242498
0.302090  0.301813  0.236065
0.448376  0.359130  0.176455
0.555802  0.401519  0.152528
0.667310  0.447886  0.148904
0.781280  0.484357  0.142401
0.176004  0.223715  0.223482
0.207152  0.265416  0.269543
0.257307  0.312097  0.301241
0.335938  0.350279  0.297666
0.466329  0.408578  0.233503
0.575036  0.448120  0.224946
0.690617  0.488359  0.186176
0.814407  0.545121  0.198954
0.220538  0.279610  0.284006
0.247180  0.313570  0.328644
0.282592  0.360943  0.368267
0.389064  0.410656  0.356571
0.472138  0.452742  0.356812
0.611339  0.501465  0.282375
0.728317  0.566189  0.269255
0.850841  0.602518  0.264721
0.246630  0.325672  0.349555
0.288334  0.370990  0.387808
0.302897  0.396633  0.426978
0.400588  0.438432  0.402510
0.513592  0.496806  0.391389
0.650725  0.557256  0.345433
0.756105  0.608302  0.332463
0.886811  0.649735  0.313489
0.290592  0.382618  0.410757
0.334675  0.425131  0.448364
0.371014  0.448642  0.460088
0.474732  0.502957  0.448446
0.557192  0.558286  0.477929
0.667369  0.597432  0.416809
0.796192  0.661109  0.390444
0.916123  0.724503  0.369397
0.320324  0.423642  0.455909
0.363601  0.455512  0.466953
0.460980  0.494276  0.461469
0.529426  0.547722  0.477815
0.613703  0.599207  0.478672
0.725323  0.670945  0.477548
0.856878  0.727553  0.438995
0.948409  0.766488  0.418695
0.352436  0.459363  0.501608
0.427052  0.505562  0.497272
0.524869  0.540943  0.476972
0.608268  0.596119  0.486048
0.700067  0.658533  0.482798
0.797553  0.709479  0.452889
0.896497  0.773779  0.455415
1.013478  0.824199  0.464149
0.400667  0.501447  0.523660
0.498681  0.528434  0.492960
0.584878  0.591776  0.495725
0.669072  0.642625  0.487610
0.798063  0.715234  0.458347
0.861038  0.756658  0.458455
0.964365  0.816708  0.479007
1.065550  0.861155  0.461261
0.168620  0.233441  0.242392
0.206839  0.276053  0.289635
0.237896  0.306360  0.321246
0.320523  0.352341  0.310984
0.423947  0.398459  0.301989
0.554973  0.446471  0.246084
0.686784  0.503929  0.233477
0.803373  0.519294  0.197030
0.212881  0.283558  0.301344
0.240111  0.316706  0.336879
0.265451  0.350413  0.372919
0.341859  0.403906  0.395492
0.441661  0.443888  0.377834
0.561990  0.490819  0.330402
0.684352  0.540347  0.281699
0.807596  0.580868  0.269341
0.253826  0.336889  0.365879
0.278173  0.369089  0.395821
0.308592  0.404028  0.437837
0.379073  0.456793  0.464178
0.479328  0.497506  0.447240
0.579820  0.541846  0.415363
0.721055  0.597105  0.365517
0.840010  0.637950  0.338047
0.287287  0.376190  0.404530
0.319116  0.415738  0.445475
0.350391  0.454170  0.494781
0.383225  0.490476  0.520673
0.512488  0.545316  0.500152
0.620111  0.600541  0.489886
0.752417  0.646603  0.440924
0.870170  0.699446  0.403527
0.327739  0.426610  0.458228
0.357499  0.469082  0.513698
0.395229  0.512429  0.543518
0.448929  0.559601  0.579419
0.547528  0.600408  0.561605
0.662003  0.656594  0.560874
0.792574  0.707610  0.503577
0.914276  0.765868  0.475247
0.357802  0.472898  0.514455
0.389885  0.504358  0.541959
0.436015  0.556414  0.597607
0.484281  0.600182  0.622669
0.599113  0.634981  0.590466
0.706763  0.704069  0.616534
0.825836  0.758038  0.596521
0.950820  0.803981  0.544343
0.395376  0.511639  0.554222
0.429923  0.554574  0.594192
0.478295  0.595070  0.629256
0.567218  0.638347  0.616396
0.686740  0.689499  0.596020
0.772951  0.744355  0.628235
0.887274  0.798043  0.602390
1.001101  0.850063  0.585258
0.438648  0.566341  0.606482
0.471571  0.600901  0.636357
0.542290  0.636023  0.635129
0.647795  0.679318  0.622202
0.751328  0.732052  0.621763
0.845264  0.771043  0.617302
0.951819  0.837664  0.611616
1.054828  0.881193  0.603153
0.217433  0.299919  0.324436
0.236989  0.325687  0.351183
0.270776  0.366403  0.401600
0.318491  0.398914  0.399446
0.434898  0.443495  0.373226
0.532288  0.486029  0.363153
0.662542  0.523507  0.314842
0.804454  0.570865  0.291252
0.253289  0.340438  0.375529
0.279219  0.380383  0.413629
0.314731  0.414210  0.450894
0.355203  0.447781  0.470208
0.463371  0.496299  0.459159
0.561626  0.545353  0.451455
0.683920  0.598033  0.405642
0.830350  0.633791  0.363149
0.292089  0.389714  0.429219
0.325930  0.429443  0.466723
0.364391  0.477497  0.511373
0.401569  0.509448  0.533752
0.469736  0.540260  0.532823
0.598316  0.605980  0.528912
0.709256  0.645977  0.476175
0.844912  0.694767  0.449883
0.323853  0.432735  0.475135
0.359216  0.475235  0.514600
0.404714  0.528339  0.559424
0.430938  0.553923  0.589453
0.488775  0.598468  0.615996
0.621265  0.640921  0.570464
0.737374  0.690705  0.538628
0.868370  0.760853  0.546630
0.364613  0.478313  0.527403
0.395812  0.523492  0.563760
0.442541  0.563544  0.598352
0.466549  0.602191  0.638119
0.532323  0.654832  0.680357
0.641193  0.686705  0.640340
0.767142  0.741887  0.619916
0.917493  0.806978  0.600275
0.395824  0.517202  0.563811
0.429811  0.558963  0.606804
0.480161  0.605273  0.647238
0.517799  0.644670  0.678492
0.576581  0.704930  0.735228
0.694954  0.748156  0.719122
0.817188  0.797538  0.696619
0.945208  0.843785  0.660803
0.447171  0.572642  0.611788
0.484973  0.611753  0.649505
0.540224  0.666053  0.699990
0.563191  0.689391  0.724678
0.640135  0.743684  0.757795
0.739071  0.787945  0.746996
0.871196  0.831544  0.727419
0.977255  0.874904  0.704722
0.480835  0.613253  0.651119
0.508413  0.647123  0.688534
0.554107  0.694974  0.739187
0.608607  0.732826  0.755562
0.705253  0.780657  0.777029
0.831996  0.825936  0.739510
0.920386  0.860676  0.747224
1.025684  0.910024  0.738680
0.257327  0.353841  0.397299
0.286555  0.388400  0.437851
0.317379  0.431181  0.473368
0.349625  0.466928  0.513133
0.420743  0.491448  0.486616
0.529755  0.534584  0.466754
0.652835  0.578266  0.413219
0.793504  0.616517  0.387653
0.296698  0.408774  0.452226
0.319628  0.439714  0.481541
0.359513  0.474491  0.511496
0.395310  0.520648  0.564229
0.440224  0.542834  0.569498
0.567196  0.589169  0.516368
0.675038  0.639385  0.504655
0.809937  0.684223  0.461282
0.328245  0.442826  0.487454
0.367854  0.487792  0.527371
0.406792  0.525925  0.561013
0.441751  0.564164  0.606514
0.482915  0.607823  0.638245
0.592295  0.646219  0.599362
0.707777  0.691659  0.589879
0.829007  0.739911  0.557766
0.362637  0.486680  0.534314
0.395485  0.520249  0.554018
0.445812  0.572996  0.612463
0.492271  0.625343  0.666370
0.538383  0.665163  0.700503
0.608648  0.688550  0.685986
0.753355  0.745108  0.648718
0.870759  0.795572  0.626683
0.396803  0.526845  0.564613
0.445904  0.577885  0.616737
0.484570  0.611528  0.650485
0.531641  0.671111  0.720192
0.571275  0.715203  0.767200
0.636437  0.743017  0.752776
0.777846  0.779940  0.700438
0.903127  0.833849  0.703524
0.435557  0.575076  0.622718
0.484239  0.617020  0.653050
0.529357  0.669690  0.708445
0.580370  0.722987  0.771516
0.604916  0.748188  0.810832
0.675422  0.798962  0.844887
0.798796  0.838089  0.807778
0.932367  0.871835  0.753852
0.487158  0.618688  0.663151
0.517385  0.657214  0.698399
0.554261  0.700855  0.753841
0.613072  0.756319  0.816879
0.667165  0.788352  0.838606
0.729908  0.840477  0.888116
0.828141  0.889978  0.891691
0.972227  0.911063  0.812681
0.517588  0.659317  0.705122
0.551522  0.699225  0.751729
0.588044  0.735589  0.802568
0.653164  0.786664  0.849332
0.707374  0.821128  0.876429
0.781663  0.878209  0.915015
0.879671  0.927017  0.921558
1.006309  0.946457  0.869007
0.287321  0.413969  0.468067
0.317851  0.444043  0.497505
0.359871  0.486488  0.537914
0.395226  0.522331  0.570600
0.443002  0.569837  0.616698
0.518444  0.593547  0.580428
0.654087  0.636990  0.528574
0.803948  0.678586  0.494663
0.325951  0.450228  0.506758
0.364103  0.489272  0.542126
0.406627  0.535002  0.585912
0.443446  0.578057  0.620672
0.487098  0.621852  0.662703
0.545192  0.657388  0.675909
0.661240  0.689628  0.626749
0.801958  0.732234  0.570455
0.362400  0.491095  0.544463
0.403293  0.539357  0.583953
0.453174  0.580888  0.624964
0.499983  0.632682  0.677189
0.526722  0.680287  0.733130
0.587890  0.722797  0.763185
0.701509  0.735862  0.691731
0.844616  0.788661  0.660694
0.408600  0.536312  0.584467
0.439656  0.579216  0.625614
0.491056  0.625867  0.670867
0.534865  0.684162  0.733711
0.565569  0.707865  0.780912
0.616784  0.755509  0.805077
0.708070  0.797908  0.818156
0.854566  0.827329  0.727739
0.436135  0.572309  0.613736
0.482923  0.618471  0.654086
0.522648  0.659878  0.714602
0.561694  0.708686  0.771627
0.602119  0.750069  0.812206
0.659865  0.789115  0.844561
0.741782  0.857615  0.894974
0.878777  0.882363  0.828215
0.466577  0.603407  0.649489
0.516396  0.655090  0.695079
0.559234  0.704668  0.765148
0.598131  0.738929  0.805279
0.644635  0.782043  0.839807
0.721199  0.832307  0.880161
0.796295  0.888291  0.925561
0.880336  0.924968  0.923974
0.515740  0.659762  0.707459
0.550185  0.701836  0.766366
0.586119  0.737880  0.802835
0.637456  0.769782  0.833508
0.693173  0.816224  0.866962
0.772881  0.871022  0.909386
0.840923  0.914477  0.946445
0.926278  0.964309  0.974997
0.536059  0.687194  0.750027
0.568927  0.725206  0.794715
0.622062  0.766746  0.835433
0.686604  0.817571  0.862871
0.745268  0.852870  0.897969
0.830312  0.908153  0.939961
0.901519  0.948720  0.966540
0.970892  0.987510  0.993740
