LUT/LUT_26.CUBE
TITLE "LUT_26" 
#LUT size 
LUT_3D_SIZE 15 
DOMAIN_MIN 0.0 0.0 0.0 
DOMAIN_MAX 1.0 1.0 1.0 
#data point 
0.071317  0.065470  0.031378
0.081963  0.079113  0.036699
0.099143  0.095412  0.048241
0.123583  0.118921  0.066305
0.185804  0.161755  0.069018
0.245772  0.200556  0.072830
0.311126  0.236805  0.057683
0.353966  0.265869  0.062408
0.422618  0.303006  0.061720
0.463514  0.333253  0.065103
0.529781  0.353801  0.055742
0.560921  0.384115  0.058868
0.633210  0.403657  0.053783
0.689846  0.436053  0.058340
0.757366  0.462906  0.054115
0.083837  0.078690  0.037180
0.090497  0.085970  0.035479
0.114791  0.107051  0.054156
0.153545  0.137004  0.067497
0.206428  0.174479  0.078444
0.265860  0.217592  0.080099
0.329965  0.252187  0.074174
0.386596  0.285632  0.063086
0.430592  0.316866  0.070068
0.469862  0.332264  0.055504
0.536702  0.365661  0.058035
0.594366  0.408013  0.062889
0.662748  0.440600  0.055059
0.708017  0.467606  0.052512
0.768340  0.476318  0.058006
0.109055  0.100160  0.048329
0.096269  0.093946  0.048167
0.127316  0.120975  0.055723
0.163729  0.157040  0.084114
0.229185  0.196565  0.087189
0.279441  0.226821  0.075402
0.357656  0.271063  0.089178
0.397584  0.294856  0.066727
0.462248  0.328946  0.071003
0.502179  0.359506  0.073160
0.547766  0.385644  0.065697
0.621604  0.429909  0.065836
0.662434  0.447767  0.062189
0.733941  0.468707  0.061449
0.785973  0.502650  0.057874
0.113698  0.111882  0.057932
0.134440  0.122043  0.065902
0.162039  0.145544  0.066383
0.207710  0.182083  0.085263
0.269897  0.225253  0.083769
0.316046  0.256118  0.086584
0.376780  0.283280  0.068504
0.428361  0.317780  0.072796
0.481041  0.348542  0.061996
0.512717  0.374734  0.060265
0.574350  0.400918  0.068097
0.638297  0.436245  0.074783
0.680529  0.461157  0.054367
0.757054  0.486849  0.055888
0.811840  0.533997  0.056603
0.151656  0.142057  0.080138
0.173831  0.155734  0.086678
0.220093  0.190224  0.092796
0.246319  0.209122  0.096705
0.294023  0.238466  0.084056
0.356763  0.277161  0.091560
0.395220  0.310726  0.084634
0.454742  0.332962  0.077356
0.501593  0.373687  0.074694
0.554277  0.399509  0.064088
0.592947  0.437292  0.071995
0.673908  0.474050  0.064471
0.708617  0.485776  0.060884
0.765552  0.519328  0.062510
0.832762  0.544367  0.059843
0.167798  0.163630  0.101563
0.209871  0.185289  0.089774
0.250014  0.208959  0.090321
0.300750  0.242928  0.087104
0.344779  0.268580  0.075957
0.369394  0.290799  0.092448
0.422853  0.327493  0.076411
0.488890  0.365521  0.085135
0.521399  0.381974  0.068293
0.558708  0.417108  0.063391
0.629420  0.456283  0.066189
0.672576  0.485677  0.071139
0.746105  0.514102  0.070574
0.793655  0.545714  0.066947
0.843791  0.562768  0.071018
0.228124  0.188973  0.086078
0.259498  0.220612  0.105147
0.309197  0.250920  0.106887
0.346925  0.281066  0.097187
0.381327  0.297742  0.084187
0.425949  0.335932  0.088356
0.450822  0.352009  0.077056
0.516187  0.401612  0.087452
0.552959  0.414126  0.073742
0.620739  0.477757  0.074079
0.653436  0.480173  0.067987
0.690204  0.506989  0.073027
0.750519  0.535727  0.072648
0.811953  0.570968  0.065028
0.877885  0.598352  0.067431
0.281821  0.238452  0.107756
0.306596  0.254949  0.102339
0.333699  0.268349  0.102385
0.384065  0.292963  0.088478
0.427858  0.340016  0.094055
0.468230  0.370354  0.074818
0.487864  0.385094  0.081269
0.540392  0.415734  0.077434
0.584438  0.459271  0.082174
0.640908  0.488678  0.067493
0.676814  0.528002  0.075980
0.730788  0.558765  0.075091
0.778818  0.583080  0.077745
0.847339  0.610532  0.076034
0.907876  0.634735  0.068237
0.297583  0.259083  0.109464
0.355864  0.288715  0.102022
0.386687  0.299567  0.083751
0.413637  0.324498  0.085709
0.474300  0.371050  0.088796
0.497021  0.393619  0.086047
0.525868  0.413815  0.082057
0.579153  0.456598  0.081510
0.610607  0.497145  0.066086
0.669781  0.538511  0.069630
0.697470  0.561170  0.078382
0.740950  0.591338  0.088027
0.811245  0.613764  0.081575
0.842824  0.660679  0.079805
0.919161  0.676805  0.072743
0.369653  0.299549  0.107833
0.393559  0.315703  0.093288
0.425214  0.335316  0.087118
0.461081  0.369301  0.093791
0.497860  0.395629  0.083821
0.536409  0.424230  0.085107
0.579554  0.467139  0.078429
0.627077  0.501021  0.082711
0.657127  0.537139  0.070888
0.700035  0.578660  0.075035
0.747304  0.607469  0.077286
0.776033  0.630090  0.074186
0.824695  0.662768  0.081997
0.874536  0.677834  0.079292
0.924480  0.715642  0.081481
0.384842  0.314981  0.111213
0.426488  0.338031  0.093948
0.460222  0.384188  0.086895
0.494267  0.397247  0.088466
0.558822  0.444077  0.089011
0.578988  0.471206  0.081604
0.612739  0.490153  0.089124
0.660379  0.541313  0.072926
0.701393  0.580680  0.070354
0.726313  0.597981  0.069768
0.781635  0.651415  0.075555
0.804099  0.658742  0.078202
0.858708  0.700925  0.072924
0.914434  0.720683  0.075612
0.951136  0.747834  0.087614
0.433668  0.348355  0.087787
0.465153  0.372558  0.092515
0.500827  0.402526  0.085809
0.538483  0.425988  0.083779
0.577831  0.474039  0.069440
0.626294  0.505282  0.076978
0.646221  0.538805  0.074535
0.677220  0.566633  0.073167
0.732951  0.619953  0.080157
0.759380  0.638911  0.070456
0.798522  0.668942  0.084483
0.846859  0.698566  0.077583
0.889499  0.712958  0.072691
0.920870  0.753532  0.081804
0.985156  0.774677  0.078208
0.466467  0.378457  0.090718
0.496623  0.403996  0.078863
0.529065  0.426901  0.080665
0.582952  0.470583  0.074208
0.621078  0.505261  0.084991
0.646958  0.537025  0.087263
0.695069  0.573662  0.072954
0.719652  0.587020  0.079574
0.761422  0.628545  0.080629
0.785130  0.656594  0.079062
0.830966  0.684159  0.081062
0.892109  0.719087  0.083685
0.911462  0.739763  0.085684
0.949540  0.770322  0.076162
1.026739  0.791535  0.086589
0.506085  0.413867  0.087263
0.545891  0.456310  0.081788
0.578182  0.483393  0.075194
0.620835  0.509056  0.085682
0.650788  0.544497  0.080879
0.678475  0.555375  0.068782
0.720822  0.601946  0.073060
0.761546  0.625361  0.077692
0.782054  0.651161  0.081605
0.812297  0.670265  0.082120
0.860072  0.696571  0.074126
0.892684  0.732373  0.081734
0.943120  0.761937  0.085760
0.984593  0.789988  0.087516
1.021349  0.802910  0.084231
0.538027  0.436811  0.087658
0.569322  0.466017  0.091811
0.607352  0.504976  0.091227
0.653010  0.542605  0.065721
0.686851  0.561513  0.072866
0.704431  0.589159  0.084964
0.747085  0.619323  0.088486
0.790189  0.657686  0.082817
0.802433  0.671950  0.080775
0.851543  0.702706  0.079041
0.889359  0.723058  0.089707
0.922191  0.756538  0.081640
0.973805  0.778073  0.087273
1.020283  0.805911  0.079497
1.076100  0.842050  0.084304
0.074080  0.073837  0.036635
0.089046  0.086172  0.039045
0.107052  0.094659  0.042330
0.119218  0.113950  0.053959
0.173323  0.150682  0.071067
0.243585  0.195910  0.068929
0.313202  0.250054  0.079451
0.364525  0.274510  0.063368
0.416333  0.299632  0.058878
0.448102  0.309642  0.058744
0.520515  0.351578  0.056186
0.577008  0.383786  0.056375
0.641023  0.413063  0.053066
0.685295  0.446648  0.055537
0.739961  0.464601  0.057170
0.088462  0.082387  0.038890
0.100873  0.090417  0.043995
0.119007  0.108471  0.051240
0.152966  0.139981  0.069321
0.203805  0.177944  0.083362
0.283083  0.227868  0.076681
0.328267  0.247932  0.070409
0.372109  0.284004  0.072764
0.433365  0.314160  0.065560
0.495799  0.348372  0.064160
0.526845  0.368405  0.057752
0.581081  0.396679  0.053919
0.652589  0.440785  0.054824
0.706589  0.451887  0.059840
0.768268  0.487117  0.055630
0.099970  0.095066  0.046083
0.114991  0.106664  0.057694
0.147199  0.135009  0.071662
0.175388  0.157818  0.077886
0.217973  0.195585  0.092621
0.300710  0.243083  0.072460
0.332326  0.258720  0.071368
0.396204  0.294558  0.073738
0.447924  0.326424  0.071034
0.500019  0.353645  0.063988
0.557236  0.386044  0.068891
0.611761  0.427580  0.057824
0.680403  0.446982  0.052992
0.721784  0.487143  0.059724
0.809678  0.509262  0.061527
0.128792  0.125552  0.070153
0.143884  0.136238  0.074499
0.166762  0.159885  0.087616
0.193985  0.182334  0.095772
0.250524  0.222173  0.094428
0.325760  0.258045  0.082374
0.360016  0.284457  0.090097
0.428544  0.327667  0.083109
0.472513  0.354699  0.081434
0.512623  0.375756  0.074213
0.575911  0.413494  0.075374
0.635128  0.442619  0.069948
0.687301  0.471208  0.059626
0.723009  0.488225  0.065003
0.809461  0.524238  0.057163
0.159086  0.153911  0.092561
0.171903  0.159434  0.096406
0.203855  0.194641  0.112138
0.241326  0.212660  0.108853
0.294881  0.253434  0.115257
0.348729  0.275261  0.086849
0.389935  0.311648  0.091163
0.439214  0.331601  0.076649
0.495898  0.376823  0.086763
0.543753  0.408522  0.089823
0.591824  0.427372  0.068100
0.656088  0.465186  0.064559
0.718403  0.493923  0.082207
0.777106  0.514561  0.066103
0.810445  0.549958  0.066106
0.184244  0.170628  0.103060
0.215724  0.190037  0.110594
0.246227  0.227372  0.130774
0.291000  0.245678  0.125620
0.344909  0.269439  0.101367
0.397669  0.306784  0.095476
0.450674  0.337476  0.088384
0.468661  0.353035  0.106407
0.513244  0.391930  0.084604
0.568056  0.427549  0.098797
0.612984  0.458591  0.075316
0.672583  0.489522  0.075586
0.721782  0.510856  0.078699
0.801121  0.548507  0.065529
0.865240  0.587089  0.061789
0.232359  0.219712  0.145915
0.265345  0.231106  0.118374
0.284158  0.255956  0.141712
0.323514  0.271664  0.128433
0.387817  0.307428  0.105462
0.420581  0.340205  0.101499
0.467301  0.360710  0.093720
0.508877  0.391676  0.105974
0.544796  0.422023  0.101080
0.595094  0.447990  0.095323
0.655879  0.490131  0.084626
0.692279  0.523637  0.076620
0.761944  0.549776  0.071352
0.813996  0.582990  0.063715
0.871552  0.605664  0.061495
0.261045  0.240075  0.125965
0.288289  0.260961  0.132663
0.337705  0.290937  0.145232
0.371784  0.312735  0.142574
0.428255  0.340386  0.097947
0.455101  0.364289  0.103228
0.511131  0.403659  0.094670
0.551480  0.425973  0.089469
0.587236  0.456361  0.092059
0.615159  0.483401  0.084672
0.678311  0.524975  0.080754
0.720537  0.547011  0.079912
0.786878  0.578142  0.066990
0.840719  0.598182  0.069940
0.910805  0.627201  0.077750
0.310078  0.264965  0.133345
0.349026  0.293931  0.142285
0.377272  0.316129  0.118353
0.396046  0.331602  0.121135
0.449756  0.362886  0.109891
0.501671  0.399320  0.108366
0.533996  0.425775  0.110493
0.585686  0.467159  0.081686
0.612496  0.493941  0.088849
0.672220  0.541054  0.093159
0.706588  0.565724  0.089607
0.754619  0.596091  0.087870
0.801245  0.617766  0.080395
0.866730  0.656289  0.095120
0.910209  0.670429  0.079253
0.329779  0.282372  0.128501
0.387524  0.324212  0.128701
0.417905  0.348087  0.137290
0.472232  0.376290  0.108173
0.494972  0.404497  0.108946
0.555962  0.441725  0.091283
0.587803  0.479017  0.104373
0.614939  0.507363  0.093340
0.663340  0.546097  0.091082
0.690202  0.569789  0.093390
0.746988  0.615710  0.074590
0.775603  0.629140  0.078869
0.828166  0.648309  0.074955
0.883191  0.686050  0.079585
0.945070  0.719096  0.081581
0.373450  0.321940  0.147700
0.395245  0.333449  0.136895
0.434112  0.359236  0.126733
0.505359  0.409866  0.111362
0.539599  0.433166  0.113651
0.583984  0.475464  0.097459
0.635040  0.521693  0.085242
0.666514  0.544740  0.089436
0.698363  0.581165  0.087942
0.733581  0.611590  0.084096
0.781879  0.636300  0.083087
0.822569  0.671054  0.095145
0.853697  0.683442  0.065020
0.922205  0.718336  0.091686
0.954160  0.729207  0.096481
0.408160  0.340816  0.136875
0.454117  0.372351  0.130673
0.505666  0.419730  0.110597
0.535178  0.428719  0.104525
0.575251  0.482764  0.113167
0.613167  0.504905  0.095409
0.636537  0.523342  0.110824
0.681687  0.564191  0.105451
0.720264  0.590900  0.088655
0.737167  0.623632  0.091974
0.795444  0.657510  0.077542
0.851263  0.685485  0.095876
0.895956  0.729978  0.093105
0.920897  0.747417  0.088724
0.975904  0.773540  0.079859
0.468972  0.385329  0.120111
0.515037  0.428065  0.084355
0.545309  0.440830  0.112122
0.598328  0.481270  0.093238
0.613220  0.497445  0.094151
0.652043  0.542552  0.107964
0.699790  0.578338  0.096473
0.712435  0.585310  0.094993
0.761652  0.629281  0.094531
0.793007  0.661634  0.095291
0.823632  0.680499  0.092527
0.885416  0.718072  0.097644
0.911353  0.746387  0.091772
0.980088  0.772814  0.083777
1.004385  0.784012  0.087071
0.489878  0.399634  0.126568
0.522106  0.422103  0.108931
0.576265  0.469140  0.090596
0.595658  0.482970  0.093994
0.655302  0.543341  0.093890
0.675351  0.559959  0.081794
0.700522  0.590155  0.105400
0.761890  0.635531  0.081665
0.789728  0.652400  0.091771
0.819912  0.686362  0.103075
0.864869  0.715624  0.093497
0.887767  0.727046  0.100218
0.935520  0.759688  0.093355
0.984692  0.788541  0.078896
1.023263  0.812693  0.093803
0.545690  0.440621  0.122041
0.579985  0.475734  0.094557
0.598071  0.481356  0.104425
0.639749  0.516865  0.097557
0.669004  0.560339  0.096442
0.715824  0.591804  0.094786
0.748621  0.620240  0.094533
0.780705  0.646652  0.101218
0.815066  0.675811  0.102114
0.856488  0.703374  0.101654
0.896443  0.732448  0.111631
0.920278  0.754072  0.099259
0.974229  0.790659  0.093984
1.035910  0.812754  0.091567
1.077883  0.840210  0.099120
0.096776  0.088827  0.047295
0.109205  0.106936  0.063779
0.116814  0.111105  0.055946
0.155764  0.145759  0.073513
0.189052  0.164818  0.084134
0.243070  0.199748  0.078488
0.302832  0.242913  0.080761
0.376498  0.280152  0.067417
0.422503  0.300290  0.066763
0.466266  0.327044  0.071142
0.516302  0.356617  0.059433
0.572747  0.391353  0.065196
0.628228  0.418875  0.060941
0.702764  0.457290  0.059135
0.759009  0.461594  0.052828
0.113859  0.112768  0.061208
0.121847  0.120218  0.072691
0.139266  0.138357  0.075268
0.156716  0.148678  0.086956
0.218229  0.195644  0.094449
0.281456  0.238007  0.085198
0.342461  0.268841  0.088118
0.377205  0.283279  0.078997
0.445757  0.327322  0.065181
0.487106  0.347451  0.069270
0.543237  0.384600  0.067190
0.591213  0.411228  0.060835
0.648951  0.439821  0.069741
0.736176  0.470919  0.060415
0.767417  0.494180  0.063050
0.124617  0.124674  0.076297
0.138765  0.143273  0.102730
0.162868  0.160314  0.099164
0.183102  0.177825  0.106157
0.223710  0.203460  0.102260
0.295640  0.254157  0.117204
0.330251  0.272371  0.094072
0.390360  0.309413  0.092381
0.456072  0.341444  0.088189
0.516372  0.373209  0.091189
0.557124  0.404697  0.070394
0.614249  0.428483  0.070622
0.679048  0.453657  0.058286
0.730536  0.484374  0.068058
0.786610  0.507996  0.060758
0.149605  0.161272  0.111136
0.153026  0.161523  0.118274
0.165183  0.179045  0.140331
0.203738  0.194503  0.132634
0.236882  0.211185  0.122408
0.321084  0.276325  0.124417
0.365536  0.304265  0.124301
0.409885  0.318142  0.115661
0.483914  0.368667  0.092252
0.531430  0.388647  0.095041
0.569669  0.418910  0.087687
0.638034  0.449549  0.071302
0.686180  0.481925  0.079526
0.726361  0.495743  0.072031
0.802463  0.532888  0.064710
0.155622  0.170366  0.134130
0.192181  0.207184  0.173501
0.204910  0.210799  0.146994
0.227493  0.222670  0.153590
0.287588  0.259669  0.154149
0.331770  0.287616  0.138174
0.387825  0.320233  0.127331
0.450859  0.355871  0.119729
0.495437  0.386960  0.113847
0.544324  0.413695  0.105707
0.605339  0.442092  0.102420
0.664435  0.472081  0.088700
0.704091  0.498731  0.083420
0.764449  0.543461  0.079451
0.822511  0.564317  0.077465
0.174189  0.197578  0.167033
0.195352  0.205138  0.164313
0.236556  0.239177  0.171104
0.264005  0.249408  0.157463
0.313514  0.275238  0.162700
0.358227  0.318131  0.168434
0.417363  0.343116  0.145464
0.471925  0.364822  0.130633
0.534454  0.412762  0.102668
0.576208  0.436675  0.116578
0.631532  0.465293  0.094304
0.668769  0.499893  0.116363
0.721016  0.515737  0.090660
0.788626  0.567980  0.088432
0.838114  0.582318  0.083373
0.208084  0.221737  0.178360
0.232052  0.238149  0.180808
0.278824  0.268538  0.187157
0.318470  0.295447  0.177784
0.345520  0.313261  0.167686
0.398490  0.340814  0.161772
0.450861  0.368758  0.157809
0.494976  0.397287  0.136888
0.533010  0.416249  0.138013
0.581343  0.454944  0.123137
0.637493  0.492583  0.131627
0.700215  0.530644  0.129590
0.748783  0.554287  0.126198
0.819166  0.591283  0.105669
0.863713  0.610953  0.085227
0.265779  0.267537  0.206050
0.279769  0.282283  0.207203
0.329627  0.303018  0.185925
0.355421  0.322755  0.174589
0.394968  0.344304  0.178277
0.439001  0.372757  0.157362
0.495590  0.411807  0.165605
0.543752  0.434628  0.143714
0.598214  0.472124  0.123873
0.645521  0.502032  0.127028
0.679283  0.518236  0.127432
0.714542  0.544948  0.139839
0.769049  0.587622  0.117774
0.834672  0.619085  0.110920
0.883140  0.640036  0.107067
0.284989  0.278523  0.205428
0.328822  0.305016  0.192198
0.349603  0.309849  0.185835
0.402460  0.353401  0.187885
0.431336  0.371476  0.190816
0.465028  0.391851  0.182895
0.536958  0.440486  0.165350
0.564570  0.467854  0.138046
0.627403  0.502717  0.116899
0.668020  0.524777  0.126561
0.714856  0.563078  0.112754
0.743382  0.603357  0.126811
0.809470  0.620368  0.125707
0.853704  0.654524  0.129513
0.925031  0.677201  0.121713
0.315277  0.301569  0.220689
0.359326  0.330817  0.203760
0.399176  0.348962  0.177810
0.428492  0.371722  0.204092
0.464927  0.393717  0.187906
0.526838  0.431235  0.167898
0.573363  0.467130  0.167471
0.602160  0.494904  0.128656
0.661366  0.531499  0.138983
0.701060  0.578230  0.117629
0.745896  0.615099  0.127767
0.790126  0.634895  0.122044
0.837747  0.658535  0.143065
0.869410  0.695138  0.134547
0.921660  0.702007  0.122216
0.366518  0.335048  0.194014
0.395647  0.352519  0.200786
0.435650  0.386543  0.202734
0.497163  0.411993  0.168021
0.514724  0.433900  0.162452
0.552578  0.457362  0.178749
0.583309  0.497291  0.151982
0.646639  0.543137  0.143214
0.689482  0.571641  0.115146
0.727126  0.600221  0.128117
0.765483  0.631310  0.115800
0.797529  0.660078  0.119751
0.861716  0.704619  0.135920
0.906549  0.715054  0.131071
0.978989  0.757056  0.139929
0.402098  0.360328  0.201784
0.435910  0.379194  0.199991
0.491418  0.408217  0.184469
0.521583  0.434330  0.184238
0.568014  0.465693  0.175322
0.599942  0.498574  0.153144
0.628823  0.521000  0.150827
0.676267  0.561777  0.132098
0.723800  0.596050  0.149741
0.775496  0.637478  0.119461
0.794955  0.660378  0.127284
0.830664  0.693446  0.132540
0.889018  0.725310  0.124016
0.936825  0.758433  0.133215
0.982094  0.777791  0.144138
0.435993  0.380130  0.201997
0.461996  0.404238  0.196942
0.521632  0.434166  0.170776
0.544056  0.456126  0.194396
0.587672  0.492880  0.174193
0.642639  0.536250  0.167005
0.679814  0.562028  0.129534
0.706364  0.593339  0.139095
0.753389  0.626771  0.138164
0.787176  0.656121  0.133813
0.823607  0.692938  0.139508
0.864534  0.712216  0.143817
0.913301  0.744687  0.122227
0.965750  0.779511  0.151860
0.999889  0.782944  0.131009
0.464984  0.403569  0.206938
0.514764  0.441256  0.182416
0.527455  0.448327  0.189078
0.587059  0.497693  0.159104
0.620106  0.528106  0.153370
0.680171  0.572924  0.139654
0.712109  0.590605  0.140818
0.751537  0.636371  0.126357
0.779375  0.646831  0.138725
0.810054  0.672062  0.127693
0.841099  0.696140  0.129009
0.903073  0.742094  0.134529
0.932089  0.757741  0.134305
0.990321  0.788237  0.130763
1.033655  0.814432  0.146694
0.504508  0.441598  0.208767
0.553928  0.470784  0.199617
0.591628  0.508691  0.167659
0.630112  0.531304  0.155523
0.677207  0.550638  0.157261
0.698059  0.589561  0.146920
0.754959  0.628087  0.137852
0.779588  0.644898  0.135161
0.806131  0.680103  0.134501
0.862136  0.713338  0.143135
0.896691  0.739370  0.122075
0.921811  0.748932  0.140716
0.966811  0.782984  0.141498
1.025346  0.806491  0.123893
1.062601  0.833775  0.133300
0.118506  0.117407  0.072292
0.124180  0.122032  0.069852
0.142905  0.147407  0.099109
0.157682  0.165908  0.121744
0.197422  0.183015  0.090811
0.245244  0.206672  0.094574
0.320209  0.260304  0.093184
0.380670  0.293300  0.089984
0.405208  0.303482  0.079538
0.474916  0.342778  0.080580
0.516804  0.373381  0.078324
0.581812  0.398277  0.071100
0.618053  0.422709  0.069970
0.701639  0.448650  0.049312
0.750045  0.469112  0.058132
0.130820  0.139715  0.097238
0.135059  0.149959  0.111211
0.159009  0.162613  0.116337
0.182098  0.188619  0.131761
0.210186  0.201321  0.130926
0.262802  0.235688  0.121351
0.332796  0.282968  0.116917
0.386678  0.310937  0.110258
0.432161  0.330116  0.088659
0.484941  0.361808  0.086671
0.543898  0.388590  0.083482
0.598244  0.418855  0.080300
0.666397  0.453557  0.073569
0.711332  0.467418  0.065809
0.782627  0.504066  0.062832
0.140217  0.149586  0.115194
0.154151  0.173285  0.137171
0.174260  0.194578  0.155659
0.196265  0.213825  0.176381
0.224868  0.226168  0.160726
0.293214  0.260422  0.140590
0.352317  0.292776  0.137330
0.398429  0.327001  0.127073
0.459193  0.353030  0.101102
0.512338  0.381044  0.099061
0.554905  0.413826  0.099480
0.620154  0.438509  0.085944
0.656780  0.458376  0.086076
0.733334  0.498195  0.073706
0.817403  0.530591  0.065471
0.152156  0.176503  0.152813
0.167653  0.201199  0.180845
0.184562  0.215484  0.189891
0.202479  0.226555  0.191280
0.261409  0.255391  0.191219
0.303489  0.287385  0.176777
0.365560  0.320129  0.158548
0.412819  0.336024  0.131396
0.487929  0.381213  0.115673
0.542520  0.417815  0.113847
0.564729  0.417121  0.116898
0.628379  0.459644  0.104830
0.696939  0.500019  0.098143
0.738767  0.506565  0.086926
0.803662  0.535638  0.099758
0.174895  0.212090  0.193556
0.191363  0.227494  0.210512
0.192169  0.235530  0.213338
0.235423  0.252953  0.204424
0.268728  0.272281  0.204755
0.318671  0.303923  0.197692
0.361894  0.326240  0.189394
0.448201  0.364401  0.160520
0.481858  0.375135  0.154066
0.550703  0.421659  0.125608
0.600292  0.457219  0.125204
0.638861  0.482511  0.128579
0.696802  0.513790  0.131512
0.751828  0.545262  0.113233
0.830299  0.568328  0.102392
0.190696  0.227984  0.210849
0.201882  0.238492  0.214215
0.231997  0.267146  0.238480
0.246659  0.270283  0.241616
0.293345  0.302558  0.245050
0.353749  0.331222  0.217737
0.419036  0.365882  0.182663
0.470255  0.392126  0.199727
0.508997  0.408702  0.171862
0.542894  0.427062  0.171311
0.610017  0.477077  0.156987
0.660192  0.515676  0.147329
0.734387  0.542755  0.130246
0.773400  0.579129  0.133320
0.824346  0.588031  0.134696
0.217326  0.259349  0.246240
0.226606  0.256437  0.234180
0.259247  0.291276  0.256042
0.291265  0.312430  0.259719
0.334296  0.328080  0.236249
0.385616  0.365345  0.242694
0.429892  0.386275  0.210361
0.490315  0.409751  0.217158
0.538461  0.442296  0.195936
0.580951  0.456285  0.163131
0.631448  0.482255  0.173584
0.714286  0.534948  0.156123
0.741638  0.565859  0.165245
0.793412  0.604989  0.139070
0.865268  0.634852  0.152651
0.226045  0.263027  0.256660
0.268342  0.302381  0.265787
0.300320  0.322242  0.273098
0.338248  0.341158  0.268203
0.373951  0.349631  0.243908
0.430331  0.385335  0.215156
0.465697  0.407501  0.232878
0.529752  0.444215  0.219293
0.559832  0.465498  0.222368
0.617714  0.495737  0.190208
0.689322  0.545099  0.165668
0.724179  0.569026  0.188201
0.793068  0.599976  0.161842
0.812661  0.617883  0.179635
0.871347  0.634712  0.176854
0.267825  0.300718  0.263804
0.287279  0.317592  0.272343
0.325226  0.337204  0.270826
0.367421  0.356907  0.262215
0.412041  0.393148  0.251297
0.452444  0.419816  0.261597
0.504916  0.439424  0.233391
0.550149  0.473663  0.218052
0.590194  0.491130  0.230427
0.663504  0.544233  0.194707
0.715916  0.584397  0.168776
0.759499  0.599907  0.185277
0.788002  0.625400  0.184862
0.863873  0.666175  0.194592
0.907494  0.686806  0.195173
0.284247  0.326054  0.299725
0.336164  0.341654  0.275513
0.387921  0.377338  0.266947
0.416892  0.383757  0.262348
0.478069  0.417083  0.251340
0.512139  0.452779  0.245349
0.537535  0.465746  0.248860
0.592776  0.506375  0.237631
0.649206  0.537021  0.205757
0.676285  0.564725  0.203122
0.743297  0.610265  0.184831
0.791445  0.641189  0.176387
0.811148  0.655391  0.194070
0.894779  0.705589  0.196610
