LUT/LUT_14.CUBE
TITLE "LUT_14" 
#LUT size 
LUT_3D_SIZE 5 
#data point 
DOMAIN_MIN 0.000000 0.000000 0.000000
DOMAIN_MAX 0.857143 0.857143 0.857143
0.047698  0.047657  0.019628
0.138879  0.121440  0.049662
0.332144  0.221036  0.039987
0.510502  0.291828  0.035114
0.686481  0.350175  0.033019
0.120173  0.112751  0.062818
0.219261  0.182220  0.073381
0.386676  0.272514  0.063073
0.548762  0.347683  0.044965
0.732135  0.413499  0.041352
0.227573  0.198476  0.081825
0.347815  0.291194  0.080262
0.457218  0.368089  0.063043
0.622927  0.460599  0.058806
0.783067  0.510132  0.048951
0.359877  0.305827  0.095422
0.458904  0.389255  0.070638
0.564715  0.487369  0.066038
0.682789  0.582004  0.062526
0.828253  0.658567  0.069379
0.447014  0.405583  0.073212
0.548637  0.499117  0.061317
0.662342  0.589018  0.061819
0.777291  0.662195  0.070039
0.912095  0.759034  0.072804
0.107282  0.112140  0.083899
0.155962  0.157289  0.119838
0.342618  0.251633  0.080710
0.503376  0.316346  0.062898
0.678673  0.370502  0.051891
0.142434  0.178582  0.168745
0.200831  0.232771  0.200850
0.381265  0.321139  0.162451
0.560852  0.393003  0.121881
0.735873  0.455128  0.111376
0.208253  0.248148  0.247827
0.301109  0.309488  0.250379
0.446803  0.389295  0.211190
0.595763  0.460349  0.180546
0.770810  0.537859  0.175260
0.292674  0.324251  0.284778
0.422542  0.396223  0.260978
0.537781  0.489917  0.249020
0.673505  0.580312  0.200094
0.827714  0.655166  0.192211
0.413871  0.408231  0.285983
0.531308  0.501826  0.245843
0.644918  0.592693  0.239727
0.774314  0.682102  0.210938
0.916327  0.763693  0.195767
0.146237  0.183965  0.187822
0.181328  0.232581  0.228124
0.309538  0.306635  0.234155
0.509927  0.371221  0.176886
0.690630  0.419931  0.151519
0.197214  0.254471  0.270131
0.236972  0.300775  0.313873
0.355038  0.379285  0.333733
0.525439  0.442967  0.283240
0.722488  0.518597  0.238298
0.243576  0.327799  0.350209
0.293947  0.387433  0.422329
0.405263  0.439793  0.404818
0.582508  0.531801  0.380066
0.766370  0.596575  0.336094
0.292839  0.395455  0.432743
0.366815  0.459052  0.477611
0.506928  0.522071  0.466453
0.644450  0.605427  0.464480
0.823794  0.685486  0.408701
0.348826  0.461953  0.501240
0.481250  0.528606  0.493505
0.609009  0.601393  0.478972
0.746066  0.697777  0.463513
0.898469  0.780026  0.455912
0.181294  0.260878  0.298075
0.237060  0.319485  0.348455
0.330102  0.379019  0.357401
0.495266  0.434446  0.318235
0.703803  0.488374  0.267307
0.249995  0.346087  0.382170
0.294637  0.393757  0.438216
0.356140  0.444473  0.462756
0.518717  0.522498  0.435403
0.715145  0.582075  0.382568
0.301418  0.413068  0.455741
0.349086  0.465591  0.509756
0.403567  0.520494  0.553429
0.555581  0.591750  0.532323
0.740317  0.670324  0.500217
0.358337  0.483358  0.523820
0.415324  0.539067  0.581554
0.471478  0.604430  0.641052
0.639789  0.680151  0.627016
0.784761  0.739556  0.593371
0.409798  0.537697  0.583186
0.471715  0.608383  0.641448
0.550164  0.673733  0.700802
0.713723  0.738830  0.677184
0.868672  0.820136  0.674606
0.225669  0.348647  0.412883
0.285044  0.401830  0.455499
0.341260  0.464007  0.513366
0.476399  0.510759  0.467052
0.669713  0.558303  0.414301
0.282595  0.411463  0.477316
0.353041  0.476326  0.531453
0.415318  0.545991  0.595375
0.521339  0.589063  0.565032
0.693040  0.665291  0.542506
0.350302  0.484113  0.536562
0.421126  0.551437  0.602390
0.485341  0.628420  0.667699
0.573798  0.684865  0.701406
0.752358  0.742287  0.644741
0.414232  0.543046  0.599404
0.484859  0.619793  0.667117
0.534719  0.679519  0.736276
0.621469  0.756303  0.807631
0.773384  0.798364  0.758362
0.472319  0.617082  0.674064
0.528987  0.683150  0.739976
0.603652  0.755979  0.824932
0.691224  0.810860  0.859643
0.828189  0.881105  0.888379
