LUT/LUT_13.CUBE
TITLE "LUT_13" 
#LUT size 
LUT_3D_SIZE 15 
DOMAIN_MIN 0.0 0.0 0.0 
DOMAIN_MAX 1.0 1.0 1.0 
#data point 
0.045592  0.040748  0.023044
0.062297  0.065188  0.026913
0.091868  0.089074  0.041304
0.140078  0.122449  0.050085
0.208446  0.166882  0.051708
0.256017  0.187671  0.049506
0.335669  0.217926  0.037923
0.383421  0.232611  0.038172
0.445741  0.264058  0.037600
0.516357  0.284696  0.031793
0.568714  0.299166  0.032633
0.615776  0.317626  0.030390
0.695743  0.335590  0.032648
0.754127  0.352218  0.029552
0.825134  0.359301  0.023600
0.062962  0.060597  0.027812
0.077668  0.077240  0.030719
0.107101  0.097997  0.046560
0.162610  0.141150  0.059613
0.214863  0.176361  0.055491
0.283063  0.211438  0.049910
0.336146  0.243200  0.048203
0.405484  0.258207  0.046213
0.458365  0.279134  0.041197
0.508072  0.289061  0.037805
0.582946  0.320145  0.041617
0.649491  0.347412  0.041783
0.715417  0.353873  0.034142
0.774763  0.373812  0.032292
0.832681  0.393373  0.034918
0.093221  0.089842  0.040885
0.098859  0.090641  0.047479
0.135913  0.119751  0.059686
0.178346  0.152148  0.064054
0.254888  0.197570  0.054545
0.299347  0.221351  0.049077
0.368162  0.255898  0.051516
0.410631  0.276678  0.047241
0.476857  0.303458  0.057687
0.545899  0.317149  0.038552
0.590166  0.338907  0.037295
0.667533  0.371828  0.040044
0.725489  0.388360  0.038829
0.787828  0.405375  0.042067
0.849759  0.421035  0.045261
0.118360  0.117982  0.060605
0.135225  0.122478  0.062649
0.162743  0.151894  0.069510
0.219313  0.184734  0.070450
0.287101  0.225244  0.064948
0.337000  0.245662  0.054416
0.388226  0.273705  0.058828
0.449021  0.296462  0.046829
0.502009  0.318834  0.049836
0.554959  0.342209  0.041881
0.605655  0.371283  0.042908
0.678401  0.383110  0.043716
0.736267  0.406560  0.041909
0.803395  0.418457  0.042144
0.875860  0.450378  0.040506
0.146292  0.132723  0.071693
0.181922  0.155170  0.076192
0.222457  0.190927  0.085836
0.255418  0.213122  0.072644
0.310703  0.242383  0.064654
0.361277  0.277756  0.070977
0.408007  0.300016  0.061225
0.469245  0.334827  0.055831
0.531057  0.343935  0.059836
0.589015  0.367251  0.045091
0.627689  0.402607  0.051973
0.708176  0.426366  0.047291
0.760248  0.437535  0.047490
0.830511  0.456084  0.047948
0.892332  0.477956  0.052157
0.189094  0.167089  0.095181
0.222222  0.185666  0.077237
0.255438  0.219140  0.082697
0.311081  0.251348  0.062519
0.344880  0.278692  0.062165
0.380826  0.296767  0.072374
0.439361  0.339401  0.062989
0.486601  0.367330  0.063023
0.528344  0.375178  0.054443
0.584844  0.396889  0.050884
0.657047  0.430018  0.053453
0.706248  0.442895  0.054868
0.783815  0.458113  0.049187
0.842722  0.488064  0.054154
0.897151  0.504902  0.056078
0.230396  0.200286  0.084278
0.265170  0.224054  0.085798
0.310919  0.255366  0.076175
0.349560  0.290213  0.079660
0.378569  0.311310  0.064864
0.423764  0.346400  0.067336
0.459016  0.371644  0.060650
0.516898  0.406357  0.064131
0.561241  0.413625  0.059196
0.624214  0.460642  0.056970
0.671109  0.471945  0.050036
0.720447  0.483150  0.059151
0.788427  0.503690  0.043994
0.853790  0.512431  0.053669
0.923596  0.532403  0.054078
0.278373  0.237278  0.097785
0.313150  0.264911  0.078062
0.346428  0.284352  0.069333
0.383371  0.325580  0.067453
0.421325  0.362412  0.073446
0.455636  0.395400  0.060708
0.482913  0.414141  0.061998
0.529765  0.438337  0.059904
0.578774  0.471963  0.058681
0.638008  0.501868  0.055328
0.703095  0.512275  0.057603
0.743815  0.539206  0.067744
0.808923  0.553101  0.060862
0.878648  0.568226  0.060590
0.947014  0.587490  0.062449
0.304625  0.264619  0.095606
0.351273  0.306096  0.074528
0.378690  0.326333  0.064564
0.412086  0.349431  0.067013
0.458056  0.400610  0.073345
0.481141  0.421198  0.063243
0.530054  0.452977  0.063593
0.571126  0.484214  0.068285
0.611105  0.513936  0.062852
0.657915  0.542364  0.058826
0.707146  0.568761  0.062292
0.763981  0.579019  0.068940
0.828083  0.597817  0.059164
0.883186  0.625693  0.064179
0.943777  0.641926  0.060335
0.363118  0.307195  0.090159
0.388232  0.336043  0.078621
0.412130  0.366130  0.070555
0.455856  0.394149  0.067827
0.487086  0.428930  0.066126
0.526411  0.446509  0.064564
0.561556  0.488022  0.063988
0.605567  0.520735  0.067637
0.640977  0.556899  0.056033
0.683453  0.584302  0.061938
0.730162  0.615690  0.061108
0.778324  0.636038  0.056102
0.830024  0.656415  0.063737
0.893072  0.663739  0.064514
0.957008  0.689897  0.068584
0.380232  0.334198  0.079293
0.417363  0.362300  0.075284
0.450931  0.405420  0.069085
0.480050  0.438210  0.072913
0.537390  0.472315  0.058639
0.559674  0.500056  0.068790
0.595088  0.528107  0.081746
0.638480  0.558468  0.068560
0.688104  0.596159  0.058562
0.713205  0.615811  0.061416
0.765234  0.656494  0.067923
0.805156  0.672184  0.062935
0.859217  0.701870  0.066903
0.916542  0.724084  0.058909
0.969427  0.737810  0.073206
0.415230  0.379187  0.076946
0.445190  0.397691  0.069605
0.484262  0.432592  0.071024
0.516893  0.459987  0.064998
0.559232  0.502125  0.068450
0.608570  0.535547  0.057616
0.626685  0.553742  0.062108
0.663407  0.581460  0.054208
0.714356  0.619358  0.063678
0.750353  0.648317  0.061866
0.791269  0.681170  0.067017
0.843491  0.706702  0.067960
0.889132  0.736257  0.060147
0.936511  0.768688  0.072765
0.991316  0.784684  0.064013
0.440829  0.411558  0.074173
0.481890  0.434597  0.069081
0.517783  0.466799  0.065583
0.545610  0.503344  0.057163
0.590763  0.540305  0.062713
0.625709  0.563882  0.073269
0.659744  0.591605  0.059759
0.698911  0.616029  0.067623
0.748961  0.647249  0.071267
0.776192  0.666637  0.071155
0.817821  0.705901  0.065642
0.868893  0.733526  0.075427
0.910249  0.757296  0.073421
0.950714  0.786450  0.063469
1.017502  0.811968  0.069071
0.482766  0.448284  0.062728
0.519612  0.486227  0.066416
0.556349  0.516018  0.068010
0.595059  0.536848  0.071807
0.626061  0.572720  0.068744
0.663334  0.592687  0.055775
0.697150  0.620999  0.066821
0.739699  0.652003  0.058676
0.765007  0.671324  0.066309
0.807584  0.691297  0.072302
0.844631  0.721147  0.066885
0.905078  0.750846  0.066006
0.941805  0.781756  0.071535
0.987865  0.808207  0.071893
1.031191  0.826313  0.067557
0.514772  0.479362  0.073976
0.548808  0.505707  0.066457
0.583640  0.536469  0.065871
0.627784  0.571968  0.067914
0.658872  0.601244  0.066827
0.686935  0.618648  0.063582
0.723037  0.653527  0.075640
0.765312  0.671240  0.065723
0.793841  0.697321  0.062150
0.843439  0.725710  0.072401
0.884192  0.746454  0.069396
0.923759  0.780552  0.071731
0.971800  0.804007  0.070193
1.028969  0.836901  0.073244
1.076367  0.855147  0.071440
0.058067  0.055023  0.028629
0.072735  0.067803  0.033347
0.101992  0.096555  0.049238
0.131312  0.113080  0.047828
0.188539  0.157246  0.059114
0.262207  0.186691  0.043938
0.337677  0.221922  0.045665
0.384626  0.239081  0.037951
0.455884  0.268630  0.036940
0.500637  0.276469  0.035007
0.570399  0.301495  0.037754
0.625820  0.323396  0.030653
0.702237  0.340507  0.029123
0.749460  0.350896  0.025012
0.820419  0.352268  0.022945
0.078164  0.080350  0.041678
0.091335  0.084704  0.042664
0.116998  0.105143  0.051570
0.166064  0.146852  0.066199
0.225656  0.186474  0.065536
0.296315  0.217357  0.048676
0.344560  0.233180  0.049014
0.396130  0.265035  0.048782
0.470739  0.278045  0.041399
0.524731  0.299137  0.034396
0.582513  0.323419  0.038110
0.642773  0.349106  0.033659
0.713405  0.363309  0.034764
0.775477  0.376341  0.032643
0.831821  0.399058  0.038432
0.089159  0.094021  0.045339
0.112179  0.104853  0.060454
0.148859  0.135495  0.073836
0.184043  0.161322  0.079066
0.236726  0.200658  0.074492
0.312406  0.231240  0.063770
0.359605  0.254123  0.054131
0.419686  0.284054  0.052470
0.476127  0.303005  0.044038
0.532491  0.321883  0.043985
0.600253  0.355953  0.042239
0.661988  0.369939  0.041141
0.736797  0.386467  0.041069
0.786242  0.410388  0.041043
0.856025  0.428482  0.040183
0.120115  0.124750  0.081615
0.143091  0.139420  0.078775
0.176512  0.165398  0.091752
0.209393  0.187889  0.091551
0.267537  0.215745  0.077564
0.333137  0.254573  0.073391
0.380690  0.273166  0.070847
0.441020  0.314042  0.072763
0.498688  0.332054  0.059923
0.554038  0.347804  0.057370
0.615232  0.368032  0.053405
0.678616  0.401422  0.051830
0.745162  0.409551  0.046947
0.805993  0.430402  0.046030
0.871181  0.455484  0.050813
0.155616  0.147449  0.091327
0.181469  0.170403  0.091471
0.211690  0.187822  0.097800
0.254763  0.217067  0.086834
0.307728  0.252079  0.096719
0.352296  0.269997  0.092476
0.405274  0.309597  0.078369
0.452997  0.322232  0.063954
0.516333  0.350278  0.082580
0.565090  0.381337  0.071804
0.625897  0.397117  0.054498
0.698125  0.427501  0.052506
0.758353  0.442043  0.056333
0.814798  0.459804  0.050781
0.873554  0.480205  0.056734
0.181644  0.179024  0.105788
0.226449  0.197079  0.103288
0.266158  0.239100  0.120793
0.291884  0.249915  0.116845
0.342984  0.286009  0.085075
0.386541  0.310531  0.088205
0.452311  0.342634  0.086485
0.474436  0.359255  0.092975
0.531027  0.391936  0.073216
0.583921  0.415959  0.074828
0.653166  0.433503  0.071808
0.710990  0.457736  0.063216
0.771733  0.467561  0.056881
0.845274  0.487829  0.056741
0.908228  0.521951  0.059318
0.239074  0.220475  0.135144
0.272775  0.234992  0.114632
0.291955  0.264411  0.121013
0.333662  0.286779  0.122633
0.377930  0.317662  0.095652
0.421362  0.359889  0.079697
0.452637  0.379993  0.082607
0.514438  0.408128  0.087824
0.561923  0.427021  0.084773
0.608829  0.437475  0.081467
0.674203  0.476030  0.070620
0.732115  0.487721  0.066913
0.790407  0.514444  0.069105
0.872063  0.521114  0.060316
0.922279  0.551431  0.059525
0.263868  0.245094  0.130863
0.294556  0.266515  0.124395
0.340168  0.302282  0.126835
0.369363  0.321825  0.112847
0.418293  0.355406  0.088222
0.455566  0.384658  0.092027
0.500338  0.423475  0.084057
0.552061  0.451886  0.079675
0.588002  0.470428  0.077706
0.627077  0.494492  0.079817
0.686099  0.514901  0.070271
0.752834  0.535206  0.065569
0.812129  0.552856  0.066438
0.871257  0.569609  0.071892
0.947782  0.587467  0.066263
0.304553  0.270702  0.119205
0.339592  0.294592  0.133236
0.375711  0.321685  0.121618
0.402874  0.357647  0.114296
0.446928  0.387092  0.099555
0.491891  0.426943  0.082832
0.524544  0.453631  0.087171
0.565900  0.484921  0.076275
0.604912  0.522546  0.077805
0.667656  0.554716  0.083194
0.712411  0.569671  0.082352
0.765948  0.580781  0.081445
0.827534  0.606890  0.071972
0.898127  0.628432  0.074040
0.946907  0.627358  0.067948
0.335245  0.296788  0.132465
0.393534  0.339828  0.125485
0.419408  0.372684  0.120055
0.448223  0.392600  0.101555
0.483372  0.435222  0.099725
0.529393  0.469057  0.083923
0.571392  0.502489  0.093299
0.596539  0.527070  0.091316
0.636345  0.561068  0.089086
0.682171  0.586793  0.074473
0.737398  0.628629  0.073017
0.786367  0.641569  0.070481
0.831329  0.657363  0.070313
0.905164  0.674884  0.071387
0.972268  0.695081  0.076725
0.370361  0.335588  0.126704
0.398296  0.360645  0.130195
0.438712  0.396850  0.115654
0.487142  0.440818  0.099542
0.526448  0.463517  0.094383
0.560282  0.505836  0.089642
0.602887  0.535966  0.088636
0.639160  0.567463  0.077642
0.678580  0.591956  0.090629
0.711464  0.623036  0.088087
0.764087  0.644345  0.074758
0.809362  0.674743  0.079554
0.856411  0.704524  0.066280
0.915621  0.734083  0.076618
0.972189  0.717735  0.080454
0.401384  0.359792  0.126347
0.445249  0.399540  0.117036
0.484765  0.437336  0.102417
0.509318  0.461713  0.091059
0.556375  0.508522  0.095821
0.596280  0.539535  0.090105
0.625860  0.552726  0.091762
0.666937  0.587026  0.097737
0.696174  0.617129  0.090009
0.736671  0.640382  0.084729
0.790897  0.677384  0.072616
0.833317  0.706008  0.096580
0.890464  0.736023  0.081367
0.923861  0.761389  0.078334
0.988041  0.784665  0.071880
0.452122  0.414504  0.121809
0.496988  0.450100  0.085358
0.515377  0.469143  0.099547
0.557485  0.505271  0.092425
0.588417  0.534182  0.092366
0.622653  0.562101  0.091239
0.669740  0.603004  0.095396
0.694691  0.615010  0.090323
0.750952  0.646867  0.092617
0.777130  0.673639  0.100920
0.822479  0.703352  0.079184
0.872064  0.741616  0.085656
0.907543  0.756915  0.085147
0.971286  0.786749  0.090604
1.011932  0.810622  0.078035
0.468297  0.441641  0.112770
0.497548  0.471425  0.098515
0.557733  0.504981  0.089736
0.569843  0.528040  0.088394
0.625974  0.569847  0.078906
0.660393  0.590013  0.080434
0.689736  0.625595  0.092644
0.741443  0.655205  0.084159
0.773108  0.678112  0.083425
0.804743  0.695577  0.099884
0.853586  0.734911  0.086832
0.894286  0.749865  0.097306
0.942248  0.781298  0.097212
0.987601  0.809542  0.076366
1.033358  0.840044  0.080831
0.513793  0.482927  0.116404
0.546134  0.517435  0.091139
0.566849  0.532960  0.096712
0.616661  0.562721  0.085674
0.644188  0.589081  0.085106
0.696474  0.622349  0.090666
0.727611  0.650261  0.088760
0.774051  0.677250  0.089167
0.794677  0.693307  0.093669
0.844561  0.724578  0.093895
0.888000  0.757952  0.089635
0.914225  0.773664  0.087119
0.974243  0.810915  0.087694
1.017662  0.832392  0.084807
1.076349  0.867303  0.093645
0.083492  0.082714  0.045829
0.101406  0.101002  0.054113
0.116378  0.111093  0.054725
0.155737  0.132765  0.066031
0.202481  0.169500  0.072705
0.268549  0.200054  0.058651
0.321201  0.226001  0.053905
0.399335  0.254215  0.045357
0.457604  0.277884  0.045798
0.501402  0.292555  0.044348
0.558840  0.303650  0.039860
0.630576  0.333234  0.035956
0.680621  0.348795  0.032910
0.766452  0.368240  0.035460
0.825738  0.375473  0.032780
0.101509  0.109466  0.075136
0.110035  0.118991  0.079542
0.132300  0.135497  0.085921
0.164877  0.161645  0.100793
0.226681  0.203705  0.096565
0.293341  0.233684  0.078179
0.340158  0.251277  0.067958
0.393008  0.273156  0.066292
0.469993  0.296319  0.054509
0.526241  0.316770  0.053076
0.584726  0.341868  0.041647
0.642903  0.358420  0.045066
0.704313  0.379075  0.044474
0.786306  0.391815  0.038723
0.836458  0.407266  0.039835
0.111035  0.124259  0.096834
0.125406  0.145674  0.117426
0.153214  0.155919  0.112892
0.193070  0.179285  0.106548
0.234785  0.211453  0.112641
0.306566  0.254176  0.100041
0.363504  0.275213  0.087050
0.413378  0.294234  0.075323
0.477219  0.323749  0.073597
0.530712  0.347194  0.081226
0.591290  0.365776  0.057643
0.656517  0.391215  0.050142
0.733044  0.398090  0.048759
0.790374  0.419411  0.050824
0.839707  0.432994  0.042579
0.130935  0.150574  0.130480
0.146325  0.168787  0.129645
0.163263  0.178980  0.147611
0.208474  0.199473  0.135712
0.245519  0.229076  0.133641
0.325003  0.274541  0.119243
0.381732  0.299211  0.107096
0.424404  0.319365  0.094628
0.498067  0.353833  0.081117
0.559209  0.373103  0.088311
0.600735  0.391600  0.073985
0.666167  0.412927  0.075862
0.734540  0.423170  0.058066
0.796582  0.445453  0.054741
0.863223  0.462700  0.050759
0.144079  0.171090  0.158093
0.177199  0.203103  0.179341
0.209597  0.210832  0.155105
0.234510  0.227275  0.159440
0.289520  0.260038  0.141629
0.333802  0.285771  0.146182
0.400642  0.311311  0.135138
0.467463  0.349407  0.114984
0.511262  0.370645  0.108722
0.570185  0.394097  0.104427
0.629094  0.416121  0.103858
0.693893  0.447536  0.091327
0.751845  0.460242  0.084556
0.813063  0.483078  0.063172
0.885558  0.502883  0.067306
0.163098  0.197370  0.182452
0.202934  0.217915  0.179464
0.241905  0.249201  0.178181
0.276553  0.266197  0.174075
0.323189  0.293237  0.161107
0.372761  0.327174  0.164116
0.432779  0.343078  0.136175
0.478892  0.373623  0.140091
0.543048  0.402429  0.117459
0.586669  0.417043  0.120458
0.642990  0.449762  0.100160
0.705159  0.473063  0.119857
0.759979  0.480958  0.094363
0.830284  0.517525  0.085461
0.888302  0.519078  0.081327
0.206643  0.230075  0.191402
0.244631  0.245868  0.181186
0.286866  0.272648  0.187150
0.319429  0.297208  0.175394
0.360805  0.326724  0.165402
0.405830  0.348234  0.164896
0.458822  0.383117  0.146202
0.509522  0.409613  0.139250
0.542509  0.419646  0.125846
0.607757  0.453626  0.133923
0.666547  0.480785  0.133298
0.726460  0.496600  0.139702
0.788599  0.512391  0.123055
0.852347  0.545805  0.115346
0.914266  0.564318  0.091062
0.253779  0.263303  0.202669
0.287133  0.282011  0.206542
0.323041  0.301948  0.190856
0.356038  0.326341  0.166216
0.402356  0.365553  0.181997
0.440338  0.382843  0.164581
0.486345  0.426130  0.156812
0.534127  0.451306  0.138842
0.591414  0.471974  0.127947
0.652761  0.497867  0.131114
0.681109  0.517680  0.133649
0.735046  0.546914  0.144585
0.794649  0.565363  0.134632
0.879237  0.582653  0.111060
0.928215  0.597488  0.112275
0.280151  0.281881  0.202571
0.329081  0.316721  0.196893
0.358605  0.329353  0.178718
0.406177  0.367261  0.191489
0.434962  0.392383  0.186870
0.471960  0.419105  0.178272
0.523124  0.464531  0.161724
0.562816  0.492203  0.138684
0.615424  0.520157  0.121915
0.662039  0.538312  0.129508
0.717525  0.566157  0.134111
0.757530  0.590280  0.135276
0.823449  0.604997  0.133974
0.887228  0.620027  0.120929
0.953517  0.643408  0.120408
0.310259  0.305217  0.205671
0.363934  0.342320  0.193700
0.401126  0.366139  0.187421
0.425360  0.394166  0.189859
0.465901  0.422835  0.184849
0.510458  0.458616  0.160173
0.561568  0.498096  0.161831
0.594435  0.524120  0.140947
0.639314  0.566939  0.141942
0.692243  0.589376  0.124749
0.735419  0.613130  0.131114
0.784945  0.642292  0.128189
0.842475  0.657327  0.126697
0.886750  0.675158  0.135170
0.948661  0.687073  0.124650
0.361360  0.342338  0.196971
0.395620  0.376908  0.189712
0.426203  0.408959  0.192023
0.479195  0.437007  0.172171
0.508555  0.461371  0.167057
0.538824  0.489549  0.160401
0.578937  0.525647  0.157514
0.630182  0.566084  0.146386
0.679243  0.596695  0.127754
0.717709  0.616956  0.140242
0.760232  0.646655  0.135003
0.797257  0.676045  0.140493
0.855958  0.706502  0.129246
0.916303  0.713544  0.133450
0.994825  0.745520  0.129047
0.397787  0.375951  0.200302
0.423952  0.402125  0.198401
0.479003  0.443265  0.194929
0.516205  0.471902  0.180689
0.550862  0.503227  0.173885
0.587988  0.531993  0.168286
0.609015  0.544877  0.159147
0.660946  0.593354  0.137400
0.699621  0.620925  0.146605
0.758753  0.659878  0.128832
0.796605  0.678047  0.138123
0.830849  0.707241  0.140976
0.876510  0.742149  0.141555
0.938205  0.771321  0.135606
0.990345  0.789159  0.145610
0.434946  0.406107  0.194885
0.462701  0.436906  0.185161
0.504123  0.463073  0.169968
0.528102  0.495050  0.189194
0.569593  0.522522  0.168237
0.624580  0.565901  0.164079
0.647463  0.589346  0.144463
0.700411  0.621232  0.139263
0.736915  0.653360  0.138749
0.777767  0.672810  0.139492
0.815053  0.703215  0.148840
0.858122  0.733018  0.133790
0.913087  0.770055  0.135606
0.960770  0.786714  0.151127
1.010849  0.812146  0.127373
0.464433  0.441390  0.210370
0.497725  0.463909  0.176232
0.520397  0.498744  0.192532
0.569138  0.525344  0.157328
0.609571  0.561512  0.153732
0.661485  0.606999  0.151080
0.690605  0.619924  0.137919
0.739366  0.656786  0.142985
0.766997  0.675129  0.134495
0.806974  0.698541  0.125245
0.846269  0.735372  0.135066
0.903844  0.761335  0.130863
0.940557  0.786737  0.139411
0.987634  0.817747  0.138324
1.032315  0.841172  0.157607
0.490057  0.468829  0.196310
0.543440  0.514056  0.184465
0.572200  0.548181  0.169408
0.606995  0.561469  0.161641
0.648754  0.596482  0.152205
0.676061  0.621055  0.150817
0.718992  0.652010  0.141345
0.762307  0.668683  0.134960
0.801821  0.712267  0.148307
0.844868  0.736276  0.156282
0.887903  0.763290  0.136949
0.917970  0.774119  0.149754
0.960688  0.810316  0.149060
1.017428  0.838805  0.138487
1.067486  0.863935  0.141216
0.102621  0.115482  0.083183
0.106126  0.123221  0.096878
0.127072  0.143494  0.115959
0.155038  0.162365  0.117743
0.200738  0.182433  0.096880
0.263681  0.212586  0.086807
0.340699  0.252707  0.080490
0.401678  0.269391  0.069324
0.435619  0.277673  0.070751
0.504807  0.309350  0.060313
0.554474  0.324858  0.060287
0.624812  0.343912  0.062039
0.683397  0.365452  0.051255
0.762452  0.371056  0.040690
0.822353  0.384539  0.041549
0.110855  0.131463  0.112203
0.128572  0.147909  0.131696
0.139881  0.160929  0.139729
0.169152  0.178258  0.137561
0.221426  0.209579  0.134237
0.279831  0.238242  0.122072
0.352035  0.275698  0.108339
0.413860  0.294291  0.098802
0.452339  0.303081  0.089498
0.513177  0.330176  0.079651
0.572004  0.351604  0.074078
0.637310  0.369975  0.072163
0.708010  0.396042  0.066030
0.766545  0.400898  0.050358
0.835979  0.412114  0.047840
0.128948  0.153478  0.136089
0.142008  0.171927  0.161408
0.164740  0.196581  0.176708
0.191872  0.213766  0.184521
0.231548  0.226348  0.161226
0.297184  0.262259  0.145392
0.361187  0.293045  0.127453
0.413802  0.308522  0.125193
0.470663  0.329735  0.107514
0.533202  0.365340  0.095336
0.589351  0.382016  0.101881
0.649030  0.397380  0.083701
0.704150  0.411528  0.083081
0.779135  0.430315  0.074830
0.863819  0.457339  0.065114
0.136828  0.179072  0.168941
0.152819  0.195368  0.188044
0.169199  0.212420  0.204725
0.199261  0.232222  0.202842
0.261103  0.264472  0.202701
0.316274  0.284894  0.173205
0.386081  0.320820  0.162920
0.425338  0.334843  0.138326
0.504257  0.366640  0.130770
0.563166  0.389375  0.123503
0.600568  0.402817  0.126947
0.661293  0.430412  0.123095
0.738462  0.447857  0.112294
0.792148  0.464199  0.092001
0.858777  0.483646  0.105931
0.157409  0.207547  0.208404
0.179394  0.225210  0.222128
0.196456  0.235127  0.213755
0.233593  0.260704  0.226069
0.281077  0.278367  0.206037
0.333204  0.309789  0.201580
0.378677  0.327499  0.182261
0.452086  0.361461  0.171654
0.497662  0.383625  0.162186
0.571063  0.405710  0.132488
0.625727  0.427666  0.141682
0.676043  0.448545  0.136650
0.732917  0.485761  0.137443
0.810320  0.490374  0.130610
0.877260  0.521847  0.113154
0.176041  0.230039  0.223759
0.195883  0.242493  0.237871
0.225692  0.263049  0.248567
0.252015  0.279394  0.240933
0.306132  0.308218  0.245115
0.350019  0.329730  0.221527
0.419426  0.363972  0.189307
0.466445  0.387105  0.206985
0.520721  0.408661  0.181664
0.565000  0.421899  0.170224
0.647367  0.456609  0.164216
0.695984  0.488315  0.157458
0.765174  0.504856  0.149929
0.820971  0.532846  0.143960
0.876768  0.549838  0.134061
0.203672  0.251924  0.250739
0.230674  0.268101  0.239519
0.254319  0.284347  0.251817
0.300077  0.308999  0.249789
0.338371  0.329666  0.238657
0.394433  0.370192  0.237159
0.446109  0.391608  0.210391
0.494182  0.424888  0.220525
0.549292  0.444841  0.196271
0.601819  0.459911  0.180981
0.658780  0.482623  0.178491
0.724256  0.517656  0.164594
0.776290  0.533244  0.178271
0.833884  0.549395  0.166756
0.907715  0.584467  0.158201
0.217665  0.274052  0.268893
0.270475  0.296972  0.262188
0.316712  0.325266  0.267336
0.341001  0.341968  0.264184
0.379853  0.371965  0.251357
0.434978  0.391921  0.211616
0.474337  0.434084  0.225703
0.530466  0.452965  0.232797
0.567079  0.476095  0.224308
0.636610  0.500865  0.204345
0.694834  0.543699  0.185910
0.741129  0.546300  0.193649
0.811315  0.572453  0.181937
0.853094  0.584811  0.181312
0.915888  0.606868  0.184762
0.271025  0.305991  0.269211
0.299058  0.324504  0.267424
0.341122  0.344518  0.277383
0.378282  0.366104  0.256883
0.424898  0.400610  0.255196
0.461408  0.434587  0.242051
0.500699  0.462011  0.229948
0.550892  0.490447  0.225213
0.590897  0.504518  0.231976
0.665640  0.541682  0.211668
0.724551  0.574225  0.179728
0.776305  0.591876  0.200216
0.810848  0.608249  0.197365
0.879865  0.634142  0.202519
0.949881  0.646174  0.201041
0.291278  0.328567  0.284841
0.341313  0.352840  0.272591
0.391973  0.380457  0.276027
0.420969  0.397119  0.262187
0.475565  0.436482  0.243693
0.496911  0.465532  0.240271
0.536687  0.492180  0.249847
0.574599  0.535157  0.224708
0.633178  0.558735  0.217868
0.675100  0.584570  0.202180
0.739939  0.617120  0.197402
0.789222  0.651027  0.206754
0.824249  0.653928  0.193315
0.907806  0.688401  0.201902
