LUT/LUT_1.CUBE
TITLE "LUT_1" 
#LUT size 
LUT_3D_SIZE 15 
DOMAIN_MIN 0.0 0.0 0.0 
DOMAIN_MAX 1.0 1.0 1.0 
#data point 
0.010543  0.004812  0.002532
0.053286  0.028246  -0.001582
0.127064  0.038233  0.000238
0.198301  0.037114  -0.001521
0.273844  0.039091  -0.001876
0.340778  0.036811  -0.004664
0.414771  0.042999  -0.005095
0.482485  0.041993  -0.005975
0.555248  0.040416  -0.007964
0.628130  0.038387  -0.003880
0.695447  0.040288  -0.010666
0.765860  0.044596  -0.002457
0.841526  0.042534  -0.008132
0.908165  0.041988  -0.007801
0.981973  0.042447  -0.007590
0.033167  0.036211  0.027073
0.076722  0.054813  0.024083
0.126864  0.082942  0.010898
0.205884  0.094882  0.006598
0.275054  0.100428  0.005012
0.342638  0.107224  -0.004730
0.416970  0.109409  -0.005753
0.485568  0.109059  -0.002940
0.556667  0.110733  -0.001302
0.625490  0.106642  -0.008051
0.696777  0.111274  -0.009024
0.773251  0.110168  -0.005252
0.840124  0.109733  -0.006481
0.912787  0.111675  -0.006870
0.982086  0.111579  -0.006392
0.060357  0.092665  0.027692
0.094498  0.115409  0.026790
0.149023  0.129221  0.023520
0.211890  0.146157  0.015671
0.279189  0.151692  0.013229
0.348315  0.159674  0.011054
0.422134  0.158465  0.009613
0.489131  0.163384  0.009710
0.559433  0.169970  0.004433
0.627717  0.169962  0.001885
0.694950  0.176037  0.000394
0.769817  0.178547  -0.002753
0.840249  0.179254  -0.006439
0.914737  0.184939  -0.004918
0.983622  0.180564  -0.002978
0.075138  0.154553  0.024932
0.113461  0.172042  0.030878
0.160099  0.194947  0.023383
0.221085  0.202761  0.019679
0.287249  0.209428  0.018452
0.354446  0.213996  0.016144
0.422663  0.220180  0.016341
0.495795  0.225408  0.012955
0.560365  0.233434  0.011257
0.631784  0.235393  0.009333
0.701906  0.234788  0.007546
0.773885  0.237031  0.007524
0.845015  0.238084  0.005237
0.918451  0.246278  -0.001518
0.985693  0.248666  0.000214
0.081959  0.218406  0.026704
0.135499  0.230694  0.027646
0.184108  0.246662  0.025609
0.234516  0.270368  0.017333
0.290941  0.278098  0.016605
0.357721  0.284537  0.020207
0.425702  0.287702  0.017350
0.499445  0.287959  0.015338
0.565204  0.290719  0.020553
0.634112  0.294893  0.015596
0.702419  0.299990  0.010737
0.775597  0.309513  0.008277
0.844823  0.300271  0.009239
0.917811  0.304377  0.006490
0.986432  0.306187  0.004505
0.084951  0.289635  0.030648
0.145710  0.291918  0.025888
0.202922  0.297915  0.025609
0.254129  0.321820  0.020958
0.306425  0.336859  0.015377
0.366185  0.348547  0.018310
0.432206  0.353351  0.015882
0.500826  0.357399  0.015542
0.568892  0.358721  0.021635
0.634188  0.362103  0.013238
0.709418  0.364293  0.013676
0.777636  0.366705  0.017622
0.850060  0.373103  0.013196
0.920501  0.377771  0.010602
0.989132  0.378811  0.008868
0.089517  0.352378  0.025285
0.152055  0.354885  0.024238
0.216873  0.361962  0.022058
0.274371  0.377144  0.019513
0.317386  0.395794  0.020180
0.372481  0.409007  0.017818
0.432421  0.418475  0.020340
0.499953  0.428105  0.019394
0.570356  0.425962  0.016779
0.637397  0.434616  0.014577
0.709116  0.434368  0.015926
0.779124  0.435457  0.016747
0.850012  0.434090  0.015428
0.922751  0.438443  0.016927
0.994353  0.438861  0.013968
0.087306  0.425031  0.025161
0.157464  0.424236  0.026016
0.221530  0.429511  0.023817
0.291255  0.430921  0.018419
0.340991  0.447130  0.020410
0.389887  0.468316  0.015274
0.441089  0.489760  0.017761
0.501758  0.495841  0.016124
0.572345  0.498583  0.015061
0.642762  0.498235  0.012730
0.715608  0.503883  0.017768
0.780652  0.504950  0.018948
0.854928  0.509126  0.016393
0.928437  0.506256  0.016414
0.996797  0.508853  0.015443
0.090294  0.491711  0.022501
0.155138  0.498928  0.027428
0.223466  0.499787  0.018966
0.292289  0.497085  0.015900
0.354562  0.504559  0.017504
0.409050  0.514830  0.017978
0.461924  0.537817  0.020097
0.507917  0.556169  0.015819
0.579461  0.562685  0.014179
0.645194  0.570381  0.015266
0.708571  0.572705  0.016498
0.786436  0.570054  0.017853
0.854884  0.575145  0.016956
0.924418  0.575006  0.014036
0.997779  0.575154  0.014876
0.098450  0.556030  0.017701
0.157639  0.565049  0.018009
0.226530  0.568306  0.015821
0.291479  0.569594  0.016380
0.363265  0.569724  0.019626
0.424826  0.575210  0.014961
0.470960  0.593877  0.020263
0.533600  0.604194  0.016274
0.585628  0.627651  0.016600
0.650141  0.632479  0.014617
0.717485  0.637685  0.013592
0.783898  0.644022  0.017277
0.853908  0.646756  0.015471
0.925141  0.645978  0.016758
0.991808  0.646991  0.015306
0.094444  0.621187  0.013721
0.168295  0.625555  0.016054
0.235749  0.630741  0.015841
0.293768  0.641314  0.015558
0.365552  0.643480  0.012638
0.433720  0.646449  0.012169
0.490034  0.650340  0.020687
0.542686  0.667172  0.011809
0.607391  0.676082  0.013655
0.654072  0.693420  0.010904
0.720784  0.699566  0.014117
0.789869  0.702110  0.014254
0.857444  0.712544  0.013750
0.926763  0.718179  0.018799
0.994897  0.717112  0.018292
0.101832  0.689789  0.016465
0.170968  0.689308  0.010794
0.235613  0.695085  0.014200
0.296576  0.697518  0.009842
0.365114  0.706123  0.016008
0.435394  0.711843  0.011965
0.496510  0.714719  0.011500
0.558349  0.724037  0.014517
0.615777  0.737203  0.014520
0.679405  0.743705  0.017336
0.732838  0.754870  0.015758
0.790814  0.772721  0.016186
0.862963  0.776510  0.017905
0.937151  0.784651  0.015122
0.999169  0.788970  0.012477
0.097915  0.761957  0.014221
0.170079  0.760024  0.012245
0.242202  0.758969  0.010005
0.306630  0.760015  0.008618
0.371196  0.769830  0.010680
0.437293  0.776930  0.012259
0.506835  0.771498  0.007896
0.565192  0.782174  0.012297
0.622524  0.800401  0.016459
0.684779  0.808456  0.017696
0.744281  0.813892  0.017707
0.805761  0.826629  0.014867
0.862919  0.835711  0.019180
0.936143  0.843997  0.017669
1.005876  0.850012  0.013922
0.098324  0.833259  0.012645
0.167177  0.833625  0.014364
0.243675  0.830809  0.009291
0.309985  0.828710  0.008736
0.376133  0.834231  0.008779
0.447891  0.833306  0.003810
0.506419  0.848362  0.011912
0.577629  0.848157  0.009124
0.640254  0.856890  0.010366
0.689517  0.865768  0.016291
0.752915  0.875824  0.013413
0.816719  0.888036  0.016495
0.876863  0.895233  0.014839
0.941235  0.902551  0.013999
1.006398  0.908581  0.013048
0.097905  0.905638  0.009739
0.169803  0.903229  0.012753
0.240181  0.903531  0.007246
0.306830  0.905253  0.004700
0.375116  0.902021  0.004831
0.447982  0.903762  0.001842
0.520431  0.900437  0.002733
0.580551  0.912516  0.008796
0.642641  0.924011  0.010496
0.703314  0.925121  0.013997
0.757846  0.938632  0.013716
0.825862  0.947199  0.015379
0.891136  0.955124  0.013300
0.949902  0.967465  0.016113
1.016593  0.968927  0.013955
0.006268  0.028468  0.041219
0.061967  0.037601  0.039726
0.125910  0.036996  0.043608
0.199018  0.038486  0.051950
0.267698  0.039932  0.057862
0.342179  0.042138  0.052256
0.413990  0.041844  0.054553
0.481991  0.040496  0.049394
0.556509  0.042743  0.048519
0.624955  0.043298  0.046831
0.696885  0.037776  0.044168
0.771551  0.043387  0.048446
0.843048  0.043606  0.049189
0.910573  0.036604  0.045545
0.985233  0.038725  0.042045
0.032342  0.052538  0.070715
0.061775  0.089005  0.058847
0.132125  0.101251  0.052866
0.197814  0.106813  0.051897
0.272408  0.108778  0.048625
0.345328  0.107947  0.051496
0.413233  0.108764  0.052023
0.480935  0.111234  0.050463
0.556521  0.111846  0.051588
0.626563  0.113789  0.049603
0.699076  0.114797  0.048607
0.768925  0.115994  0.050898
0.839474  0.112900  0.047268
0.907510  0.110915  0.044207
0.978496  0.108690  0.045811
0.056482  0.095967  0.083225
0.094514  0.118110  0.077860
0.142352  0.140991  0.067295
0.209866  0.150704  0.068051
0.277989  0.159000  0.066263
0.344959  0.167581  0.061777
0.415637  0.173359  0.059397
0.487894  0.177582  0.051066
0.555756  0.180019  0.052236
0.625018  0.181234  0.049491
0.699640  0.179524  0.050149
0.768954  0.184933  0.048508
0.841353  0.182941  0.046991
0.912417  0.178044  0.049797
0.987444  0.180014  0.050079
0.069503  0.155421  0.085762
0.115761  0.176662  0.078130
0.163135  0.195951  0.076948
0.219107  0.198139  0.076899
0.283372  0.213602  0.070725
0.353087  0.221255  0.069327
0.419870  0.228985  0.067551
0.488303  0.231522  0.063070
0.562256  0.235147  0.065135
0.627529  0.235402  0.060486
0.701564  0.248931  0.056118
0.772896  0.249567  0.052258
0.839673  0.248531  0.049392
0.919997  0.253682  0.048963
0.986348  0.251190  0.046484
0.080658  0.220045  0.084663
0.137094  0.231413  0.079797
0.178637  0.252346  0.077742
0.228283  0.269209  0.077054
0.292766  0.277474  0.071066
0.358797  0.285581  0.069826
0.426641  0.289695  0.071947
0.493804  0.291578  0.069589
0.562489  0.296585  0.065987
0.630394  0.304089  0.064650
0.704067  0.307258  0.063636
0.772093  0.307194  0.063496
0.840220  0.310894  0.060216
0.912811  0.313281  0.056626
0.986796  0.314983  0.053990
0.084463  0.283310  0.087194
0.145854  0.289226  0.085904
0.203008  0.306179  0.085278
0.244125  0.323202  0.083559
0.299660  0.336011  0.072037
0.362363  0.351363  0.071826
0.429287  0.356423  0.070870
0.498805  0.354489  0.074253
0.565482  0.363025  0.077246
0.638533  0.362344  0.074385
0.711190  0.365869  0.068649
0.775994  0.376910  0.061601
0.847779  0.375446  0.065059
0.919838  0.373945  0.059743
0.990562  0.376966  0.063816
0.087309  0.351103  0.088375
0.158406  0.358564  0.085516
0.213377  0.360366  0.086811
0.266440  0.378210  0.083290
0.312346  0.399882  0.078802
0.370564  0.413349  0.073892
0.433043  0.421540  0.074191
0.501723  0.427082  0.073879
0.568506  0.433189  0.072699
0.641045  0.428775  0.069334
0.707926  0.435012  0.066954
0.781800  0.430087  0.068813
0.851473  0.438769  0.069906
0.920837  0.446767  0.064203
0.992413  0.448604  0.062426
0.089566  0.425974  0.081409
0.157563  0.424276  0.085044
0.220613  0.427804  0.086284
0.284659  0.429932  0.086204
0.335957  0.450414  0.076283
0.386463  0.472541  0.076479
0.442575  0.485462  0.072571
0.505033  0.495700  0.072138
0.575311  0.496817  0.070929
0.642453  0.500298  0.070887
0.715015  0.502992  0.070552
0.781341  0.506701  0.065872
0.853202  0.505434  0.066769
0.922339  0.506359  0.068831
0.997332  0.509244  0.069749
0.096065  0.486770  0.080657
0.156673  0.495320  0.082420
0.220393  0.494106  0.083299
0.288186  0.500528  0.082879
0.357451  0.498541  0.083383
0.408518  0.517776  0.076955
0.462773  0.541311  0.073988
0.507233  0.559213  0.072200
0.577601  0.560983  0.071080
0.648280  0.571427  0.070864
0.713394  0.569584  0.070559
0.782918  0.571873  0.074418
0.858291  0.576429  0.069809
0.927551  0.575484  0.073563
0.994156  0.579384  0.068226
0.090080  0.552402  0.076295
0.167305  0.554864  0.079596
0.226403  0.568327  0.082784
0.289412  0.570742  0.082306
0.361937  0.570942  0.081401
0.424640  0.577409  0.079238
0.474309  0.595473  0.077698
0.532773  0.604985  0.075255
0.580627  0.630221  0.073959
0.650570  0.632944  0.068964
0.716636  0.639914  0.074312
0.788197  0.638204  0.069173
0.854585  0.644362  0.068244
0.928811  0.647891  0.070302
0.997991  0.649415  0.068617
0.100284  0.620071  0.079243
0.166159  0.623660  0.076176
0.240652  0.622868  0.077611
0.290112  0.643564  0.085277
0.359174  0.641088  0.081764
0.434420  0.638687  0.080341
0.490497  0.651779  0.077795
0.540999  0.665322  0.074981
0.605129  0.671567  0.071162
0.655587  0.689314  0.077365
0.724050  0.704889  0.072197
0.789334  0.705610  0.073529
0.855597  0.714372  0.072616
0.924877  0.717286  0.072536
0.999069  0.716720  0.071386
0.095024  0.690279  0.075615
0.170192  0.688971  0.071138
0.244427  0.689787  0.072730
0.304667  0.693714  0.077725
0.365454  0.706108  0.079959
0.437073  0.709492  0.074516
0.501594  0.711446  0.074485
0.559114  0.723176  0.078125
0.610651  0.739750  0.073054
0.678844  0.742723  0.074531
0.730457  0.759687  0.072829
0.793985  0.769232  0.078609
0.862334  0.775856  0.071536
0.926342  0.786271  0.070404
0.996599  0.787716  0.070921
0.093953  0.762232  0.076334
0.170285  0.764210  0.070131
0.237612  0.762129  0.070980
0.309294  0.759383  0.075239
0.375044  0.761783  0.074815
0.437170  0.777169  0.074627
0.505099  0.771805  0.072514
0.569350  0.785118  0.075655
0.625927  0.798852  0.073253
0.683819  0.810494  0.076801
0.745517  0.815141  0.076823
0.804985  0.828358  0.076748
0.866833  0.837630  0.072942
0.937903  0.846806  0.071748
1.001745  0.854578  0.070067
0.095124  0.835237  0.076423
0.166474  0.833221  0.071304
0.243284  0.829256  0.070474
0.312913  0.828412  0.072435
0.375229  0.831839  0.071386
0.447124  0.829359  0.071298
0.507138  0.843816  0.073165
0.575085  0.849039  0.071257
0.638141  0.853334  0.075829
0.690796  0.866217  0.075992
0.755672  0.875404  0.077753
0.816030  0.892345  0.073619
0.878448  0.898026  0.073989
0.943027  0.904488  0.071378
1.009696  0.912765  0.072045
0.092317  0.906424  0.076992
0.167676  0.904539  0.071423
0.239574  0.901942  0.075734
0.308886  0.900437  0.072295
0.377732  0.904274  0.069766
0.449057  0.904736  0.070318
0.515802  0.900400  0.068070
0.577624  0.905367  0.071511
0.644494  0.915828  0.073470
0.706714  0.928958  0.073135
0.760524  0.939574  0.079458
0.826891  0.942302  0.076181
0.888305  0.955382  0.071621
0.950590  0.965688  0.073216
1.017093  0.972601  0.074081
0.006477  0.038681  0.115015
0.059810  0.041297  0.109079
0.125770  0.045757  0.114615
0.198683  0.046812  0.109166
0.273724  0.044727  0.109186
0.342734  0.043722  0.112747
0.413206  0.045323  0.116047
0.487206  0.043014  0.119155
0.557013  0.038183  0.120475
0.626535  0.046316  0.121896
0.698371  0.037704  0.121628
0.770375  0.041396  0.121291
0.840774  0.039477  0.118978
0.907555  0.039589  0.120774
0.983868  0.037822  0.118457
0.022953  0.086847  0.124505
0.058159  0.110218  0.118449
0.130321  0.110241  0.122219
0.196242  0.109872  0.119433
0.274560  0.110962  0.117967
0.342994  0.111878  0.116812
0.414006  0.109017  0.120704
0.485227  0.110674  0.120746
0.554896  0.112803  0.119950
0.626954  0.115086  0.116410
0.698753  0.113803  0.118939
0.766319  0.111389  0.121918
0.842884  0.113444  0.119644
0.915320  0.112306  0.116933
0.981273  0.112630  0.120938
0.051944  0.101050  0.150804
0.090515  0.126137  0.144754
0.134631  0.159480  0.133955
0.201015  0.172242  0.129169
0.273461  0.178228  0.121206
0.345013  0.175424  0.126795
0.416896  0.178382  0.115378
0.487153  0.184696  0.120714
0.555821  0.182490  0.118982
0.629358  0.181278  0.124174
0.698280  0.181243  0.121507
0.766884  0.184922  0.116987
0.841361  0.183562  0.119977
0.908254  0.183292  0.118984
0.981702  0.180942  0.121280
0.067759  0.158073  0.158136
0.113118  0.176322  0.155609
0.161450  0.193536  0.149284
0.215854  0.213751  0.143377
0.275739  0.222395  0.140338
0.350054  0.232497  0.131184
0.420695  0.238985  0.130046
0.482253  0.241276  0.124279
0.561151  0.247690  0.123830
0.628436  0.252398  0.122494
0.693781  0.251906  0.122588
0.767480  0.251118  0.126067
0.843240  0.251494  0.119037
0.913514  0.252371  0.120716
0.981677  0.255164  0.118607
0.072870  0.221586  0.159618
0.137162  0.232037  0.154615
0.175141  0.257863  0.147915
0.230571  0.269782  0.148067
0.292734  0.280404  0.141394
0.346872  0.286582  0.145642
0.423560  0.293724  0.142071
0.492322  0.296611  0.131447
0.559317  0.307393  0.133696
0.627957  0.306284  0.133666
0.698648  0.312166  0.132063
0.768001  0.312654  0.130405
0.843039  0.317875  0.127067
0.910414  0.325016  0.121604
0.984430  0.323562  0.123972
0.077223  0.287802  0.160757
0.146265  0.294191  0.157702
0.194513  0.304795  0.158232
0.242577  0.328317  0.148407
0.297357  0.344996  0.144176
0.357506  0.353232  0.149980
0.428925  0.357502  0.142069
0.495553  0.359113  0.139736
0.566383  0.360954  0.141842
0.638250  0.372131  0.142535
0.706129  0.372297  0.136464
0.773030  0.377459  0.137295
0.842732  0.379098  0.133815
0.918329  0.376949  0.133065
0.986908  0.380426  0.129384
0.084808  0.349480  0.159745
0.152808  0.352778  0.159037
0.211209  0.365465  0.154047
0.268282  0.378304  0.152074
0.311934  0.402211  0.144500
0.368281  0.414549  0.146135
0.434371  0.428403  0.141055
0.504987  0.423136  0.140680
0.572468  0.431755  0.137312
0.635958  0.434687  0.140049
0.712291  0.433940  0.144726
0.778432  0.432555  0.141992
0.846721  0.441908  0.138708
0.918600  0.448352  0.133084
0.990958  0.446206  0.131952
0.082402  0.424017  0.155453
0.157401  0.423969  0.158181
0.221302  0.423245  0.155077
0.285300  0.431960  0.154574
0.335493  0.453459  0.152283
0.380239  0.473559  0.145583
0.434506  0.486755  0.144214
0.508278  0.494411  0.144370
0.576675  0.494794  0.137767
0.643123  0.501470  0.140955
0.710715  0.501715  0.141081
0.777822  0.504506  0.142573
0.849825  0.507735  0.143469
0.925536  0.507591  0.137374
0.987558  0.513559  0.131111
0.097301  0.485964  0.150689
0.155802  0.493424  0.152182
0.222798  0.493192  0.153282
0.290235  0.496476  0.154556
0.356383  0.503344  0.151951
0.405654  0.526290  0.151160
0.454367  0.546489  0.144171
0.508952  0.558671  0.139911
0.576448  0.562297  0.140844
0.644466  0.567739  0.142410
0.713121  0.569474  0.143725
0.783581  0.573646  0.140745
0.851637  0.576882  0.139975
0.924348  0.576203  0.141117
0.996099  0.582111  0.140522
0.089486  0.555929  0.156795
0.166063  0.555338  0.149566
0.228087  0.564658  0.150187
0.288831  0.565132  0.156069
0.361986  0.566669  0.154990
0.420520  0.573776  0.157228
0.472212  0.593445  0.148846
0.528337  0.609374  0.144101
0.578335  0.630475  0.144400
0.648051  0.635842  0.141766
0.716897  0.641563  0.140915
0.784315  0.645997  0.139699
0.856512  0.640068  0.141698
0.921383  0.645252  0.143251
0.996526  0.645974  0.138748
0.096308  0.619674  0.154228
0.166865  0.620533  0.151409
0.235546  0.627754  0.147437
0.295971  0.637329  0.147341
0.364376  0.635865  0.147467
0.430867  0.638812  0.151101
0.488661  0.650082  0.152917
0.538747  0.664754  0.148806
0.602485  0.673403  0.143434
0.656140  0.699360  0.141264
0.721949  0.700499  0.142774
0.788733  0.710105  0.143016
0.860203  0.715585  0.141219
0.927120  0.713890  0.142550
0.998534  0.716495  0.140768
0.095964  0.688156  0.149602
0.166801  0.688257  0.150048
0.239692  0.687677  0.144530
0.311327  0.690285  0.143450
0.364213  0.700024  0.147685
0.434417  0.707833  0.154940
0.497078  0.709310  0.150031
0.553785  0.722481  0.146837
0.610664  0.740515  0.146658
0.678330  0.743320  0.141828
0.727826  0.761305  0.142618
0.797360  0.771288  0.144933
0.863984  0.776564  0.142225
0.926416  0.781213  0.144994
0.999902  0.785754  0.143372
0.092469  0.759911  0.149155
0.166820  0.759075  0.144883
0.241952  0.760024  0.144166
0.314339  0.753281  0.144775
0.375438  0.762077  0.146715
0.438442  0.770307  0.150519
0.505038  0.776032  0.147985
0.571141  0.781270  0.147978
0.623907  0.798126  0.148001
0.683219  0.809598  0.149976
0.748117  0.813211  0.141894
0.804754  0.826990  0.143117
0.868978  0.837684  0.141745
0.938202  0.846985  0.143298
1.003136  0.852198  0.139509
0.089833  0.835713  0.150904
0.165007  0.828904  0.147858
0.237910  0.830974  0.146059
0.308237  0.828589  0.137515
0.379865  0.833013  0.141026
0.444333  0.832716  0.145466
0.511477  0.830886  0.147145
0.576557  0.849606  0.148487
0.638972  0.852355  0.144920
0.693462  0.861078  0.141187
0.748816  0.877980  0.142556
0.820701  0.885685  0.141281
0.879648  0.896824  0.143876
0.940729  0.905769  0.141506
1.008670  0.909655  0.144746
0.093178  0.898915  0.149723
0.163198  0.903629  0.147049
0.237753  0.902827  0.144832
0.315189  0.901397  0.140217
0.379706  0.901673  0.141555
0.439474  0.905661  0.143977
0.513262  0.901805  0.144555
0.587795  0.899654  0.137650
0.642376  0.917018  0.146990
0.704323  0.928896  0.143733
0.757982  0.934393  0.142099
0.825846  0.940521  0.142018
0.887937  0.947547  0.140872
0.949212  0.963595  0.145860
1.019211  0.968933  0.145093
0.004382  0.040288  0.181267
0.058930  0.044577  0.184520
0.127207  0.051002  0.185424
0.199553  0.051210  0.190833
0.270278  0.050396  0.181692
0.342269  0.049779  0.182231
0.415619  0.047704  0.178239
0.485668  0.047377  0.175375
0.557423  0.044991  0.183346
0.624243  0.045823  0.185194
0.696950  0.042565  0.185202
0.772016  0.042158  0.185636
0.842989  0.045744  0.189156
0.913449  0.040306  0.187819
0.985884  0.038562  0.191594
0.019451  0.098200  0.178404
0.063484  0.111782  0.188023
0.130771  0.114114  0.183156
0.195215  0.117439  0.187994
0.270881  0.114215  0.186993
0.342933  0.115726  0.182844
0.416106  0.115729  0.183493
0.484988  0.115399  0.181884
0.555472  0.112626  0.188098
0.628308  0.115317  0.187379
0.698738  0.112405  0.190059
0.768313  0.111931  0.186294
0.840358  0.112920  0.188831
0.909260  0.110734  0.189728
0.983077  0.112122  0.190047
0.043369  0.130522  0.203595
0.082073  0.164363  0.193344
0.128177  0.184017  0.191225
0.196518  0.180164  0.193334
0.269351  0.179970  0.192950
0.341151  0.180393  0.190983
0.410441  0.181147  0.188864
0.483627  0.178523  0.183440
0.558969  0.181816  0.192515
0.627632  0.188607  0.184686
0.697781  0.186739  0.191274
0.767631  0.181640  0.187521
0.842850  0.184780  0.186889
0.909803  0.181529  0.192932
0.983370  0.183374  0.188975
0.058300  0.165242  0.226856
0.111154  0.178787  0.223582
0.155843  0.199926  0.219058
0.211284  0.223528  0.210372
0.273080  0.245158  0.196437
0.344364  0.249288  0.194798
0.417744  0.250083  0.190268
0.483755  0.252996  0.189442
0.553310  0.249434  0.191349
0.628498  0.254480  0.191605
0.695221  0.250432  0.191516
0.769424  0.251861  0.192814
0.842475  0.252131  0.189497
0.910409  0.253232  0.193920
0.982073  0.254701  0.194244
0.069945  0.226162  0.234149
0.131344  0.237087  0.229177
0.173098  0.255210  0.218812
0.223990  0.270509  0.222744
0.289180  0.281229  0.216080
0.352214  0.290841  0.211415
0.420646  0.303525  0.202052
0.486726  0.310221  0.199739
0.554554  0.311377  0.194767
0.629245  0.318978  0.192322
0.697399  0.325483  0.192657
0.769027  0.316928  0.189994
0.836679  0.321957  0.188832
0.909671  0.323507  0.192399
0.983173  0.324058  0.194804
0.076413  0.284833  0.238259
0.138469  0.293082  0.225549
0.193179  0.308236  0.226341
0.240697  0.329165  0.220041
0.290668  0.346826  0.219307
0.357966  0.350936  0.214097
0.428670  0.359449  0.210643
0.496852  0.361461  0.212400
0.564537  0.369471  0.207115
0.632583  0.373316  0.201392
0.701496  0.377357  0.203747
0.774126  0.382103  0.202923
0.841409  0.383779  0.194623
0.916555  0.391590  0.196106
0.979775  0.393189  0.195076
0.077132  0.349370  0.235508
0.148410  0.355255  0.226785
0.211523  0.367268  0.223733
0.262275  0.381882  0.220648
0.306694  0.402425  0.218860
0.370277  0.415648  0.216704
0.430745  0.426886  0.212214
0.498897  0.430577  0.212910
0.569057  0.432968  0.211024
0.640611  0.436091  0.213246
0.703466  0.440988  0.206078
0.779510  0.448957  0.205454
0.845156  0.446280  0.204060
0.912894  0.448335  0.208225
0.988824  0.447618  0.204028
0.081986  0.416554  0.233582
0.151641  0.420943  0.230840
0.222267  0.425384  0.226484
0.276668  0.431291  0.225585
0.328102  0.459327  0.221358
0.378823  0.475118  0.213743
0.438849  0.487815  0.212250
0.502631  0.493495  0.216065
0.574858  0.493198  0.216748
0.641352  0.501618  0.213233
0.711957  0.507969  0.212399
0.784582  0.502199  0.208307
0.846766  0.511508  0.213276
0.918959  0.514071  0.211027
0.988480  0.519262  0.206944
0.086525  0.482191  0.229002
0.156664  0.489772  0.227670
0.226369  0.494834  0.226353
0.286419  0.497195  0.229475
0.347072  0.502368  0.222582
0.398771  0.525750  0.215361
0.448675  0.545087  0.214033
0.505030  0.558974  0.215109
0.574496  0.567010  0.217234
0.644331  0.565500  0.214417
0.719241  0.571690  0.212025
0.784833  0.574456  0.212478
0.853417  0.570577  0.214183
0.922965  0.578426  0.215802
0.995206  0.581268  0.211737
0.088158  0.556848  0.227432
0.163366  0.551096  0.223298
0.231175  0.560212  0.226097
0.289963  0.562167  0.223326
0.361212  0.572273  0.224720
0.419982  0.575847  0.224142
0.469409  0.592684  0.218689
0.523890  0.611051  0.219117
0.584683  0.630548  0.213560
0.649404  0.638466  0.215184
0.717994  0.642563  0.213667
0.785975  0.645992  0.215240
0.852585  0.642977  0.210573
