LUT/LUT_9.CUBE
TITLE "LUT_9" 
#LUT size 
LUT_3D_SIZE 8 
DOMAIN_MIN 0.0 0.0 0.0 
DOMAIN_MAX 1.0 1.0 1.0 
#data point 
0.034876  0.034475  0.014265
0.093213  0.086892  0.038424
0.213620  0.156229  0.039567
0.347856  0.197353  0.025364
0.472002  0.228672  0.020712
0.600100  0.253670  0.020082
0.734349  0.276898  0.017850
0.867115  0.292704  0.005418
0.089802  0.093855  0.041671
0.136578  0.123028  0.054459
0.261179  0.193748  0.050148
0.375569  0.238088  0.041116
0.494201  0.284735  0.042555
0.614031  0.314264  0.027605
0.755096  0.354088  0.025032
0.888151  0.368219  0.025578
0.148711  0.135576  0.069225
0.223578  0.189308  0.076397
0.306816  0.247589  0.055483
0.408560  0.297526  0.054699
0.535754  0.338145  0.049727
0.643772  0.379472  0.048333
0.779998  0.401661  0.043141
0.910417  0.441995  0.044792
0.230838  0.205204  0.078617
0.308207  0.264083  0.063549
0.370909  0.325433  0.060240
0.456922  0.377890  0.057314
0.563995  0.420044  0.054747
0.678041  0.468152  0.043206
0.805070  0.483236  0.044872
0.940561  0.503415  0.053671
0.297455  0.280669  0.085998
0.371142  0.347669  0.064191
0.445931  0.415393  0.060020
0.517904  0.472280  0.056110
0.605393  0.522909  0.052995
0.704738  0.571445  0.051690
0.836398  0.590630  0.056217
0.954597  0.621953  0.061015
0.365211  0.357726  0.072444
0.440465  0.424661  0.058843
0.522477  0.488640  0.056147
0.581548  0.543260  0.065806
0.675658  0.608639  0.050709
0.754064  0.662387  0.061263
0.856204  0.706540  0.060440
0.976684  0.730988  0.067312
0.428821  0.433879  0.071691
0.500546  0.492120  0.059065
0.572004  0.562104  0.053209
0.644837  0.611061  0.058146
0.733191  0.663470  0.059054
0.812593  0.716648  0.061187
0.901386  0.763850  0.061933
1.017365  0.819120  0.061637
0.486944  0.508241  0.062061
0.555418  0.560744  0.062987
0.639182  0.620269  0.060426
0.708226  0.668053  0.061080
0.785678  0.719080  0.059330
0.871422  0.766151  0.059055
0.964600  0.818111  0.064055
1.074247  0.872602  0.062803
0.070291  0.076669  0.047349
0.112220  0.109234  0.057965
0.208773  0.169327  0.059328
0.333776  0.216952  0.047845
0.475279  0.245747  0.041454
0.588057  0.263227  0.030693
0.721706  0.289730  0.028145
0.869888  0.306903  0.024488
0.101104  0.120963  0.105212
0.140287  0.157904  0.121628
0.238105  0.215741  0.110222
0.374203  0.264525  0.084835
0.488193  0.310349  0.076244
0.613977  0.344423  0.056230
0.749221  0.366230  0.045004
0.877564  0.382587  0.033933
0.138017  0.177072  0.166906
0.207434  0.213439  0.157508
0.297599  0.267168  0.144371
0.404530  0.311174  0.139352
0.516249  0.360138  0.113833
0.642866  0.404302  0.102626
0.776041  0.435501  0.089603
0.908923  0.470415  0.067688
0.199806  0.230567  0.193888
0.292920  0.279639  0.181776
0.363681  0.339103  0.160679
0.453692  0.389204  0.144852
0.555076  0.427847  0.130637
0.676775  0.472473  0.131446
0.804337  0.497243  0.124558
0.931499  0.535951  0.096833
0.280982  0.285508  0.203429
0.351620  0.346075  0.176129
0.427023  0.407312  0.185045
0.507229  0.479613  0.156093
0.603416  0.535073  0.118489
0.715277  0.567329  0.137939
0.831804  0.599210  0.139332
0.964434  0.626624  0.124573
0.355541  0.357334  0.199837
0.421368  0.428683  0.187212
0.495974  0.478418  0.164729
0.565030  0.546442  0.164311
0.661767  0.608563  0.132108
0.747498  0.664575  0.139966
0.852256  0.707981  0.135670
0.995258  0.736790  0.131648
0.420895  0.434964  0.189648
0.485114  0.488987  0.166840
0.554252  0.544907  0.169322
0.631367  0.611223  0.147707
0.728325  0.664681  0.137668
0.809690  0.718973  0.152656
0.906881  0.775892  0.136538
1.006763  0.821275  0.128673
0.468279  0.491637  0.192951
0.553479  0.571915  0.171160
0.629176  0.617929  0.155871
0.704211  0.667657  0.141692
0.783780  0.730519  0.143019
0.873160  0.773432  0.142927
0.960034  0.825541  0.147825
1.055321  0.874322  0.147984
0.098239  0.135621  0.134246
0.126993  0.161712  0.154026
0.203591  0.207152  0.148883
0.337235  0.254779  0.123742
0.475578  0.281403  0.104462
0.593429  0.307273  0.103245
0.723719  0.323942  0.089585
0.861034  0.335958  0.095485
0.128660  0.176210  0.186472
0.158780  0.210433  0.219293
0.227999  0.258177  0.224085
0.355909  0.303246  0.182508
0.498537  0.343407  0.155827
0.601586  0.373119  0.151235
0.736189  0.412348  0.134625
0.868167  0.429793  0.127027
0.164551  0.229978  0.251758
0.198280  0.262467  0.276054
0.259980  0.286178  0.260872
0.386443  0.360363  0.251542
0.510636  0.398609  0.218504
0.640671  0.429037  0.188949
0.770377  0.484812  0.181519
0.887128  0.509519  0.175284
0.197614  0.272137  0.298263
0.257111  0.320998  0.317991
0.327361  0.352974  0.309155
0.425869  0.408125  0.301912
0.549374  0.445833  0.268723
0.666930  0.495521  0.245386
0.787511  0.536006  0.229263
0.915354  0.564487  0.219460
0.239421  0.321424  0.340145
0.327888  0.374332  0.333993
0.408253  0.422631  0.323448
0.490546  0.481965  0.308364
0.590765  0.536132  0.292620
0.701778  0.574594  0.278301
0.832528  0.622699  0.259148
0.961836  0.644462  0.259575
0.319049  0.375543  0.363866
0.401605  0.430758  0.347356
0.483643  0.489646  0.329022
0.553184  0.550841  0.313333
0.652936  0.621009  0.304351
0.749231  0.669617  0.291124
0.858174  0.708674  0.271968
0.985791  0.739632  0.280459
0.376886  0.416295  0.354131
0.456088  0.482046  0.337674
0.550236  0.554425  0.330675
0.620558  0.613627  0.317341
0.710109  0.678142  0.310200
0.803812  0.728498  0.299594
0.904254  0.783959  0.268690
1.012920  0.824675  0.265421
0.448312  0.487442  0.346887
0.534935  0.562388  0.322792
0.605483  0.617088  0.309607
0.684153  0.668043  0.317933
0.762987  0.723402  0.308516
0.875232  0.787219  0.301651
0.946675  0.828614  0.293785
1.061259  0.887654  0.274010
0.122329  0.177273  0.195540
0.147969  0.208183  0.228412
0.213055  0.255726  0.249187
0.324351  0.298566  0.229134
0.462524  0.328438  0.186232
0.595119  0.346244  0.178160
0.727454  0.357155  0.181243
0.854635  0.368864  0.188108
0.153485  0.220673  0.243418
0.189682  0.259837  0.287520
0.241067  0.311023  0.318052
0.340441  0.346265  0.292778
0.486272  0.393088  0.253338
0.595109  0.417269  0.242668
0.727028  0.432291  0.217206
0.856142  0.462751  0.224613
0.190482  0.275936  0.308254
0.229568  0.312726  0.337406
0.273663  0.358157  0.380221
0.383120  0.409515  0.355376
0.482360  0.448203  0.340215
0.634163  0.483446  0.285774
0.756301  0.519188  0.265876
0.884901  0.550137  0.275219
0.231723  0.320192  0.364052
0.267074  0.363275  0.405274
0.307969  0.402192  0.429955
0.412016  0.445901  0.408017
0.522654  0.498498  0.390059
0.672160  0.534698  0.345630
0.784365  0.579191  0.342374
0.910165  0.619453  0.322315
0.266370  0.375210  0.419753
0.309084  0.411427  0.448054
0.375557  0.458053  0.461941
0.470652  0.500949  0.443652
0.557526  0.557874  0.462029
0.685460  0.597961  0.415200
0.815034  0.645693  0.395489
0.930285  0.686329  0.376470
0.305621  0.418630  0.466100
0.358511  0.455731  0.478329
0.469172  0.509549  0.462098
0.531795  0.551930  0.466039
0.628168  0.620183  0.465540
0.728599  0.679103  0.451366
0.852204  0.732864  0.430585
0.962204  0.751071  0.423310
0.340916  0.458145  0.498894
0.428442  0.510274  0.499852
0.524852  0.554477  0.475952
0.605337  0.613328  0.466844
0.693978  0.684102  0.452411
0.790892  0.738060  0.443776
0.894401  0.791812  0.451406
1.014303  0.831124  0.448784
0.394271  0.499384  0.519418
0.497955  0.550623  0.485309
0.591752  0.616437  0.476135
0.669000  0.671320  0.459622
0.776289  0.734703  0.446946
0.847470  0.782700  0.443902
0.947660  0.836003  0.468948
1.053403  0.889894  0.441754
0.135259  0.228536  0.278386
0.176598  0.271084  0.316694
0.230730  0.308894  0.332110
0.326937  0.346055  0.315321
0.451106  0.381412  0.299232
0.593315  0.387637  0.278207
0.747153  0.405024  0.270716
0.870310  0.397651  0.263535
0.185675  0.284233  0.328053
0.221583  0.312563  0.352492
0.255442  0.345402  0.378812
0.346807  0.398288  0.382975
0.457236  0.446107  0.368864
0.593986  0.468555  0.337370
0.729375  0.487415  0.307175
0.875611  0.499449  0.305232
0.224354  0.334197  0.389590
0.257227  0.361195  0.409950
0.298168  0.401376  0.446683
0.383448  0.457295  0.457083
0.482688  0.493596  0.429164
0.613049  0.540190  0.412316
0.750805  0.564153  0.375646
0.882137  0.584899  0.362263
0.260937  0.374938  0.429980
0.302888  0.417076  0.458759
0.341826  0.451801  0.505082
0.392564  0.492919  0.518179
0.514248  0.545127  0.498619
0.632175  0.592506  0.479047
0.764536  0.631129  0.444249
0.902097  0.662891  0.423072
0.304358  0.424210  0.478696
0.341816  0.462103  0.511924
0.390723  0.506914  0.552695
0.435452  0.554289  0.586295
0.566205  0.597970  0.557424
0.661022  0.645595  0.546084
0.804941  0.687774  0.496025
0.933872  0.728069  0.477268
0.338168  0.468984  0.525298
0.373479  0.505117  0.555373
0.429696  0.561529  0.600745
0.495855  0.597546  0.617857
0.607023  0.643642  0.591187
0.710183  0.709273  0.600501
0.826946  0.750819  0.571841
0.959218  0.790545  0.536899
0.375827  0.511790  0.563727
0.416568  0.549872  0.602536
0.480211  0.600545  0.627012
0.573338  0.636410  0.611804
0.688084  0.694437  0.595430
0.771777  0.748103  0.612159
0.887441  0.800015  0.597079
1.008191  0.856727  0.578071
0.415359  0.559125  0.616920
0.463835  0.597087  0.640206
0.558391  0.638558  0.625053
0.661257  0.682474  0.616485
0.752229  0.740070  0.603215
0.838117  0.790301  0.597599
0.943574  0.850135  0.600411
1.056954  0.897038  0.598047
0.137054  0.289782  0.385685
0.194825  0.324078  0.398779
0.241768  0.362473  0.423736
0.330037  0.397944  0.405831
0.453668  0.422646  0.380763
0.578671  0.433317  0.385016
0.719747  0.426431  0.372447
0.879950  0.419638  0.368193
0.192321  0.338335  0.424357
0.248253  0.380497  0.441360
0.296390  0.415931  0.465127
0.353752  0.449913  0.475754
0.458609  0.488419  0.451372
0.584822  0.521839  0.442169
0.721651  0.547269  0.429282
0.873354  0.553971  0.406922
0.245788  0.384390  0.461822
0.299793  0.424912  0.481868
0.334434  0.463406  0.518472
0.388094  0.500926  0.533680
0.473727  0.541298  0.523380
0.607574  0.593410  0.512539
0.736648  0.620022  0.480175
0.879452  0.638425  0.451850
0.290425  0.431788  0.499697
0.342314  0.476394  0.535967
0.385891  0.516414  0.569414
0.425645  0.547301  0.590777
0.492668  0.593835  0.605879
0.622424  0.632500  0.562658
0.756268  0.682379  0.542228
0.884905  0.724070  0.532877
0.328272  0.475312  0.549877
0.382230  0.521165  0.581067
0.429968  0.564240  0.614174
0.473921  0.602179  0.646927
0.530441  0.648322  0.675712
0.655516  0.695772  0.636778
0.778490  0.740082  0.615703
0.918813  0.793148  0.595421
0.367860  0.527148  0.590788
0.414731  0.564309  0.615275
0.464385  0.605863  0.648729
0.516180  0.656073  0.695294
0.580603  0.701242  0.727060
0.698740  0.743752  0.701520
0.829664  0.794400  0.680395
0.950369  0.842345  0.656489
0.404092  0.568810  0.634771
0.460462  0.614073  0.675166
0.508041  0.659405  0.718027
0.554185  0.689315  0.728794
0.633215  0.739450  0.750132
0.747652  0.782255  0.736504
0.873386  0.833453  0.725658
0.976365  0.873510  0.710541
0.435697  0.614004  0.692730
0.482225  0.653090  0.725505
0.527668  0.685758  0.760921
0.612858  0.732979  0.762635
0.702760  0.777767  0.771188
0.828613  0.819152  0.740654
0.930755  0.871189  0.743403
1.032853  0.917917  0.734990
0.096630  0.321142  0.522060
0.181136  0.382049  0.513470
0.241224  0.421053  0.530565
0.314657  0.464384  0.538145
0.437243  0.469738  0.504588
0.581433  0.466328  0.490053
0.719921  0.452660  0.484403
0.863590  0.449105  0.495712
0.172212  0.397632  0.544613
0.246549  0.435165  0.532812
0.308595  0.475050  0.551702
0.364778  0.520954  0.584992
0.444622  0.543731  0.563460
0.588109  0.566563  0.519989
0.720331  0.573408  0.524042
0.857198  0.578801  0.516903
0.228283  0.442825  0.559258
0.309073  0.478521  0.563243
0.369732  0.525540  0.592633
0.412549  0.567775  0.630839
0.481099  0.605501  0.642112
0.599471  0.637118  0.599485
0.718509  0.668396  0.584628
0.859904  0.693652  0.572516
0.303315  0.484026  0.579668
0.363208  0.526319  0.590622
0.421204  0.576673  0.634233
0.465205  0.624792  0.677645
0.520869  0.667432  0.716885
0.613629  0.688753  0.668788
0.753021  0.737245  0.640291
0.881606  0.771545  0.623266
0.341625  0.526549  0.616464
0.412371  0.575166  0.640636
0.458696  0.612491  0.670365
0.507437  0.671371  0.741722
0.554356  0.710065  0.778612
0.644037  0.746528  0.754210
0.785995  0.787149  0.709268
0.905362  0.831206  0.698469
0.390295  0.575907  0.664750
0.442276  0.614108  0.684942
0.499685  0.668646  0.733430
0.546468  0.707097  0.778823
0.597398  0.745871  0.823898
0.678638  0.795333  0.833439
0.801447  0.835376  0.796558
0.937945  0.878251  0.754517
0.424503  0.614682  0.706866
0.477687  0.652844  0.736980
0.531409  0.700331  0.779330
0.586768  0.748344  0.828202
0.644730  0.781396  0.847134
0.726350  0.838775  0.883462
0.832528  0.884010  0.875250
0.974893  0.915389  0.811854
0.460840  0.648117  0.744323
0.513746  0.691455  0.787367
0.567241  0.731726  0.817597
0.625985  0.771090  0.853762
0.693790  0.818818  0.878676
0.784751  0.877914  0.916437
0.893501  0.920252  0.903203
1.011891  0.953449  0.866763
0.090891  0.332429  0.652155
0.162678  0.388657  0.658505
0.239038  0.441192  0.665114
0.301488  0.475537  0.683544
0.393166  0.508018  0.688293
0.556790  0.502770  0.641119
0.735796  0.480981  0.614900
0.890483  0.475573  0.605453
0.143320  0.417477  0.659644
0.236007  0.475135  0.645839
0.307222  0.525280  0.667693
0.360112  0.572148  0.694112
0.428016  0.616812  0.712729
0.560387  0.643127  0.686589
0.703662  0.624357  0.644806
0.866522  0.613067  0.623788
0.220487  0.478483  0.660346
0.305975  0.530680  0.668011
0.380792  0.580930  0.694520
0.442512  0.629160  0.720285
0.490318  0.669170  0.757483
0.581576  0.713870  0.759261
0.710215  0.727475  0.695928
0.861788  0.746509  0.668661
0.290808  0.524551  0.664654
0.374573  0.571158  0.673245
0.439451  0.623268  0.713434
0.489857  0.670634  0.760654
0.532637  0.708215  0.794421
0.607140  0.752009  0.825773
0.707163  0.794539  0.806939
0.870037  0.823558  0.733333
0.348462  0.565078  0.692663
0.428071  0.616304  0.703856
0.477788  0.659722  0.744028
0.535179  0.704328  0.781776
0.577877  0.740844  0.820832
0.648854  0.785253  0.859638
0.740496  0.850021  0.893707
0.884396  0.881766  0.824742
0.396981  0.601428  0.718543
0.470980  0.653097  0.745008
0.518601  0.696345  0.786144
0.576615  0.736717  0.825175
0.627812  0.777589  0.855786
0.712808  0.826691  0.890495
0.797066  0.889486  0.926281
0.895590  0.932064  0.920168
0.445249  0.646375  0.765242
0.509406  0.690005  0.790678
0.562649  0.731639  0.817095
0.617873  0.766329  0.852075
0.676227  0.812605  0.873358
0.762117  0.868640  0.915261
0.841358  0.916671  0.946761
0.943324  0.970772  0.979821
0.475862  0.676559  0.794686
0.541416  0.720289  0.817114
0.603683  0.761102  0.852906
0.674986  0.809839  0.880870
0.733356  0.849204  0.910881
0.818570  0.902308  0.939627
0.897582  0.946489  0.967292
0.980413  0.989048  1.000960
