LUT/LUT_1.CUBE
TITLE "LUT_1" 
#LUT size 
LUT_3D_SIZE 8 
DOMAIN_MIN 0.0 0.0 0.0 
DOMAIN_MAX 1.0 1.0 1.0 
#data point 
0.010543  0.004812  0.002532
0.127064  0.038233  0.000238
0.273844  0.039091  -0.001876
0.414771  0.042999  -0.005095
0.555248  0.040416  -0.007964
0.695447  0.040288  -0.010666
0.841526  0.042534  -0.008132
0.981973  0.042447  -0.007590
0.060357  0.092665  0.027692
0.149023  0.129221  0.023520
0.279189  0.151692  0.013229
0.422134  0.158465  0.009613
0.559433  0.169970  0.004433
0.694950  0.176037  0.000394
0.840249  0.179254  -0.006439
0.983622  0.180564  -0.002978
0.081959  0.218406  0.026704
0.184108  0.246662  0.025609
0.290941  0.278098  0.016605
0.425702  0.287702  0.017350
0.565204  0.290719  0.020553
0.702419  0.299990  0.010737
0.844823  0.300271  0.009239
0.986432  0.306187  0.004505
0.089517  0.352378  0.025285
0.216873  0.361962  0.022058
0.317386  0.395794  0.020180
0.432421  0.418475  0.020340
0.570356  0.425962  0.016779
0.709116  0.434368  0.015926
0.850012  0.434090  0.015428
0.994353  0.438861  0.013968
0.090294  0.491711  0.022501
0.223466  0.499787  0.018966
0.354562  0.504559  0.017504
0.461924  0.537817  0.020097
0.579461  0.562685  0.014179
0.708571  0.572705  0.016498
0.854884  0.575145  0.016956
0.997779  0.575154  0.014876
0.094444  0.621187  0.013721
0.235749  0.630741  0.015841
0.365552  0.643480  0.012638
0.490034  0.650340  0.020687
0.607391  0.676082  0.013655
0.720784  0.699566  0.014117
0.857444  0.712544  0.013750
0.994897  0.717112  0.018292
0.097915  0.761957  0.014221
0.242202  0.758969  0.010005
0.371196  0.769830  0.010680
0.506835  0.771498  0.007896
0.622524  0.800401  0.016459
0.744281  0.813892  0.017707
0.862919  0.835711  0.019180
1.005876  0.850012  0.013922
0.097905  0.905638  0.009739
0.240181  0.903531  0.007246
0.375116  0.902021  0.004831
0.520431  0.900437  0.002733
0.642641  0.924011  0.010496
0.757846  0.938632  0.013716
0.891136  0.955124  0.013300
1.016593  0.968927  0.013955
0.006477  0.038681  0.115015
0.125770  0.045757  0.114615
0.273724  0.044727  0.109186
0.413206  0.045323  0.116047
0.557013  0.038183  0.120475
0.698371  0.037704  0.121628
0.840774  0.039477  0.118978
0.983868  0.037822  0.118457
0.051944  0.101050  0.150804
0.134631  0.159480  0.133955
0.273461  0.178228  0.121206
0.416896  0.178382  0.115378
0.555821  0.182490  0.118982
0.698280  0.181243  0.121507
0.841361  0.183562  0.119977
0.981702  0.180942  0.121280
0.072870  0.221586  0.159618
0.175141  0.257863  0.147915
0.292734  0.280404  0.141394
0.423560  0.293724  0.142071
0.559317  0.307393  0.133696
0.698648  0.312166  0.132063
0.843039  0.317875  0.127067
0.984430  0.323562  0.123972
0.084808  0.349480  0.159745
0.211209  0.365465  0.154047
0.311934  0.402211  0.144500
0.434371  0.428403  0.141055
0.572468  0.431755  0.137312
0.712291  0.433940  0.144726
0.846721  0.441908  0.138708
0.990958  0.446206  0.131952
0.097301  0.485964  0.150689
0.222798  0.493192  0.153282
0.356383  0.503344  0.151951
0.454367  0.546489  0.144171
0.576448  0.562297  0.140844
0.713121  0.569474  0.143725
0.851637  0.576882  0.139975
0.996099  0.582111  0.140522
0.096308  0.619674  0.154228
0.235546  0.627754  0.147437
0.364376  0.635865  0.147467
0.488661  0.650082  0.152917
0.602485  0.673403  0.143434
0.721949  0.700499  0.142774
0.860203  0.715585  0.141219
0.998534  0.716495  0.140768
0.092469  0.759911  0.149155
0.241952  0.760024  0.144166
0.375438  0.762077  0.146715
0.505038  0.776032  0.147985
0.623907  0.798126  0.148001
0.748117  0.813211  0.141894
0.868978  0.837684  0.141745
1.003136  0.852198  0.139509
0.093178  0.898915  0.149723
0.237753  0.902827  0.144832
0.379706  0.901673  0.141555
0.513262  0.901805  0.144555
0.642376  0.917018  0.146990
0.757982  0.934393  0.142099
0.887937  0.947547  0.140872
1.019211  0.968933  0.145093
0.009159  0.047521  0.236346
0.129509  0.058947  0.239860
0.271596  0.053519  0.244720
0.412688  0.044797  0.253458
0.559371  0.048798  0.245009
0.699663  0.043965  0.248806
0.842848  0.043699  0.256016
0.983437  0.043757  0.256700
0.031628  0.159879  0.254006
0.127376  0.185549  0.255736
0.265132  0.192266  0.260693
0.413777  0.187461  0.255202
0.558442  0.187859  0.250541
0.698683  0.183918  0.262421
0.841541  0.184808  0.258797
0.983754  0.186147  0.259351
0.070002  0.233120  0.295533
0.167472  0.257355  0.293489
0.279082  0.296693  0.277385
0.411820  0.317448  0.269665
0.556952  0.327738  0.254232
0.699997  0.324328  0.259271
0.843484  0.323203  0.260008
0.983978  0.325786  0.260969
0.070467  0.356067  0.311206
0.203543  0.368406  0.300898
0.305880  0.400397  0.290578
0.425135  0.423828  0.289657
0.568447  0.431557  0.281930
0.703679  0.447824  0.275572
0.843375  0.451558  0.267792
0.987028  0.459681  0.265823
0.082449  0.481337  0.306211
0.227523  0.488482  0.296869
0.349241  0.506031  0.295423
0.447994  0.549587  0.290027
0.574091  0.567848  0.285789
0.710874  0.570934  0.282002
0.854376  0.578823  0.286511
0.992327  0.591099  0.275914
0.086694  0.616173  0.303899
0.232324  0.623799  0.298563
0.358990  0.637443  0.295932
0.482674  0.648266  0.291698
0.599655  0.677609  0.288631
0.720281  0.707193  0.287981
0.853883  0.715461  0.286205
0.991633  0.719459  0.286825
0.089249  0.753870  0.297884
0.231617  0.756899  0.297291
0.378417  0.757036  0.292498
0.505779  0.769971  0.290731
0.621805  0.798385  0.292362
0.748734  0.814506  0.289032
0.869206  0.837107  0.282826
1.000888  0.849127  0.281613
0.087475  0.902168  0.297476
0.231578  0.903334  0.290491
0.377070  0.899206  0.287619
0.515313  0.897981  0.284244
0.652224  0.901202  0.284995
0.761270  0.936440  0.288895
0.890581  0.948183  0.289753
1.014803  0.972612  0.285638
0.008378  0.048870  0.379046
0.131399  0.055037  0.379767
0.271949  0.056857  0.379992
0.415929  0.058479  0.384368
0.556767  0.049456  0.384435
0.700602  0.056149  0.380146
0.853882  0.055931  0.376341
0.985377  0.043664  0.390820
0.027702  0.177137  0.379083
0.135887  0.200900  0.379692
0.271030  0.199464  0.386746
0.412954  0.197092  0.386342
0.560444  0.195160  0.385100
0.694240  0.185454  0.400582
0.840218  0.181936  0.389632
0.981477  0.185465  0.399926
0.058165  0.269922  0.405836
0.160987  0.312009  0.387573
0.274353  0.325269  0.404752
0.413646  0.328637  0.398030
0.552265  0.328529  0.396416
0.699282  0.327312  0.397157
0.840775  0.329986  0.393249
0.986463  0.323350  0.403809
0.082851  0.351209  0.436926
0.199283  0.373509  0.437631
0.304227  0.405109  0.441307
0.422449  0.440062  0.418095
0.555648  0.453072  0.407469
0.699664  0.464868  0.401424
0.844721  0.465552  0.400947
0.985705  0.470865  0.401039
0.086222  0.487613  0.440796
0.219376  0.478324  0.447245
0.337956  0.510630  0.440653
0.446370  0.551896  0.433011
0.569914  0.570672  0.434534
0.707306  0.576991  0.423329
0.847563  0.594252  0.413013
0.990290  0.595367  0.414956
0.086501  0.611682  0.445104
0.222663  0.620955  0.445129
0.368709  0.626984  0.435273
0.480475  0.651123  0.434043
0.593393  0.683960  0.435026
0.716779  0.711729  0.430847
0.855357  0.711781  0.433177
0.994982  0.718576  0.426467
0.084540  0.755070  0.444977
0.222789  0.752367  0.440232
0.374289  0.755674  0.437297
0.511322  0.762013  0.431783
0.618719  0.799697  0.433931
0.745448  0.814120  0.428603
0.859954  0.845091  0.429971
1.005252  0.853364  0.431438
0.082642  0.896263  0.443699
0.229867  0.900560  0.437253
0.373539  0.898554  0.434393
0.512266  0.896729  0.434412
0.655380  0.898866  0.427825
0.760410  0.930245  0.430245
0.891483  0.943442  0.433406
1.013567  0.970854  0.433663
-0.006345  0.048230  0.535710
0.132523  0.058410  0.534429
0.272277  0.060352  0.522192
0.416219  0.057873  0.523662
0.560150  0.054276  0.527900
0.698852  0.052874  0.526068
0.849146  0.056658  0.525826
0.992217  0.054678  0.519315
0.011716  0.177893  0.531721
0.143730  0.191476  0.528146
0.274649  0.202873  0.517313
0.414651  0.197415  0.525458
0.556013  0.196705  0.528215
0.704584  0.194320  0.528807
0.845656  0.194046  0.522924
0.988956  0.197265  0.523364
0.027829  0.305385  0.541742
0.156666  0.321153  0.528809
0.275264  0.339535  0.522468
0.413958  0.342755  0.528369
0.555983  0.338871  0.527379
0.704006  0.339083  0.524247
0.840868  0.336360  0.528757
0.984698  0.328393  0.533795
0.074861  0.365657  0.570045
0.187745  0.412159  0.554902
0.292632  0.463636  0.532295
0.414152  0.474297  0.535397
0.551597  0.474462  0.542614
0.696351  0.472678  0.544523
0.840611  0.476617  0.542524
0.984172  0.472626  0.538135
0.080706  0.485014  0.589044
0.223045  0.486894  0.586484
0.336437  0.515533  0.583039
0.443398  0.547632  0.584506
0.565369  0.587803  0.559531
0.697936  0.605232  0.552224
0.845941  0.609296  0.544664
0.984309  0.613173  0.541024
0.082126  0.617128  0.592609
0.221059  0.625526  0.588719
0.361616  0.628042  0.583742
0.473098  0.654581  0.582243
0.588656  0.684165  0.573453
0.718475  0.710284  0.577224
0.848516  0.723822  0.567820
0.986070  0.737112  0.555954
0.081911  0.753954  0.590562
0.223204  0.752408  0.597011
0.368589  0.751275  0.586697
0.504822  0.759407  0.582537
0.616347  0.799691  0.576402
0.739511  0.816809  0.579431
0.865452  0.844500  0.571609
1.002146  0.858172  0.574050
0.084508  0.895888  0.590579
0.223145  0.892315  0.593403
0.368767  0.897618  0.582893
0.511993  0.892692  0.580346
0.652821  0.902395  0.577551
0.768922  0.917390  0.569512
0.892363  0.948327  0.578180
1.016706  0.968975  0.574643
-0.002815  0.049140  0.674348
0.124983  0.053172  0.676537
0.264176  0.055780  0.678543
0.417488  0.055848  0.667489
0.564009  0.053751  0.663526
0.703065  0.055255  0.669518
0.842441  0.054264  0.672160
0.988602  0.052817  0.666816
0.012448  0.175988  0.677668
0.141107  0.192641  0.680242
0.267440  0.199576  0.681243
0.414501  0.202351  0.667991
0.560000  0.198126  0.665555
0.700405  0.196674  0.670098
0.843357  0.197515  0.675956
0.987435  0.193043  0.668896
0.019926  0.315151  0.676879
0.153234  0.324324  0.674440
0.267943  0.347775  0.680457
0.417566  0.344951  0.664215
0.561691  0.341729  0.665172
0.700719  0.342752  0.673072
0.842102  0.335641  0.670997
0.983507  0.339412  0.667450
0.055946  0.395588  0.695244
0.166845  0.450827  0.679908
0.291567  0.472912  0.680946
0.418139  0.483578  0.668053
0.554359  0.484734  0.672277
0.696441  0.481200  0.675092
0.839148  0.482513  0.667097
0.986065  0.479827  0.672847
0.080652  0.490146  0.715226
0.211778  0.509764  0.712332
0.332764  0.545324  0.699669
0.425933  0.612862  0.682636
0.557657  0.616290  0.681294
0.695908  0.624015  0.676869
0.837816  0.616683  0.681689
0.983057  0.621769  0.687514
0.084082  0.623548  0.717548
0.223827  0.629925  0.719605
0.354598  0.641676  0.719521
0.479674  0.643391  0.731564
0.584694  0.689106  0.728078
0.707341  0.729174  0.707055
0.843279  0.750568  0.692364
0.988871  0.757212  0.687475
0.083250  0.752337  0.732382
0.223778  0.754140  0.734062
0.362885  0.751739  0.737470
0.498049  0.754681  0.732934
0.616720  0.791406  0.726109
0.734878  0.817380  0.720636
0.860768  0.850436  0.719740
0.997297  0.864675  0.712112
0.080256  0.898835  0.733924
0.221046  0.897972  0.734773
0.357006  0.893539  0.738904
0.505144  0.894569  0.731858
0.639424  0.900607  0.728073
0.765696  0.919411  0.718865
0.891674  0.939601  0.719714
1.010925  0.975676  0.716215
-0.003439  0.048154  0.817779
0.130519  0.051283  0.818650
0.262670  0.058381  0.827913
0.409155  0.058965  0.824642
0.555435  0.057619  0.822261
0.700477  0.052510  0.811427
0.845216  0.054665  0.810100
0.989274  0.052488  0.810986
0.013488  0.177844  0.821850
0.138619  0.190930  0.818492
0.271858  0.197664  0.823304
0.407666  0.201588  0.822007
0.551914  0.196219  0.819830
0.705678  0.196496  0.806180
0.844063  0.193840  0.811303
0.982530  0.192714  0.814237
0.028628  0.298707  0.812388
0.154505  0.325338  0.814889
0.284035  0.332759  0.816541
0.405177  0.343818  0.828574
0.550279  0.347064  0.825124
0.703273  0.344173  0.809837
0.843190  0.341097  0.811919
0.985132  0.340734  0.816707
0.049844  0.424013  0.818353
0.170977  0.443433  0.811261
0.290438  0.471909  0.816569
0.409449  0.486206  0.819376
0.551422  0.486596  0.828090
0.699270  0.484039  0.814235
0.840985  0.483538  0.812666
0.986220  0.482112  0.814379
0.070791  0.518314  0.843378
0.198153  0.545234  0.833611
0.322711  0.581489  0.811867
0.426911  0.617594  0.823402
0.553609  0.630510  0.827841
0.692450  0.629755  0.821426
0.836540  0.621870  0.818618
0.986685  0.626145  0.816886
0.081770  0.622818  0.854818
0.224206  0.637137  0.859670
0.348962  0.657668  0.848958
0.483307  0.674579  0.839796
0.557521  0.754497  0.840306
0.688493  0.763434  0.837435
0.838965  0.768515  0.816861
0.984419  0.769417  0.814166
0.078667  0.767208  0.859758
0.224961  0.761849  0.856878
0.367386  0.766251  0.858397
0.503247  0.772120  0.860061
0.618137  0.789139  0.866996
0.739636  0.821814  0.872483
0.849563  0.870582  0.850393
0.987004  0.894751  0.838918
0.080339  0.906512  0.861938
0.220714  0.901810  0.867335
0.368050  0.896095  0.871337
0.502831  0.894617  0.875267
0.637757  0.899075  0.876173
0.754975  0.924846  0.885591
0.894114  0.932537  0.863449
1.010745  0.974697  0.863009
-0.001813  0.045474  0.958083
0.129886  0.052890  0.965582
0.266111  0.055672  0.966735
0.406225  0.057877  0.963988
0.554624  0.057224  0.968668
0.693339  0.057516  0.963017
0.846250  0.055530  0.962019
0.988958  0.056025  0.951589
0.012363  0.173299  0.960620
0.142264  0.188307  0.961569
0.277358  0.194165  0.960023
0.405444  0.201868  0.969417
0.550279  0.197393  0.967967
0.698762  0.195649  0.968518
0.838167  0.197385  0.964211
0.985753  0.196165  0.949725
0.026280  0.305536  0.959279
0.152955  0.320091  0.960146
0.282314  0.334708  0.962466
0.409829  0.344244  0.966721
0.550514  0.346115  0.968484
0.696684  0.345582  0.967693
0.839967  0.347153  0.964080
0.982716  0.344160  0.959166
0.039567  0.432136  0.961539
0.168819  0.448038  0.960329
0.295843  0.466551  0.964999
0.421270  0.481000  0.964179
0.550280  0.488448  0.968701
0.695304  0.491690  0.964202
0.838928  0.487140  0.966870
0.983340  0.482659  0.966604
0.061084  0.541418  0.971210
0.187307  0.563399  0.961814
0.314742  0.586505  0.954323
0.440055  0.606116  0.958995
0.554275  0.628034  0.968244
0.696760  0.630746  0.967882
0.834159  0.632975  0.972151
0.975853  0.627009  0.971194
0.075129  0.640176  0.989906
0.217363  0.654942  0.982383
0.337333  0.687182  0.968392
0.468917  0.712418  0.955209
0.573773  0.752526  0.956409
0.696949  0.775882  0.968198
0.831273  0.774516  0.976676
0.976066  0.772537  0.976249
0.082764  0.768777  1.005179
0.221624  0.767479  1.004996
0.367095  0.770886  0.995752
0.496859  0.788259  0.986003
0.625371  0.804763  0.978555
0.719418  0.873096  0.974649
0.836550  0.903884  0.981633
0.976648  0.912288  0.978676
0.081614  0.912980  1.000437
0.226806  0.907843  1.002580
0.368190  0.906115  1.001584
0.506600  0.910797  1.003004
0.633889  0.916988  1.001734
0.759103  0.930204  1.006572
0.890491  0.944517  1.004120
0.999296  0.993807  1.001360
