LUT/LUT_22.CUBE
TITLE "LUT_22" 
#LUT size 
LUT_3D_SIZE 8 
DOMAIN_MIN 0.0 0.0 0.0 
DOMAIN_MAX 1.0 1.0 1.0 
#data point 
0.063137  0.059424  0.029230
0.098963  0.093357  0.048024
0.185591  0.161268  0.070426
0.315757  0.235166  0.057541
0.428629  0.296755  0.055922
0.536060  0.340003  0.048114
0.643696  0.390348  0.047229
0.774417  0.443135  0.052594
0.102679  0.099295  0.046095
0.135916  0.116311  0.053082
0.243702  0.198963  0.078443
0.362522  0.266716  0.072926
0.459453  0.322723  0.066257
0.557086  0.373976  0.062059
0.684409  0.435920  0.056075
0.807771  0.481273  0.056136
0.147123  0.139896  0.071777
0.218686  0.187330  0.087434
0.294830  0.235282  0.077770
0.398974  0.306233  0.074450
0.516098  0.368270  0.068007
0.601277  0.428262  0.065052
0.721770  0.473614  0.055446
0.843449  0.524560  0.054672
0.222755  0.193517  0.085764
0.307166  0.252482  0.096493
0.379269  0.298708  0.079289
0.454831  0.350585  0.076433
0.550250  0.412971  0.069017
0.660958  0.491042  0.064672
0.758204  0.529636  0.062885
0.887330  0.583914  0.065456
0.301815  0.253260  0.108761
0.389691  0.304675  0.072164
0.468473  0.382009  0.084925
0.528113  0.426828  0.076376
0.608625  0.501149  0.071755
0.692363  0.563076  0.071664
0.813496  0.616655  0.074480
0.931529  0.664091  0.070066
0.380703  0.316091  0.102108
0.457723  0.393991  0.084967
0.554178  0.446017  0.083901
0.602246  0.502436  0.090139
0.702249  0.585008  0.071718
0.776425  0.649538  0.071787
0.863692  0.702584  0.071656
0.956643  0.744536  0.082348
0.462719  0.384544  0.081495
0.534914  0.440813  0.074497
0.613103  0.512052  0.089751
0.689465  0.578429  0.074480
0.758037  0.633589  0.074942
0.828847  0.680356  0.073653
0.903252  0.746510  0.083249
1.024619  0.799141  0.087993
0.540101  0.450789  0.082209
0.603324  0.512887  0.086942
0.686390  0.569386  0.071666
0.742309  0.622670  0.079783
0.808756  0.681150  0.071094
0.888445  0.727846  0.081446
0.968116  0.788028  0.089596
1.075188  0.849249  0.082075
0.092321  0.085196  0.037599
0.115217  0.110455  0.058224
0.191867  0.167339  0.085113
0.307452  0.242454  0.066108
0.427179  0.300491  0.057284
0.525984  0.349475  0.053837
0.639765  0.403949  0.047775
0.777648  0.443419  0.047998
0.124651  0.123322  0.077262
0.155381  0.158950  0.104971
0.223692  0.205106  0.111489
0.340316  0.280532  0.092790
0.465216  0.335696  0.078147
0.563517  0.400204  0.069450
0.689527  0.442248  0.054714
0.796413  0.489635  0.054957
0.153140  0.175360  0.142398
0.205850  0.210948  0.150389
0.289492  0.258077  0.145250
0.387762  0.316459  0.134308
0.497050  0.382831  0.116649
0.610303  0.438613  0.105014
0.718927  0.487274  0.076070
0.835519  0.551043  0.067332
0.205428  0.223132  0.182756
0.278632  0.267360  0.183524
0.352949  0.315468  0.168230
0.455584  0.372847  0.154688
0.539185  0.425144  0.135882
0.643935  0.494191  0.129190
0.759526  0.542611  0.125668
0.876551  0.592949  0.088288
0.278218  0.278175  0.200697
0.351404  0.311344  0.190076
0.426453  0.382565  0.192885
0.535606  0.441545  0.161434
0.627464  0.512294  0.119301
0.714559  0.567474  0.116714
0.810902  0.620457  0.126194
0.927744  0.669988  0.114833
0.360905  0.332883  0.200342
0.431653  0.384865  0.203081
0.518008  0.438899  0.158253
0.590403  0.501782  0.155435
0.679103  0.575544  0.121620
0.760615  0.628273  0.125558
0.861869  0.711918  0.129718
0.981616  0.761864  0.132903
0.436905  0.381072  0.197559
0.515128  0.438677  0.172492
0.584428  0.496070  0.177748
0.671735  0.562635  0.138263
0.751065  0.630238  0.138127
0.817306  0.686631  0.135306
0.913467  0.751627  0.125529
1.005140  0.790282  0.126668
0.501794  0.444153  0.212254
0.588961  0.514254  0.164526
0.677408  0.558566  0.154691
0.747792  0.628648  0.133237
0.801940  0.679955  0.136540
0.897805  0.746491  0.123494
0.962902  0.791065  0.143446
1.069049  0.844436  0.135357
0.126821  0.142572  0.111851
0.145430  0.162358  0.124802
0.196026  0.198603  0.137799
0.318459  0.272122  0.120331
0.438629  0.320929  0.088529
0.538322  0.378650  0.089721
0.657655  0.427513  0.080414
0.763599  0.464461  0.072433
0.156033  0.183248  0.163521
0.184963  0.218366  0.200409
0.236066  0.261155  0.217520
0.337137  0.301362  0.181091
0.474416  0.369290  0.141980
0.555283  0.412085  0.135744
0.669871  0.471874  0.117623
0.806152  0.526808  0.110318
0.200246  0.244464  0.234679
0.214361  0.269259  0.268019
0.244740  0.272641  0.253489
0.376447  0.363400  0.251554
0.501359  0.409735  0.224178
0.606185  0.455309  0.160326
0.721930  0.521548  0.155453
0.829859  0.576828  0.151453
0.211462  0.276322  0.282317
0.259856  0.326028  0.320069
0.316812  0.349331  0.315018
0.414010  0.406508  0.319983
0.532724  0.460568  0.262165
0.638485  0.504043  0.227190
0.759770  0.568269  0.215469
0.862201  0.625232  0.199495
0.256604  0.319924  0.317970
0.334683  0.365844  0.335847
0.399580  0.403833  0.328164
0.490005  0.459282  0.330689
0.579830  0.507266  0.301730
0.702177  0.575465  0.295191
0.817578  0.644505  0.244955
0.927118  0.688489  0.252657
0.321944  0.374369  0.363269
0.398726  0.414101  0.361297
0.475392  0.455806  0.333979
0.566185  0.513911  0.323682
0.663793  0.588319  0.318209
0.760573  0.641885  0.281066
0.867200  0.707474  0.264490
0.969992  0.754296  0.262499
0.373682  0.401967  0.356533
0.458204  0.456756  0.359730
0.558448  0.519013  0.334287
0.637824  0.569793  0.334698
0.730209  0.637307  0.319589
0.816182  0.694158  0.309559
0.917038  0.744963  0.261801
1.019713  0.804149  0.250643
0.447851  0.446248  0.366668
0.562571  0.516701  0.352672
0.631507  0.574901  0.329958
0.709565  0.625915  0.318363
0.783988  0.676068  0.312945
0.891879  0.741493  0.278548
0.969030  0.787872  0.283502
1.069371  0.850842  0.261820
0.159317  0.192117  0.179922
0.180541  0.214943  0.211994
0.210720  0.255285  0.237157
0.291319  0.303162  0.237810
0.447547  0.360291  0.172923
0.545543  0.416101  0.154510
0.659837  0.459986  0.142198
0.768052  0.509456  0.139864
0.172836  0.225112  0.217118
0.215022  0.267090  0.264714
0.256725  0.308798  0.297490
0.333553  0.351365  0.299604
0.466718  0.404721  0.228220
0.572412  0.451285  0.217913
0.682113  0.496572  0.183641
0.802806  0.563676  0.189268
0.219719  0.278353  0.277824
0.255110  0.320110  0.320107
0.285306  0.358006  0.369171
0.391712  0.416189  0.367284
0.469423  0.458679  0.361458
0.608749  0.504151  0.278136
0.721017  0.567076  0.272755
0.844330  0.613462  0.258119
0.249910  0.324499  0.346056
0.286995  0.372504  0.386715
0.309423  0.400231  0.418810
0.391918  0.441401  0.406266
0.501696  0.498796  0.396328
0.641381  0.559950  0.347002
0.744931  0.613898  0.327578
0.880852  0.664292  0.300958
0.292212  0.387140  0.408797
0.338733  0.430073  0.446138
0.370190  0.447323  0.457997
0.476957  0.499485  0.448886
0.548314  0.565130  0.479546
0.660257  0.596939  0.410530
0.787187  0.662747  0.394584
0.915209  0.737061  0.362890
0.323803  0.429008  0.456642
0.366117  0.458256  0.469448
0.452875  0.493990  0.455184
0.522724  0.545114  0.479122
0.612235  0.601419  0.482023
0.722311  0.670053  0.484968
0.853391  0.732214  0.438150
0.942333  0.772301  0.423772
0.363469  0.466983  0.501693
0.433784  0.505892  0.500445
0.520506  0.537644  0.478218
0.604531  0.593480  0.488690
0.697833  0.652224  0.488191
0.798839  0.712665  0.451894
0.900219  0.771229  0.458529
1.016212  0.825175  0.464624
0.401681  0.497902  0.520413
0.496951  0.535261  0.486446
0.576043  0.584149  0.507533
0.669959  0.644343  0.487803
0.796850  0.712891  0.470542
0.865990  0.754148  0.450709
0.964359  0.806821  0.483373
1.063041  0.858287  0.471564
0.176000  0.234161  0.235610
0.209056  0.281072  0.291907
0.241630  0.307804  0.313092
0.313547  0.346738  0.310243
0.422017  0.395188  0.293235
0.554048  0.459081  0.248520
0.678711  0.512907  0.222107
0.787733  0.534540  0.190338
0.212675  0.284728  0.298846
0.248704  0.319185  0.334215
0.267238  0.351925  0.371340
0.339452  0.410150  0.400470
0.431724  0.442782  0.375905
0.558581  0.490878  0.329025
0.681187  0.541569  0.278152
0.793886  0.594221  0.259893
0.260758  0.342231  0.357414
0.288847  0.367467  0.391134
0.311550  0.404940  0.425539
0.381950  0.462511  0.464556
0.474287  0.501903  0.442292
0.578376  0.543646  0.419897
0.716766  0.608696  0.367839
0.834338  0.649763  0.335792
0.292247  0.381967  0.403582
0.324029  0.417870  0.441414
0.350497  0.456291  0.489417
0.383086  0.490926  0.523327
0.505702  0.539584  0.498109
0.611199  0.599904  0.492836
0.737305  0.656702  0.446215
0.856478  0.700961  0.399598
0.327644  0.428327  0.457533
0.360103  0.473023  0.509718
0.397998  0.513511  0.543122
0.451769  0.561482  0.587714
0.543710  0.599411  0.565636
0.649021  0.658794  0.565117
0.786995  0.704727  0.513337
0.912446  0.772770  0.477715
0.361619  0.472729  0.512324
0.392134  0.507030  0.536036
0.436826  0.559171  0.589197
0.483130  0.598149  0.619048
0.592736  0.636149  0.588600
0.703695  0.707927  0.621684
0.819173  0.760821  0.598586
0.946080  0.807378  0.548987
0.401633  0.517261  0.554026
0.429293  0.558129  0.591272
0.479203  0.603461  0.630473
0.565873  0.636502  0.617690
0.681920  0.693529  0.603750
0.765983  0.750945  0.636723
0.887420  0.799940  0.609356
1.006183  0.854457  0.589962
0.443987  0.564529  0.602897
0.474216  0.602423  0.633256
0.541780  0.632341  0.632032
0.654273  0.686357  0.626642
0.744301  0.731697  0.624264
0.841768  0.773696  0.617098
0.946963  0.833726  0.622104
1.052069  0.879034  0.609242
0.231424  0.302333  0.322481
0.245502  0.322000  0.342877
0.280532  0.370466  0.397579
0.318956  0.395368  0.397824
0.428628  0.443559  0.378365
0.523874  0.497703  0.362919
0.658175  0.526379  0.311309
0.794884  0.585112  0.282901
0.259421  0.346552  0.368436
0.288660  0.380417  0.406584
0.310199  0.412605  0.444149
0.360992  0.446478  0.466023
0.464932  0.499582  0.464829
0.554934  0.548090  0.458879
0.680557  0.599068  0.405169
0.815724  0.635975  0.365161
0.300786  0.400740  0.424115
0.332743  0.431648  0.461969
0.368922  0.477292  0.510103
0.402040  0.505569  0.529351
0.463022  0.541288  0.536859
0.594331  0.606763  0.530022
0.701468  0.641565  0.474684
0.837305  0.707341  0.448942
0.320536  0.431574  0.473809
0.362605  0.470349  0.503965
0.410023  0.528028  0.560996
0.434444  0.551911  0.584644
0.484258  0.601051  0.622905
0.616447  0.636776  0.573078
0.732960  0.691335  0.547838
0.854601  0.764050  0.544189
0.371213  0.484733  0.520106
0.402777  0.521035  0.565082
0.441700  0.566064  0.601113
0.475849  0.602310  0.639589
0.534499  0.650728  0.678378
0.639279  0.688349  0.648780
0.754160  0.737271  0.622268
0.907074  0.803977  0.605518
0.401947  0.524707  0.564513
0.439364  0.561463  0.602331
0.482873  0.610165  0.647719
0.517431  0.643521  0.680181
0.581159  0.702649  0.730337
0.692785  0.748151  0.719470
0.818990  0.798281  0.695958
0.943995  0.842936  0.666258
0.447278  0.573055  0.615077
0.490713  0.614190  0.646853
0.542775  0.664808  0.694156
0.567016  0.689291  0.719599
0.634635  0.739214  0.757753
0.736434  0.783871  0.748928
0.873944  0.839105  0.729939
0.981384  0.876070  0.703216
0.487489  0.615734  0.647325
0.519851  0.651642  0.685687
0.560555  0.699264  0.743006
0.602404  0.729669  0.759914
0.701545  0.779135  0.778478
0.826681  0.821847  0.748418
0.915821  0.864192  0.744125
1.026282  0.906153  0.739971
0.267954  0.360633  0.391994
0.296547  0.388966  0.423940
0.328513  0.424189  0.459446
0.357722  0.468996  0.500620
0.419015  0.489377  0.483209
0.518118  0.536303  0.475592
0.644606  0.579815  0.408737
0.779129  0.635126  0.380185
0.308570  0.410104  0.441722
0.327343  0.433273  0.476714
0.362150  0.477091  0.509744
0.401091  0.523327  0.563170
0.446943  0.545581  0.572031
0.559428  0.582102  0.517700
0.667573  0.638575  0.513091
0.813790  0.688490  0.458469
0.331583  0.445947  0.482436
0.370258  0.487107  0.526273
0.406608  0.525343  0.564488
0.438880  0.563111  0.600661
0.483126  0.605023  0.642766
0.595709  0.645468  0.609644
0.700505  0.696732  0.596211
0.817931  0.745899  0.561276
0.372679  0.489455  0.529153
0.396540  0.517875  0.548274
0.452514  0.577272  0.609557
0.497068  0.621070  0.657480
0.538611  0.663622  0.694849
0.600680  0.690272  0.692116
0.753245  0.742794  0.653317
0.865659  0.793431  0.632788
0.404330  0.522549  0.566772
0.451528  0.579904  0.615700
0.484044  0.613102  0.650074
0.534883  0.668451  0.712741
0.571419  0.716300  0.764475
0.636304  0.739668  0.752111
0.777780  0.777393  0.702080
0.901114  0.835086  0.702744
0.442942  0.574510  0.611067
0.488539  0.617694  0.652140
0.529365  0.664565  0.701457
0.586229  0.717488  0.773373
0.621922  0.756051  0.810530
0.679873  0.802893  0.849302
0.792830  0.834511  0.814329
0.935291  0.872605  0.754279
0.486188  0.619867  0.662506
0.521969  0.655478  0.694036
0.563211  0.700343  0.743335
0.622814  0.757720  0.809629
0.664977  0.792787  0.839040
0.736003  0.840113  0.882908
0.834363  0.891373  0.894817
0.968978  0.908353  0.806577
0.524726  0.664096  0.700877
0.557129  0.697832  0.746926
0.596224  0.737181  0.802963
0.655973  0.789353  0.848840
0.708099  0.825828  0.874199
0.783297  0.877687  0.916135
0.875551  0.921728  0.929003
1.004171  0.950051  0.866395
0.304404  0.418985  0.457168
0.329322  0.444613  0.489853
0.366557  0.489807  0.533232
0.398831  0.525604  0.569168
0.441654  0.575301  0.615057
0.519712  0.597764  0.579878
0.650072  0.635505  0.536060
0.796342  0.692210  0.491135
0.334846  0.454026  0.497671
0.370292  0.494048  0.536598
0.416082  0.541398  0.579675
0.451124  0.575688  0.613257
0.491067  0.626217  0.657813
0.547659  0.652820  0.677668
0.653549  0.686395  0.627829
0.796761  0.740388  0.571962
0.372053  0.494040  0.536844
0.411856  0.535708  0.574414
0.450373  0.580973  0.623954
0.504561  0.636831  0.672713
0.539103  0.681569  0.729178
0.592794  0.719162  0.760080
0.703371  0.739141  0.692119
0.846102  0.792885  0.658307
0.417534  0.535702  0.577505
0.443477  0.574045  0.612612
0.498669  0.625529  0.664904
0.550826  0.687191  0.729764
0.572938  0.719309  0.771529
0.625766  0.754370  0.800817
0.701989  0.800322  0.817701
0.856062  0.829828  0.728026
0.441225  0.570331  0.610060
0.493065  0.621037  0.662345
0.533026  0.662934  0.703965
0.563970  0.713135  0.769262
0.610861  0.748194  0.804848
0.669804  0.793956  0.842057
0.746366  0.858819  0.898183
0.874380  0.882805  0.832396
0.476138  0.605995  0.643918
0.521440  0.651658  0.692903
0.562920  0.711368  0.755507
0.603252  0.747691  0.800015
0.647011  0.776828  0.834341
0.728107  0.838468  0.883074
0.801194  0.891546  0.921771
0.878360  0.925874  0.926110
0.528659  0.661775  0.701043
0.561502  0.703642  0.756781
0.592641  0.733874  0.803113
0.646336  0.772088  0.825606
0.697557  0.819978  0.870549
0.776016  0.873061  0.909508
0.845914  0.913305  0.945248
0.923720  0.958585  0.975848
0.558666  0.696734  0.743473
0.573614  0.727081  0.785591
0.624792  0.772500  0.832381
0.691403  0.816250  0.862442
0.749879  0.855766  0.896114
0.828143  0.907177  0.937383
0.888263  0.944678  0.969850
0.964304  0.982217  0.989624
