LUT/LUT_24.CUBE
TITLE "LUT_24" 
#LUT size 
LUT_3D_SIZE 15 
DOMAIN_MIN 0.0 0.0 0.0 
DOMAIN_MAX 1.0 1.0 1.0 
#data point 
0.066087  0.063660  0.029421
0.079208  0.074951  0.031744
0.099308  0.094155  0.047161
0.125350  0.117276  0.068368
0.186237  0.164750  0.072501
0.244215  0.202863  0.071083
0.315600  0.235278  0.058523
0.353508  0.257869  0.057810
0.422633  0.301406  0.058872
0.465743  0.327228  0.060921
0.528339  0.344822  0.050474
0.562874  0.376312  0.057727
0.640548  0.394496  0.048834
0.696884  0.426846  0.052567
0.767019  0.452442  0.049921
0.078883  0.081157  0.036525
0.092600  0.083497  0.039416
0.110996  0.103643  0.049320
0.154484  0.137722  0.069620
0.206420  0.177716  0.076930
0.270812  0.215885  0.075783
0.331321  0.253533  0.069344
0.386225  0.287744  0.061245
0.432206  0.313724  0.062582
0.475968  0.331125  0.063471
0.539591  0.361202  0.060752
0.602868  0.400709  0.060297
0.665724  0.436172  0.049996
0.719638  0.454041  0.052789
0.776723  0.471499  0.057748
0.106723  0.096179  0.048168
0.099404  0.096131  0.045855
0.130692  0.121541  0.055634
0.168685  0.154589  0.084395
0.238491  0.198349  0.081773
0.278829  0.226768  0.069979
0.361531  0.267269  0.088952
0.398406  0.293685  0.067054
0.457542  0.326446  0.069670
0.502052  0.351662  0.065775
0.550283  0.379669  0.062462
0.625984  0.421620  0.062774
0.669594  0.440645  0.059013
0.745780  0.465846  0.059839
0.798833  0.489703  0.057871
0.111094  0.110207  0.055665
0.128784  0.121669  0.063641
0.164220  0.144167  0.071508
0.209101  0.177069  0.083060
0.277070  0.223736  0.077863
0.317274  0.257489  0.084834
0.377870  0.286080  0.068473
0.431009  0.312081  0.065445
0.479246  0.346040  0.064454
0.521582  0.372880  0.062299
0.581014  0.400150  0.065678
0.641780  0.426131  0.066727
0.687277  0.454237  0.052955
0.758933  0.479153  0.054351
0.821226  0.521344  0.056877
0.145308  0.141656  0.076339
0.174390  0.157938  0.085030
0.220716  0.187803  0.093495
0.245634  0.212570  0.095191
0.293383  0.236274  0.081667
0.358771  0.283591  0.087701
0.395564  0.305352  0.082104
0.455807  0.331670  0.071281
0.509014  0.370330  0.074968
0.562130  0.394720  0.066160
0.598539  0.433796  0.069265
0.677700  0.472574  0.065509
0.716846  0.479596  0.059543
0.771147  0.513664  0.058470
0.837697  0.538178  0.055881
0.173888  0.166340  0.099988
0.216875  0.188248  0.086359
0.253314  0.207011  0.089273
0.301558  0.243711  0.085174
0.344147  0.272634  0.071310
0.372683  0.292663  0.091651
0.427288  0.325185  0.075740
0.484456  0.366647  0.082504
0.522714  0.377424  0.068756
0.560515  0.414634  0.060160
0.626616  0.452448  0.061148
0.675656  0.481716  0.067829
0.748311  0.505835  0.065726
0.796984  0.536636  0.062293
0.852358  0.560434  0.069145
0.226888  0.190078  0.085774
0.260927  0.220897  0.096747
0.306898  0.254039  0.100002
0.349149  0.281197  0.096838
0.375958  0.296742  0.079739
0.426418  0.336602  0.084611
0.454309  0.351310  0.077802
0.519856  0.400602  0.086583
0.554330  0.413853  0.072845
0.620632  0.477850  0.072725
0.653070  0.485181  0.069245
0.693478  0.503703  0.071464
0.753110  0.534349  0.069815
0.817303  0.562749  0.067168
0.881605  0.592315  0.062720
0.283859  0.236600  0.105077
0.305302  0.260116  0.096784
0.331083  0.268524  0.097340
0.381081  0.297251  0.081773
0.428889  0.341635  0.090068
0.469303  0.370365  0.071935
0.491129  0.391995  0.078891
0.536279  0.416926  0.071445
0.583143  0.461085  0.081603
0.641353  0.486369  0.070575
0.679454  0.528570  0.070487
0.733316  0.552957  0.074043
0.784188  0.583439  0.077499
0.849144  0.607542  0.075168
0.911451  0.629619  0.070216
0.300324  0.259222  0.110718
0.352833  0.289540  0.098275
0.389187  0.303576  0.079270
0.415707  0.330594  0.086233
0.475543  0.376017  0.086273
0.494347  0.393458  0.085068
0.528958  0.421921  0.075217
0.580490  0.462122  0.079040
0.610622  0.500647  0.067085
0.669856  0.542398  0.066096
0.693749  0.561786  0.074679
0.746867  0.589483  0.084918
0.812733  0.612218  0.075209
0.844168  0.657057  0.078627
0.924861  0.672674  0.070885
0.367399  0.306462  0.103575
0.394196  0.313501  0.089936
0.423171  0.337654  0.085897
0.463279  0.369409  0.090594
0.496779  0.399921  0.083388
0.534729  0.430768  0.077926
0.579103  0.472266  0.077615
0.623159  0.498539  0.081767
0.658285  0.541992  0.067921
0.695110  0.574447  0.073266
0.745031  0.612329  0.075425
0.776977  0.632423  0.072041
0.820858  0.662214  0.085138
0.874631  0.675327  0.077697
0.931288  0.711665  0.078857
0.379139  0.317477  0.108069
0.428049  0.338889  0.091744
0.457984  0.391961  0.088816
0.498967  0.394578  0.085420
0.554249  0.440659  0.088208
0.578666  0.475986  0.079342
0.605963  0.495084  0.088601
0.658652  0.541549  0.074148
0.699172  0.584774  0.071200
0.729057  0.600057  0.069374
0.779645  0.652948  0.072229
0.802992  0.660918  0.078918
0.857488  0.699896  0.071831
0.916195  0.720866  0.070393
0.952366  0.749802  0.084458
0.435894  0.352069  0.087262
0.462258  0.375127  0.091346
0.502662  0.406518  0.087629
0.533510  0.432877  0.079412
0.574065  0.476349  0.074196
0.625097  0.508410  0.075579
0.642125  0.540054  0.070472
0.676224  0.573491  0.069587
0.732395  0.617551  0.076681
0.758956  0.637164  0.068203
0.798428  0.671237  0.078918
0.845720  0.700369  0.074814
0.889718  0.713824  0.075255
0.920490  0.759070  0.082187
0.987420  0.777415  0.076147
0.466989  0.380930  0.084317
0.495989  0.402017  0.077828
0.530400  0.434365  0.075659
0.574115  0.471187  0.066959
0.614047  0.507625  0.087730
0.647143  0.543089  0.083894
0.693464  0.574993  0.072524
0.719155  0.590574  0.075564
0.759342  0.629914  0.082024
0.785951  0.656730  0.077439
0.831893  0.680304  0.075280
0.887891  0.716173  0.082244
0.906015  0.742431  0.083417
0.951831  0.773974  0.077902
1.023272  0.796828  0.086869
0.506091  0.416578  0.081865
0.546998  0.454165  0.082061
0.577575  0.485854  0.076520
0.617262  0.509408  0.083846
0.647550  0.550761  0.078219
0.677472  0.558150  0.065836
0.720423  0.601943  0.071741
0.755060  0.629318  0.075556
0.779364  0.653404  0.076266
0.813700  0.675128  0.085096
0.861311  0.699624  0.074959
0.896241  0.732362  0.081554
0.940970  0.766178  0.079507
0.985764  0.791254  0.084897
1.029066  0.806303  0.085545
0.536894  0.445709  0.083070
0.565411  0.471751  0.088250
0.605061  0.509755  0.085986
0.654409  0.542975  0.063823
0.688962  0.565224  0.071319
0.701269  0.592491  0.082317
0.745399  0.618594  0.082389
0.794015  0.658838  0.083437
0.806924  0.676188  0.078543
0.850133  0.705504  0.075757
0.888431  0.727233  0.086409
0.921335  0.757934  0.083292
0.972969  0.783519  0.087798
1.022568  0.805136  0.082097
1.077323  0.848745  0.082871
0.071168  0.065963  0.036744
0.090287  0.081522  0.038839
0.104776  0.096277  0.042616
0.123609  0.113211  0.053873
0.178105  0.153400  0.066956
0.244829  0.195125  0.069402
0.313144  0.249638  0.073167
0.366761  0.271199  0.061979
0.417433  0.295186  0.059755
0.451105  0.309131  0.056466
0.526042  0.349905  0.051849
0.580337  0.382861  0.052223
0.645859  0.405206  0.052047
0.693613  0.434942  0.050937
0.750974  0.454574  0.053452
0.085242  0.083595  0.041520
0.097923  0.091360  0.040782
0.114359  0.102276  0.053482
0.160843  0.141078  0.070968
0.202922  0.179408  0.078369
0.285347  0.226059  0.068714
0.328577  0.250713  0.068544
0.374259  0.277161  0.065252
0.436150  0.313356  0.062539
0.499152  0.339981  0.060128
0.535456  0.367086  0.062436
0.589280  0.394354  0.051082
0.662107  0.435560  0.054495
0.715182  0.442212  0.059328
0.778984  0.479648  0.057094
0.100225  0.091656  0.050364
0.108153  0.103334  0.058963
0.144724  0.134986  0.070426
0.172448  0.159959  0.084495
0.218178  0.195366  0.092861
0.305214  0.242755  0.071790
0.333876  0.260742  0.064485
0.398912  0.295199  0.069233
0.452416  0.324467  0.066902
0.501876  0.352254  0.063079
0.561440  0.386033  0.065857
0.618645  0.421729  0.057304
0.684842  0.444885  0.055992
0.733407  0.475508  0.057326
0.815349  0.499170  0.059928
0.127519  0.124407  0.074931
0.145215  0.138973  0.074938
0.170800  0.158687  0.091539
0.199988  0.180901  0.095186
0.256790  0.217530  0.087603
0.326766  0.257920  0.080983
0.363808  0.286727  0.083769
0.435362  0.325929  0.080927
0.473220  0.355083  0.076261
0.511385  0.373069  0.069753
0.579989  0.407032  0.073819
0.635838  0.438735  0.066149
0.692088  0.466068  0.058664
0.732806  0.486182  0.060594
0.812589  0.516664  0.056300
0.156085  0.149426  0.090277
0.169796  0.164503  0.094779
0.205135  0.190989  0.113738
0.242177  0.212460  0.103512
0.293019  0.252241  0.112129
0.347002  0.269022  0.083653
0.394014  0.308918  0.090140
0.441615  0.333169  0.074690
0.498506  0.376451  0.084292
0.545090  0.407800  0.087841
0.596528  0.421928  0.065303
0.663154  0.456777  0.066740
0.722156  0.488812  0.067494
0.779561  0.509642  0.060880
0.820280  0.538804  0.067230
0.188317  0.170390  0.102629
0.212410  0.196671  0.112127
0.251656  0.228661  0.127990
0.293513  0.245067  0.128338
0.342691  0.266616  0.098853
0.395707  0.306242  0.097871
0.448359  0.337651  0.088032
0.467785  0.356982  0.108580
0.517959  0.389362  0.083443
0.572901  0.425722  0.098169
0.615992  0.455735  0.073974
0.676487  0.486598  0.070904
0.729195  0.510219  0.074304
0.802762  0.541797  0.066799
0.865667  0.580951  0.059048
0.231742  0.219465  0.141177
0.271138  0.235187  0.117371
0.289202  0.252897  0.141144
0.323556  0.274983  0.121523
0.387032  0.303730  0.099593
0.425545  0.338258  0.102146
0.459779  0.362894  0.093007
0.511736  0.392968  0.103185
0.543907  0.421463  0.102708
0.592576  0.451622  0.090888
0.658022  0.488711  0.081844
0.702379  0.517480  0.073660
0.758665  0.544177  0.066465
0.823155  0.577585  0.060987
0.875161  0.601928  0.061068
0.256166  0.236341  0.125226
0.287253  0.261373  0.131610
0.340812  0.291909  0.144908
0.372567  0.308696  0.137767
0.425954  0.339429  0.094973
0.457222  0.366035  0.102860
0.512940  0.400185  0.089245
0.552942  0.426321  0.090012
0.587516  0.453545  0.090596
0.616073  0.485536  0.081037
0.678584  0.525267  0.077159
0.723215  0.546839  0.073982
0.795262  0.573244  0.068891
0.846917  0.594397  0.069100
0.919165  0.621904  0.073716
0.307571  0.265792  0.131669
0.345992  0.295362  0.138432
0.379697  0.311887  0.116809
0.397750  0.333591  0.118294
0.449891  0.366772  0.109104
0.499703  0.405890  0.101165
0.533631  0.428455  0.109661
0.578757  0.468967  0.077775
0.615227  0.498051  0.085561
0.675532  0.543132  0.089784
0.711429  0.560997  0.087797
0.756159  0.590489  0.086835
0.805094  0.618949  0.084113
0.870556  0.657548  0.083741
0.916029  0.665308  0.081713
0.331927  0.283342  0.126760
0.392459  0.327021  0.128202
0.420248  0.348282  0.138018
0.469837  0.382572  0.109457
0.498566  0.408324  0.107633
0.550799  0.445133  0.093530
0.587863  0.480730  0.098795
0.612265  0.508595  0.095988
0.660229  0.544709  0.088761
0.686221  0.572787  0.088078
0.747612  0.615864  0.069711
0.776421  0.632439  0.079321
0.827367  0.649341  0.074576
0.883521  0.680844  0.081123
0.946988  0.718908  0.086371
0.371259  0.323805  0.145919
0.394324  0.333071  0.140204
0.433894  0.366057  0.125576
0.503797  0.414409  0.104800
0.539332  0.433230  0.111997
0.579543  0.478832  0.093408
0.628803  0.527561  0.088092
0.660735  0.547866  0.085123
0.694236  0.578242  0.089859
0.732262  0.613475  0.083182
0.774825  0.637120  0.084236
0.819986  0.674255  0.097035
0.854106  0.688239  0.065207
0.920929  0.725708  0.089212
0.954094  0.728593  0.100234
0.410130  0.345692  0.135903
0.460280  0.372583  0.126300
0.504379  0.421312  0.105575
0.529783  0.429721  0.105000
0.573373  0.488533  0.113315
0.613715  0.506138  0.095633
0.637157  0.527213  0.104764
0.678404  0.566257  0.104843
0.713815  0.592368  0.085995
0.738266  0.627453  0.095612
0.793843  0.659884  0.075144
0.850179  0.687381  0.091392
0.899496  0.729830  0.088430
0.924699  0.749282  0.089013
0.977694  0.775896  0.078768
0.469805  0.382592  0.123316
0.519560  0.424136  0.080106
0.541351  0.441580  0.111097
0.596801  0.489235  0.096019
0.606966  0.501086  0.093399
0.651496  0.543961  0.102938
0.696913  0.577722  0.097252
0.708256  0.589373  0.093472
0.761003  0.625990  0.092073
0.794966  0.662416  0.092772
0.828151  0.683789  0.087159
0.887199  0.717856  0.095942
0.916006  0.749839  0.086655
0.978490  0.775786  0.085003
1.006355  0.789013  0.085657
0.492391  0.406890  0.125963
0.521055  0.424861  0.105400
0.572640  0.474318  0.093324
0.587626  0.486411  0.090329
0.648266  0.547970  0.092229
0.674319  0.565358  0.085908
0.695433  0.598012  0.105336
0.756857  0.634863  0.076563
0.787817  0.652541  0.092449
0.819124  0.683690  0.101686
0.862020  0.716071  0.092534
0.887826  0.730970  0.097119
0.932805  0.762701  0.094146
0.985527  0.788877  0.081394
1.027131  0.815846  0.091302
0.543947  0.444355  0.121927
0.575634  0.477897  0.091859
0.595131  0.481979  0.107090
0.637142  0.522953  0.093675
0.669276  0.565788  0.093713
0.709525  0.597007  0.093645
0.748466  0.624539  0.098441
0.780491  0.649509  0.100619
0.815222  0.673424  0.099481
0.858839  0.703848  0.097000
0.895454  0.732639  0.103488
0.917344  0.753229  0.096657
0.972385  0.795041  0.095181
1.028242  0.812079  0.090409
1.079617  0.843289  0.098639
0.092253  0.087338  0.042439
0.107962  0.107020  0.063698
0.119230  0.109040  0.060329
0.156998  0.138790  0.075403
0.189701  0.168519  0.086116
0.245114  0.195579  0.078594
0.305709  0.242024  0.074685
0.380495  0.276515  0.064557
0.423790  0.301009  0.064170
0.468951  0.325534  0.062010
0.518590  0.354053  0.054198
0.578802  0.381539  0.064499
0.634434  0.410150  0.052645
0.714795  0.448748  0.060398
0.767850  0.459587  0.051078
0.112835  0.112191  0.059846
0.122363  0.121796  0.070729
0.135932  0.138422  0.079869
0.155583  0.153078  0.095641
0.220067  0.195589  0.097875
0.283472  0.236124  0.081284
0.342484  0.262865  0.081213
0.378929  0.282359  0.077162
0.443243  0.326825  0.056401
0.490434  0.345372  0.065068
0.546507  0.382780  0.064778
0.603100  0.406867  0.061199
0.653147  0.432038  0.063428
0.742263  0.461280  0.056837
0.778054  0.483649  0.063303
0.122926  0.123875  0.076429
0.136928  0.147104  0.105206
0.157269  0.156521  0.103490
0.186001  0.176654  0.106019
0.228996  0.204329  0.109052
0.295539  0.253056  0.116635
0.334981  0.278026  0.093055
0.390171  0.302581  0.090951
0.459115  0.342632  0.082940
0.514615  0.368671  0.088519
0.559188  0.403123  0.068235
0.618164  0.424186  0.069879
0.683875  0.449891  0.059478
0.742164  0.475804  0.066176
0.792785  0.499890  0.056704
0.150801  0.156361  0.113196
0.153504  0.163492  0.122903
0.160922  0.177612  0.141553
0.203342  0.198335  0.134819
0.237663  0.212162  0.122906
0.321854  0.277041  0.128568
0.363833  0.306266  0.123923
0.415193  0.317473  0.114134
0.484308  0.370381  0.093043
0.527723  0.389315  0.095631
0.569831  0.414280  0.088768
0.639595  0.443309  0.071907
0.689189  0.471881  0.075690
0.737327  0.491580  0.068394
0.812158  0.528610  0.065132
0.153735  0.174264  0.135285
0.193507  0.206082  0.173991
0.206736  0.210893  0.151681
0.221125  0.221697  0.153834
0.289957  0.261180  0.151518
0.332226  0.283021  0.141923
0.388368  0.318325  0.130290
0.457514  0.359026  0.118377
0.495707  0.383947  0.113893
0.545076  0.405374  0.104759
0.612876  0.435061  0.104531
0.662736  0.467018  0.089025
0.710605  0.492709  0.080311
0.772767  0.542503  0.079820
0.833934  0.554986  0.070667
0.175590  0.195930  0.171713
0.196986  0.206802  0.169339
0.239750  0.241503  0.169271
0.264316  0.252628  0.164602
0.312136  0.285152  0.164363
0.362315  0.317324  0.168041
0.424399  0.342839  0.141988
0.469734  0.366892  0.129685
0.534872  0.413992  0.103384
0.572865  0.434153  0.115244
0.631692  0.464114  0.095890
0.672049  0.494975  0.114358
0.725031  0.509401  0.091945
0.799666  0.558110  0.091475
0.845367  0.579948  0.083890
0.203876  0.223943  0.180219
0.231582  0.243177  0.187129
0.276019  0.269327  0.183363
0.319403  0.293749  0.182802
0.345374  0.315518  0.172088
0.399632  0.340825  0.163365
0.453732  0.366197  0.155847
0.497925  0.397589  0.139851
0.538547  0.419891  0.137750
0.583248  0.458871  0.128320
0.640568  0.492653  0.129500
0.702219  0.524560  0.129016
0.754859  0.547559  0.126377
0.824592  0.586009  0.108664
0.869384  0.602880  0.084467
0.263213  0.267602  0.203863
0.284919  0.282728  0.206928
0.332376  0.305631  0.185325
0.356354  0.321832  0.175100
0.393923  0.349957  0.177595
0.440552  0.371513  0.159110
0.497939  0.410233  0.160875
0.542672  0.433183  0.146186
0.591335  0.470216  0.121193
0.643794  0.501461  0.129147
0.677432  0.519000  0.122643
0.711645  0.546632  0.137431
0.775449  0.583386  0.122095
0.840958  0.614423  0.112820
0.886529  0.638297  0.111271
0.284940  0.279737  0.202315
0.329869  0.303110  0.193065
0.348443  0.310250  0.186667
0.404153  0.351205  0.187926
0.426297  0.371144  0.187098
0.467937  0.399309  0.180950
0.537051  0.442854  0.161107
0.566769  0.467758  0.136384
0.626214  0.504174  0.116577
0.667413  0.529978  0.129678
0.712038  0.563518  0.115906
0.745719  0.599049  0.125327
0.808497  0.622460  0.127766
0.857333  0.648804  0.130821
0.927036  0.670419  0.116684
0.313042  0.306576  0.220296
0.357249  0.335066  0.197425
0.399447  0.347995  0.183622
0.426816  0.378192  0.199631
0.463857  0.394116  0.186826
0.524904  0.437264  0.167687
0.572804  0.466801  0.163688
0.607371  0.493681  0.131014
0.660493  0.535421  0.138692
0.694633  0.576218  0.120588
0.742684  0.616455  0.126156
0.791152  0.630892  0.124511
0.837464  0.663263  0.142433
0.875609  0.685424  0.133303
0.929886  0.700681  0.120097
0.365050  0.334652  0.196409
0.396582  0.356172  0.196993
0.437752  0.384693  0.198392
0.496877  0.415210  0.169626
0.516731  0.434788  0.162950
0.550297  0.460197  0.176317
0.588286  0.501320  0.156643
0.646389  0.545531  0.142617
0.685165  0.574852  0.117087
0.724776  0.606046  0.125499
0.762028  0.630534  0.121521
0.801989  0.660387  0.122149
0.861115  0.707890  0.135293
0.911228  0.712803  0.126746
0.984626  0.757743  0.133533
0.407596  0.363162  0.204289
0.435399  0.381443  0.196517
0.489681  0.413159  0.187363
0.516592  0.441561  0.182390
0.568110  0.469029  0.171266
0.597046  0.506036  0.154375
0.622683  0.520727  0.151636
0.680222  0.562373  0.134917
0.721534  0.596613  0.150672
0.770871  0.638444  0.120191
0.799751  0.661939  0.133053
0.835878  0.697525  0.131248
0.891231  0.728033  0.122889
0.934154  0.759544  0.133353
0.980911  0.780241  0.146492
0.435070  0.382305  0.199936
0.466968  0.406563  0.194799
0.518120  0.440210  0.169706
0.535921  0.459188  0.192930
0.582131  0.492468  0.179399
0.641819  0.535114  0.166227
0.674446  0.558454  0.138072
0.705729  0.599483  0.139597
0.754139  0.626971  0.135772
0.789141  0.652706  0.136176
0.819779  0.688494  0.134048
0.862718  0.718028  0.143674
0.920952  0.750166  0.123048
0.966585  0.780153  0.152549
1.003114  0.784978  0.127102
0.465854  0.402933  0.205755
0.513656  0.438123  0.183234
0.529014  0.450070  0.191548
0.591295  0.503984  0.159003
0.618594  0.526826  0.154023
0.680685  0.575317  0.138759
0.714360  0.592352  0.141513
0.749832  0.640935  0.125940
0.780049  0.652121  0.136185
0.802821  0.675848  0.131797
0.842134  0.700506  0.130039
0.900176  0.748140  0.135769
0.932247  0.758268  0.135200
0.990316  0.793067  0.127475
1.036199  0.820745  0.150319
0.506011  0.446004  0.213171
0.556218  0.476643  0.195807
0.587474  0.507823  0.165266
0.630027  0.535932  0.155138
0.678508  0.556166  0.154934
0.696759  0.589975  0.149560
0.751423  0.628716  0.136911
0.774609  0.645055  0.138535
0.804524  0.682710  0.135690
0.858343  0.718938  0.143585
0.895249  0.746757  0.120525
0.920290  0.751378  0.147120
0.968001  0.784374  0.142189
1.026484  0.809266  0.126407
1.067626  0.837529  0.133494
0.118221  0.118739  0.074408
0.124101  0.118440  0.074783
0.141128  0.148006  0.099174
0.153907  0.162946  0.118426
0.194526  0.181741  0.092673
0.244031  0.208893  0.092901
0.325167  0.258771  0.093466
0.380706  0.292580  0.084372
0.404161  0.304149  0.076688
0.477613  0.339057  0.075605
0.519572  0.371073  0.075552
0.589685  0.396713  0.070079
0.622491  0.416549  0.066261
0.705926  0.445019  0.051293
0.757762  0.461920  0.058619
0.127855  0.137004  0.097131
0.131926  0.148995  0.121061
0.152678  0.165676  0.120567
0.183385  0.186502  0.134069
0.211488  0.200595  0.134576
0.266752  0.235860  0.119968
0.339915  0.283319  0.123215
0.389108  0.307658  0.107524
0.434838  0.322335  0.088891
0.489520  0.359209  0.085653
0.545351  0.386401  0.077185
0.602001  0.418688  0.080929
0.670560  0.448222  0.074142
0.719519  0.459378  0.063429
0.787972  0.490834  0.058566
0.138974  0.153912  0.113038
0.154352  0.174861  0.141228
0.170872  0.190376  0.155952
0.193404  0.215022  0.173317
0.222817  0.227161  0.157548
0.289520  0.260604  0.142265
0.357218  0.295424  0.140471
0.398636  0.322642  0.122585
0.466230  0.352198  0.103216
0.514799  0.381911  0.100809
0.558909  0.411215  0.104067
0.615073  0.430210  0.080755
0.659109  0.457386  0.082971
0.741603  0.488078  0.070142
0.819288  0.520723  0.059579
0.148329  0.177048  0.154704
0.166932  0.203117  0.184471
0.187561  0.214333  0.192696
0.203645  0.226358  0.194250
0.253050  0.255615  0.190703
0.306341  0.288772  0.180727
0.371620  0.322194  0.159045
0.413797  0.335150  0.134225
0.486067  0.377252  0.120862
0.544067  0.414091  0.115679
0.571423  0.416645  0.114996
0.633217  0.455926  0.111230
0.698854  0.497948  0.102330
0.745329  0.505531  0.088559
0.811612  0.531042  0.102811
0.169672  0.207452  0.196321
0.191478  0.232726  0.213215
0.194857  0.233839  0.212104
0.237493  0.252294  0.210449
0.271354  0.272371  0.205916
0.318965  0.300986  0.197393
0.364894  0.329255  0.190048
0.446228  0.367556  0.169479
0.478552  0.375826  0.152588
0.552350  0.417046  0.125303
0.599990  0.455846  0.128530
0.643897  0.479007  0.131189
0.699321  0.511738  0.130223
0.757219  0.535991  0.111013
0.833349  0.564746  0.104034
0.190531  0.227214  0.208978
0.199706  0.239314  0.222157
0.228850  0.263262  0.239370
0.242707  0.272044  0.242224
0.294383  0.302639  0.242862
0.351721  0.325278  0.217972
0.421543  0.366064  0.185924
0.471298  0.391131  0.196387
0.511452  0.408605  0.175510
0.550631  0.426228  0.168796
0.617004  0.477979  0.156187
0.662123  0.513633  0.151033
0.740221  0.537391  0.131548
0.780088  0.570614  0.136860
0.825139  0.583886  0.131244
0.211989  0.258738  0.247437
0.225831  0.261063  0.235184
0.260387  0.291228  0.256755
0.294156  0.309923  0.254577
0.334529  0.324246  0.239563
0.380516  0.364150  0.242743
0.436526  0.385765  0.211799
0.492222  0.411275  0.214332
0.543433  0.439658  0.194579
0.581607  0.456823  0.169456
0.637094  0.484013  0.176352
0.714460  0.538912  0.157866
0.742875  0.560567  0.170184
0.797066  0.600146  0.141068
0.869508  0.628516  0.152472
0.221162  0.266521  0.261244
0.267524  0.292283  0.262075
0.300305  0.325178  0.273214
0.338985  0.342163  0.268018
0.376728  0.354047  0.245060
0.434034  0.387856  0.218534
0.467418  0.409863  0.234426
0.531270  0.443159  0.220494
0.565894  0.474882  0.226871
0.616662  0.496039  0.190233
0.687658  0.539321  0.169709
0.726831  0.563545  0.190225
0.793420  0.600609  0.164677
0.816697  0.613490  0.179195
0.875553  0.633102  0.177098
0.267733  0.298139  0.265119
0.288819  0.314857  0.271998
0.328236  0.336067  0.273178
0.366562  0.356416  0.256846
0.421518  0.397096  0.251141
0.457150  0.421262  0.258056
0.502279  0.438843  0.235079
0.550497  0.478186  0.226477
0.589381  0.491886  0.235413
0.661139  0.541715  0.197125
0.716424  0.582440  0.168332
0.759915  0.598421  0.191848
0.788377  0.624054  0.182455
0.862370  0.665084  0.191642
0.911103  0.682249  0.197430
0.286907  0.324517  0.296846
0.338700  0.338670  0.271179
0.387781  0.368690  0.269840
0.412979  0.386651  0.262311
0.475610  0.419067  0.248422
0.512518  0.450356  0.248330
0.542889  0.470222  0.246975
0.589213  0.511987  0.235657
0.641811  0.539630  0.207674
0.679079  0.564518  0.202355
0.741472  0.608391  0.184901
0.789243  0.646401  0.174850
0.811826  0.656766  0.191152
0.899986  0.699237  0.192700
