LUT/LUT_2.CUBE
TITLE "LUT_2" 
#LUT size 
LUT_3D_SIZE 8 
DOMAIN_MIN 0.0 0.0 0.0 
DOMAIN_MAX 1.0 1.0 1.0 
#data point 
0.012627  0.009749  0.006812
0.112433  0.059388  0.010787
0.263231  0.074077  -0.000402
0.402916  0.081615  -0.004434
0.537539  0.076363  -0.011047
0.680765  0.080576  -0.010115
0.825753  0.085187  -0.011155
0.970544  0.084845  -0.013537
0.078168  0.077823  0.038748
0.149695  0.122307  0.033168
0.276299  0.160916  0.020482
0.413732  0.174097  0.014515
0.549914  0.186510  0.010956
0.683427  0.198628  0.000418
0.823456  0.213336  -0.007501
0.966175  0.215399  -0.005761
0.123488  0.178792  0.042663
0.201347  0.231556  0.038159
0.293915  0.273283  0.025103
0.425159  0.289742  0.025141
0.563044  0.298916  0.032120
0.690874  0.312095  0.020917
0.836347  0.316583  0.018780
0.970168  0.328161  0.011233
0.159061  0.283259  0.044113
0.255876  0.331796  0.034053
0.337249  0.377740  0.029017
0.439771  0.412921  0.023693
0.570258  0.426940  0.023896
0.703716  0.436637  0.026471
0.847030  0.439327  0.028712
0.985619  0.449792  0.023939
0.174529  0.416846  0.041999
0.295447  0.427923  0.036474
0.387076  0.475189  0.030973
0.476415  0.523402  0.028431
0.580917  0.555128  0.025202
0.706614  0.572724  0.019134
0.854789  0.576484  0.025833
0.990566  0.578207  0.031292
0.179414  0.545916  0.031959
0.314996  0.557191  0.027866
0.432885  0.578062  0.025621
0.528066  0.607803  0.036559
0.622179  0.659325  0.023716
0.730607  0.689029  0.026578
0.854269  0.711174  0.025173
0.989380  0.719556  0.030854
0.194950  0.670582  0.030783
0.322787  0.680805  0.019830
0.447520  0.695277  0.020251
0.556005  0.718133  0.022450
0.662161  0.752948  0.023221
0.767100  0.788372  0.030185
0.872216  0.817549  0.030237
1.007835  0.842920  0.028478
0.193410  0.806784  0.020495
0.331353  0.807475  0.014186
0.457522  0.817361  0.016516
0.589824  0.822308  0.017888
0.686333  0.866765  0.022128
0.794907  0.891118  0.025397
0.910215  0.920903  0.022896
1.030502  0.945302  0.028940
0.023717  0.065009  0.092708
0.112784  0.087853  0.091280
0.256731  0.078619  0.085508
0.397003  0.082790  0.094039
0.541904  0.081376  0.100533
0.682486  0.077850  0.096734
0.822237  0.076858  0.101007
0.966014  0.078105  0.096695
0.062182  0.115846  0.135167
0.132528  0.159059  0.133010
0.264864  0.193202  0.109951
0.406265  0.206811  0.097876
0.539912  0.220559  0.101827
0.684454  0.221783  0.099184
0.823393  0.223062  0.100039
0.965191  0.218577  0.101099
0.115213  0.181693  0.171383
0.196043  0.239480  0.152504
0.295311  0.274558  0.143860
0.420313  0.295113  0.139821
0.551197  0.320870  0.127720
0.686105  0.333591  0.125560
0.830551  0.341464  0.117736
0.970599  0.351572  0.110545
0.152137  0.289517  0.169558
0.241806  0.333174  0.163505
0.326277  0.386485  0.144391
0.436689  0.418384  0.141851
0.563499  0.432136  0.136476
0.706677  0.440740  0.140818
0.841350  0.457765  0.132142
0.975441  0.461594  0.119453
0.180924  0.409473  0.165094
0.288862  0.427418  0.165100
0.379918  0.479804  0.159833
0.469785  0.531951  0.145652
0.584906  0.558795  0.138983
0.711723  0.567889  0.141430
0.846146  0.582709  0.138976
0.989508  0.587990  0.139371
0.186698  0.534156  0.165730
0.311344  0.552360  0.157681
0.423450  0.568506  0.159481
0.518256  0.607100  0.156752
0.611953  0.655380  0.141014
0.728651  0.689837  0.143802
0.858148  0.715549  0.139177
0.997737  0.724474  0.137634
0.187459  0.662449  0.153836
0.328911  0.675336  0.146310
0.449447  0.684715  0.154290
0.559106  0.718839  0.156158
0.658790  0.750843  0.150349
0.762949  0.781516  0.144913
0.877899  0.820895  0.139935
1.004607  0.846149  0.137721
0.184525  0.799524  0.154737
0.338295  0.803278  0.142432
0.467830  0.805194  0.144161
0.585100  0.820508  0.147083
0.686038  0.857566  0.148179
0.793850  0.884902  0.142921
0.907103  0.914497  0.143128
1.030206  0.945875  0.147918
0.024154  0.082637  0.202330
0.117748  0.100821  0.211712
0.254856  0.099090  0.217012
0.401130  0.090922  0.218757
0.548647  0.093866  0.210639
0.685967  0.088399  0.218861
0.829015  0.088422  0.226354
0.967665  0.084833  0.227752
0.060364  0.164086  0.231782
0.126476  0.205264  0.235694
0.250043  0.225100  0.242711
0.395550  0.224436  0.231139
0.547169  0.226036  0.221405
0.678816  0.224924  0.237435
0.825978  0.227469  0.233412
0.964251  0.226283  0.237357
0.111325  0.214839  0.288776
0.173824  0.254353  0.292230
0.272080  0.300322  0.272212
0.403392  0.336934  0.258449
0.547439  0.355379  0.242464
0.684044  0.356179  0.239673
0.828090  0.360947  0.235624
0.964784  0.362854  0.239309
0.130164  0.296228  0.323596
0.232848  0.337368  0.307487
0.315021  0.385374  0.299232
0.425466  0.418243  0.294049
0.563038  0.435115  0.278544
0.699373  0.459085  0.266127
0.834639  0.471944  0.257750
0.974938  0.480911  0.256590
0.154635  0.403285  0.327783
0.282602  0.434701  0.309183
0.373187  0.480450  0.302382
0.459837  0.532189  0.294167
0.577300  0.561883  0.286789
0.708703  0.572871  0.279800
0.851583  0.583880  0.284969
0.986282  0.604261  0.272650
0.170085  0.531576  0.321389
0.307408  0.545755  0.311701
0.417559  0.574199  0.305400
0.510632  0.615193  0.294826
0.610178  0.664083  0.292439
0.725056  0.700077  0.286114
0.851192  0.718207  0.284159
0.990626  0.724416  0.288107
0.177828  0.653403  0.310201
0.322580  0.662771  0.298981
0.450591  0.679782  0.300773
0.554621  0.711294  0.293927
0.654631  0.756696  0.297201
0.760454  0.791644  0.288211
0.877177  0.821335  0.278755
1.004513  0.844231  0.278189
0.176595  0.801426  0.306037
0.325672  0.801873  0.293396
0.465411  0.800853  0.288750
0.588721  0.815457  0.288394
0.691972  0.848572  0.289475
0.797613  0.891519  0.291071
0.909834  0.913399  0.292995
1.029203  0.953040  0.287664
0.024772  0.094604  0.329624
0.125124  0.112405  0.332391
0.256684  0.113954  0.334541
0.405483  0.115757  0.340277
0.542320  0.102830  0.339983
0.685750  0.103918  0.339035
0.841470  0.103531  0.338762
0.972216  0.087850  0.363821
0.057049  0.203705  0.332440
0.138811  0.238755  0.338964
0.258565  0.248171  0.353889
0.395050  0.244734  0.353999
0.545665  0.239721  0.355391
0.675273  0.234382  0.368376
0.824656  0.221409  0.353717
0.966060  0.227031  0.369020
0.096501  0.270963  0.378376
0.183577  0.303618  0.376247
0.264402  0.352241  0.385407
0.397099  0.366907  0.377324
0.535471  0.370567  0.375216
0.685298  0.366279  0.365071
0.826170  0.371610  0.364623
0.970718  0.364964  0.374455
0.137966  0.315570  0.431838
0.225249  0.358983  0.438118
0.304515  0.402382  0.439006
0.419574  0.444619  0.413929
0.548711  0.472280  0.397495
0.689508  0.489348  0.383819
0.834066  0.500302  0.377331
0.968461  0.512811  0.376776
0.163222  0.413159  0.458148
0.261626  0.431652  0.459548
0.362150  0.479578  0.452372
0.454883  0.540507  0.436912
0.567790  0.565156  0.440584
0.703180  0.584131  0.424421
0.841303  0.605115  0.406473
0.982177  0.618293  0.404282
0.165123  0.519935  0.461773
0.293503  0.538938  0.462349
0.422681  0.568494  0.445564
0.504517  0.617908  0.444073
0.605263  0.667314  0.438526
0.717833  0.704616  0.431778
0.853595  0.712616  0.435253
0.990852  0.723221  0.425422
0.166236  0.652820  0.464107
0.301329  0.658836  0.453640
0.441607  0.675842  0.448381
0.549721  0.708728  0.438033
0.651263  0.756421  0.439685
0.754767  0.794179  0.431812
0.864384  0.832485  0.435052
1.009361  0.848131  0.431918
0.167590  0.791445  0.459249
0.315108  0.794833  0.449757
0.463762  0.794035  0.436860
0.591010  0.801595  0.441177
0.698723  0.842070  0.437298
0.798533  0.879214  0.432436
0.906806  0.912083  0.440752
1.023702  0.952952  0.429146
-0.002245  0.091224  0.500458
0.122628  0.110170  0.489712
0.266735  0.117748  0.473936
0.399057  0.116213  0.477507
0.548712  0.106633  0.482640
0.687988  0.106329  0.477807
0.839364  0.111191  0.482741
0.982717  0.107981  0.468064
0.028058  0.211491  0.492396
0.149943  0.236897  0.479832
0.265982  0.261135  0.466476
0.399707  0.254604  0.484129
0.540590  0.252752  0.484329
0.690154  0.245112  0.483713
0.831825  0.246941  0.481540
0.972773  0.242514  0.484874
0.053675  0.323120  0.517394
0.176642  0.350906  0.482512
0.269105  0.387642  0.478024
0.400720  0.390793  0.493939
0.541055  0.392123  0.489593
0.686251  0.384702  0.492317
0.822004  0.380730  0.497239
0.970503  0.373427  0.500777
0.107286  0.366660  0.546815
0.226168  0.418138  0.518181
0.315454  0.452223  0.526548
0.401374  0.492834  0.521552
0.537051  0.510832  0.514800
0.678534  0.517313  0.518214
0.823465  0.520437  0.514395
0.970631  0.514170  0.507099
0.155204  0.426010  0.588539
0.270841  0.465740  0.569005
0.352757  0.509519  0.580188
0.439173  0.551964  0.585275
0.565577  0.594321  0.552225
0.689301  0.625753  0.541308
0.836176  0.639039  0.525187
0.973249  0.651177  0.515541
0.160168  0.528887  0.611920
0.295822  0.538161  0.598473
0.400339  0.569846  0.602860
0.492844  0.621036  0.593314
0.593319  0.672092  0.578577
0.713703  0.709465  0.580019
0.844807  0.730350  0.564605
0.978819  0.753853  0.545645
0.166781  0.648704  0.611638
0.295543  0.656400  0.614811
0.434204  0.666192  0.597087
0.543193  0.706782  0.589879
0.650316  0.756215  0.579025
0.754577  0.793471  0.584441
0.869248  0.835704  0.575497
1.002874  0.854076  0.577836
0.161483  0.791155  0.614765
0.304809  0.781957  0.613475
0.451889  0.791983  0.593767
0.579915  0.797862  0.589915
0.691690  0.843077  0.579827
0.796812  0.873150  0.576158
0.911836  0.921719  0.581627
1.027694  0.952954  0.579212
-0.002065  0.093632  0.638669
0.116095  0.102085  0.639949
0.241866  0.115355  0.644272
0.409471  0.110891  0.620444
0.553810  0.109422  0.614792
0.689246  0.109651  0.625334
0.828117  0.102758  0.629214
0.976969  0.106269  0.620482
0.022355  0.214701  0.638715
0.137349  0.240671  0.641828
0.253020  0.259208  0.644281
0.403164  0.259845  0.616679
0.546186  0.256869  0.621887
0.684979  0.250251  0.628840
0.829616  0.253334  0.632866
0.974874  0.245708  0.625244
0.040406  0.340616  0.638033
0.169529  0.360836  0.635716
0.257957  0.397560  0.647748
0.408275  0.402338  0.612232
0.544372  0.395616  0.620599
0.683758  0.395580  0.630925
0.827003  0.392956  0.626024
0.967639  0.391974  0.622490
0.096701  0.400650  0.661977
0.192406  0.461840  0.652679
0.298184  0.504307  0.650090
0.408334  0.532974  0.626311
0.535949  0.537800  0.633849
0.678018  0.531860  0.631412
0.821955  0.530464  0.631943
0.966735  0.523550  0.642704
0.143556  0.453114  0.698344
0.250373  0.502877  0.685759
0.353393  0.562105  0.673610
0.439408  0.608914  0.671755
0.548293  0.642340  0.661666
0.678469  0.658714  0.655186
0.818493  0.659456  0.653624
0.967040  0.666783  0.658485
0.166671  0.546977  0.720541
0.290291  0.567867  0.722537
0.405733  0.594777  0.713261
0.484473  0.657748  0.721270
0.577686  0.698255  0.720835
0.707069  0.740361  0.703668
0.835259  0.770793  0.682958
0.976638  0.786323  0.672000
0.167913  0.658031  0.739302
0.304881  0.666895  0.748295
0.425081  0.678588  0.753576
0.542138  0.687196  0.749218
0.641313  0.746906  0.741618
0.746165  0.797713  0.727699
0.864325  0.840758  0.721911
0.993122  0.872142  0.709052
0.160292  0.794644  0.753443
0.299709  0.797086  0.752234
0.430176  0.784453  0.765347
0.572337  0.800920  0.745530
0.684106  0.824142  0.736791
0.797883  0.869254  0.727542
0.907525  0.914198  0.723893
1.013591  0.959045  0.721029
-0.002907  0.093407  0.783308
0.122019  0.103777  0.779692
0.242051  0.115092  0.797244
0.388444  0.115252  0.789326
0.536868  0.111867  0.782446
0.687734  0.107827  0.759234
0.831927  0.106188  0.762999
0.976727  0.103410  0.771415
0.026877  0.212547  0.781600
0.134098  0.239373  0.780584
0.259541  0.250616  0.786966
0.383917  0.262586  0.791067
0.533039  0.253977  0.782649
0.696568  0.250355  0.759806
0.828429  0.247840  0.769901
0.966324  0.242910  0.774432
0.052360  0.326531  0.772429
0.164202  0.360837  0.774640
0.278791  0.380653  0.778985
0.384318  0.404168  0.798847
0.533567  0.407930  0.788221
0.688278  0.398730  0.764543
0.826278  0.395895  0.770603
0.966498  0.392413  0.774791
0.086374  0.430961  0.782707
0.194726  0.461098  0.768188
0.298766  0.511968  0.779493
0.400001  0.536223  0.784412
0.532565  0.547501  0.797776
0.680211  0.539357  0.768434
0.825014  0.537658  0.770915
0.969228  0.536902  0.772881
0.129413  0.496038  0.814746
0.238297  0.541104  0.796022
0.350578  0.594363  0.771686
0.436239  0.654440  0.785727
0.531392  0.685151  0.800230
0.673129  0.684933  0.782218
0.817497  0.674224  0.781643
0.973722  0.681071  0.775745
0.159126  0.562531  0.848967
0.284523  0.594596  0.839398
0.400916  0.628226  0.824298
0.494403  0.697050  0.810358
0.577739  0.732122  0.839187
0.674126  0.800189  0.824600
0.824267  0.808341  0.797267
0.969762  0.811842  0.787055
0.163975  0.677644  0.858916
0.305827  0.676345  0.858454
0.427453  0.704867  0.853890
0.557730  0.721510  0.854911
0.632276  0.769728  0.867872
0.727707  0.842377  0.870912
0.846901  0.875052  0.851865
0.982274  0.910321  0.830797
0.162338  0.811714  0.866386
0.302249  0.803372  0.877482
0.446408  0.799490  0.874492
0.564701  0.806957  0.880981
0.676635  0.828832  0.893205
0.788208  0.863917  0.911163
0.902757  0.915619  0.874496
1.016289  0.968545  0.863516
-0.001663  0.086291  0.918556
0.126979  0.100278  0.927540
0.253032  0.109866  0.931093
0.386515  0.111786  0.927762
0.532792  0.112856  0.935016
0.671904  0.109203  0.926184
0.833751  0.107537  0.918148
0.982168  0.111810  0.901786
0.023409  0.207785  0.923874
0.141549  0.234321  0.919743
0.263957  0.247593  0.923843
0.383882  0.262038  0.934222
0.528212  0.258487  0.934748
0.681480  0.256712  0.933278
0.818901  0.257954  0.927583
0.972824  0.249692  0.906697
0.048898  0.324410  0.916916
0.161942  0.354343  0.921168
0.278532  0.383070  0.927416
0.395572  0.400175  0.928613
0.532228  0.405382  0.936401
0.677185  0.404643  0.932431
0.823390  0.407236  0.923856
0.967727  0.400529  0.917353
0.073464  0.437081  0.919367
0.193656  0.467212  0.919222
0.309199  0.498935  0.922409
0.414765  0.528883  0.923038
0.534073  0.548195  0.937412
0.675158  0.552078  0.933853
0.815561  0.544818  0.934806
0.966837  0.537342  0.931147
0.112623  0.529176  0.936776
0.227457  0.565169  0.918139
0.345865  0.603610  0.911484
0.452402  0.639985  0.915703
0.545690  0.682081  0.930111
0.675425  0.687345  0.936384
0.810633  0.689527  0.947496
0.957035  0.683598  0.940286
0.139965  0.595461  0.965949
0.268275  0.634211  0.946568
0.384590  0.676348  0.926680
0.503564  0.719034  0.915080
0.585052  0.774186  0.914104
0.682606  0.821837  0.941638
0.803210  0.830630  0.957158
0.950803  0.830204  0.949884
0.166072  0.686446  1.001726
0.295830  0.699900  0.990881
0.419619  0.732257  0.970413
0.544958  0.766107  0.951572
0.638200  0.816332  0.942005
0.733308  0.866116  0.960775
0.827534  0.926554  0.965619
0.955081  0.958448  0.961382
0.162602  0.819855  1.000660
0.312112  0.817313  0.999671
0.443243  0.820680  0.996953
0.570171  0.835578  0.993876
0.688051  0.853006  0.993333
0.790932  0.892515  1.000304
0.890101  0.956457  0.991833
0.994880  0.998276  1.000944
