LUT/LUT_38.CUBE
TITLE "LUT_38" 
#LUT size 
LUT_3D_SIZE 8 
DOMAIN_MIN 0.0 0.0 0.0 
DOMAIN_MAX 1.0 1.0 1.0 
#data point 
0.076706  0.070237  0.037513
0.106820  0.100499  0.049623
0.169670  0.147735  0.078379
0.306558  0.238308  0.073770
0.411078  0.304671  0.075271
0.506857  0.374767  0.071870
0.613124  0.430127  0.062901
0.712513  0.502052  0.066839
0.118595  0.108336  0.053360
0.125994  0.112642  0.055652
0.225861  0.204045  0.096997
0.350212  0.275101  0.089376
0.459230  0.334978  0.087713
0.536935  0.398684  0.081798
0.641280  0.468279  0.076583
0.738871  0.533732  0.061242
0.143311  0.132214  0.084465
0.203382  0.188919  0.100784
0.289854  0.245072  0.094797
0.389721  0.314758  0.087980
0.484954  0.363905  0.076608
0.592775  0.452337  0.091384
0.680817  0.514434  0.075156
0.797921  0.577300  0.072234
0.217043  0.194763  0.092280
0.303958  0.259624  0.104280
0.376800  0.297180  0.100344
0.452039  0.342892  0.088314
0.545857  0.422494  0.086298
0.643364  0.489142  0.083318
0.734884  0.555003  0.090878
0.850432  0.619496  0.079496
0.305693  0.263892  0.125568
0.381355  0.292705  0.094573
0.472719  0.364994  0.091749
0.524950  0.407783  0.093310
0.613322  0.480994  0.081665
0.691027  0.559400  0.081864
0.801428  0.615640  0.088732
0.906370  0.696227  0.087263
0.381370  0.306368  0.119080
0.472043  0.370427  0.093668
0.553439  0.435197  0.099465
0.615650  0.476085  0.097295
0.707624  0.577432  0.081851
0.782958  0.642278  0.082825
0.861379  0.701640  0.082735
0.948787  0.752720  0.100925
0.468796  0.358978  0.097576
0.525946  0.420985  0.100303
0.626386  0.495303  0.085562
0.698198  0.564664  0.084766
0.763518  0.619959  0.094825
0.827462  0.669890  0.082205
0.907935  0.736058  0.085959
1.017269  0.784940  0.090365
0.542523  0.428425  0.100100
0.629646  0.505030  0.106203
0.689279  0.554189  0.086040
0.743354  0.605047  0.095558
0.803932  0.649112  0.079855
0.883892  0.708559  0.099214
0.970360  0.770372  0.100481
1.081128  0.827225  0.090836
0.106419  0.103740  0.052735
0.116688  0.116542  0.063071
0.185983  0.167700  0.086768
0.281644  0.231388  0.092072
0.403388  0.316148  0.081816
0.508147  0.380313  0.074034
0.597330  0.449237  0.075522
0.725511  0.491113  0.070560
0.132790  0.131571  0.070094
0.162036  0.155061  0.095185
0.217798  0.199108  0.113714
0.309534  0.263831  0.116575
0.430881  0.342213  0.098584
0.551741  0.413945  0.089288
0.662619  0.484758  0.069268
0.742480  0.531426  0.070863
0.154645  0.164290  0.118647
0.198156  0.202277  0.149490
0.276583  0.260677  0.156863
0.384908  0.317442  0.125230
0.489344  0.377671  0.122656
0.592420  0.446862  0.105884
0.683678  0.506185  0.093242
0.794711  0.594106  0.093037
0.206092  0.227725  0.189169
0.261392  0.257476  0.192899
0.335741  0.299328  0.161726
0.442259  0.364021  0.151735
0.527709  0.402766  0.133019
0.625091  0.491407  0.136299
0.744936  0.562753  0.133557
0.840420  0.636977  0.093470
0.291123  0.281787  0.200777
0.335676  0.303075  0.182042
0.419984  0.376030  0.193150
0.531741  0.439924  0.179316
0.614249  0.493984  0.118829
0.713870  0.569766  0.101673
0.793395  0.623260  0.128869
0.904196  0.691475  0.118783
0.362208  0.331139  0.196124
0.432764  0.381402  0.196321
0.501456  0.418843  0.161863
0.579381  0.475276  0.150459
0.684353  0.563893  0.111634
0.765645  0.627086  0.114721
0.868224  0.700020  0.128032
0.977213  0.760400  0.135465
0.430802  0.374266  0.209285
0.525814  0.427362  0.181591
0.597083  0.482338  0.184084
0.677687  0.556200  0.125491
0.750829  0.610589  0.127065
0.831656  0.682898  0.122534
0.923836  0.749096  0.115687
0.989516  0.776753  0.116770
0.502996  0.421645  0.212799
0.595145  0.492056  0.163233
0.681334  0.552572  0.173012
0.766676  0.617676  0.133071
0.828690  0.675520  0.126318
0.897863  0.730742  0.121082
0.972979  0.767635  0.124036
1.066446  0.820757  0.145271
0.143248  0.148955  0.098747
0.151201  0.162480  0.124340
0.192116  0.198060  0.146719
0.306083  0.264529  0.128604
0.425941  0.331783  0.097293
0.514712  0.388755  0.101000
0.617038  0.463673  0.086718
0.700746  0.513903  0.085969
0.167485  0.178492  0.144281
0.194131  0.215507  0.183493
0.229031  0.253768  0.219226
0.341017  0.307534  0.182181
0.469912  0.379540  0.149325
0.534141  0.424011  0.138574
0.654449  0.491633  0.102552
0.762554  0.567492  0.107312
0.211216  0.247447  0.225682
0.235259  0.273182  0.248901
0.244756  0.277198  0.251743
0.362686  0.360831  0.259112
0.478821  0.422578  0.230463
0.582293  0.460113  0.147860
0.691432  0.536500  0.140412
0.798272  0.609768  0.142665
0.224481  0.275149  0.266461
0.263521  0.321550  0.319156
0.316914  0.356581  0.324722
0.409485  0.399413  0.309112
0.518016  0.451989  0.260288
0.620662  0.507006  0.210867
0.752550  0.589249  0.196136
0.828160  0.644938  0.198864
0.256093  0.318510  0.311578
0.327486  0.371096  0.343739
0.391296  0.397875  0.331104
0.477441  0.458439  0.336329
0.568927  0.489829  0.304166
0.699600  0.576346  0.284991
0.826624  0.659023  0.227029
0.915522  0.710272  0.230897
0.311058  0.357938  0.347768
0.388021  0.420430  0.375403
0.473722  0.449886  0.329875
0.548611  0.502928  0.328101
0.660310  0.575348  0.329607
0.762198  0.636609  0.272369
0.858545  0.703121  0.258042
0.960258  0.760722  0.254777
0.353006  0.397337  0.368145
0.455763  0.451591  0.360409
0.554732  0.510815  0.345084
0.632388  0.553227  0.338472
0.738029  0.616292  0.312159
0.808301  0.668355  0.296513
0.908434  0.730858  0.260385
1.008600  0.794207  0.239503
0.437146  0.455936  0.387025
0.547419  0.506930  0.350926
0.627312  0.555738  0.327036
0.717586  0.612363  0.315413
0.789142  0.664242  0.303263
0.916845  0.736979  0.271144
0.961871  0.772948  0.273125
1.084052  0.841711  0.253897
0.163413  0.189343  0.166294
0.181203  0.215314  0.200619
0.235659  0.258070  0.219882
0.271928  0.294635  0.245601
0.441168  0.365114  0.173401
0.535149  0.428811  0.146179
0.646409  0.485206  0.135460
0.724550  0.552553  0.137369
0.190871  0.222073  0.207391
0.220377  0.262973  0.250491
0.257031  0.304182  0.278059
0.328697  0.345263  0.296747
0.461954  0.404340  0.218832
0.551074  0.451806  0.194653
0.675576  0.526449  0.185681
0.764562  0.598837  0.177154
0.233597  0.282285  0.266790
0.262753  0.320977  0.315598
0.285749  0.350169  0.353357
0.381452  0.411550  0.377099
0.455299  0.457287  0.373122
0.580508  0.508271  0.273621
0.707930  0.577633  0.255666
0.816644  0.652678  0.242766
0.271459  0.332008  0.326328
0.290800  0.369175  0.368456
0.321984  0.397802  0.408826
0.391411  0.444016  0.410427
0.494376  0.494712  0.416116
0.630433  0.560175  0.344960
0.728335  0.620434  0.314068
0.853763  0.677522  0.297782
0.316131  0.394740  0.404168
0.353176  0.439045  0.446567
0.369878  0.451658  0.460482
0.469811  0.501027  0.460972
0.556325  0.564939  0.476740
0.649297  0.595340  0.430769
0.773842  0.666867  0.393431
0.906350  0.747886  0.363328
0.339134  0.424615  0.448321
0.359881  0.453428  0.473886
0.438308  0.490302  0.462729
0.506509  0.544627  0.499032
0.589223  0.593241  0.490669
0.708254  0.658417  0.490181
0.857961  0.740048  0.438936
0.927979  0.770723  0.432254
0.366354  0.467596  0.490028
0.429867  0.511682  0.505354
0.508423  0.532803  0.470972
0.577360  0.589141  0.503780
0.689053  0.651233  0.495390
0.792656  0.711539  0.475980
0.908097  0.766018  0.461192
0.986114  0.816835  0.495973
0.405182  0.503430  0.522044
0.485776  0.525658  0.486800
0.555252  0.585317  0.521824
0.664760  0.638560  0.496987
0.787236  0.708264  0.491806
0.863827  0.747837  0.468720
0.963596  0.802867  0.491360
1.049685  0.847312  0.490499
0.192422  0.232104  0.212045
0.230366  0.279621  0.273313
0.249429  0.304667  0.290556
0.301747  0.338414  0.314958
0.407732  0.399249  0.299981
0.533410  0.460239  0.243663
0.648624  0.527298  0.201171
0.753595  0.572450  0.174178
0.246651  0.292167  0.278203
0.255085  0.314484  0.316139
0.294375  0.356783  0.360064
0.342420  0.406908  0.396631
0.422805  0.442108  0.378405
0.548169  0.496492  0.325556
0.675795  0.546932  0.274435
0.783633  0.615778  0.251288
0.268140  0.337198  0.345169
0.310234  0.373813  0.384083
0.324891  0.411506  0.424646
0.376009  0.455097  0.453410
0.461671  0.499474  0.460719
0.554275  0.545709  0.429748
0.706810  0.609273  0.377805
0.809395  0.658996  0.324963
0.297657  0.383107  0.392126
0.337648  0.421563  0.441922
0.361419  0.457956  0.487421
0.384233  0.493304  0.523144
0.500920  0.543925  0.499196
0.597472  0.601628  0.506440
0.733632  0.665736  0.454382
0.852842  0.712595  0.394144
0.341257  0.431511  0.445077
0.367697  0.471078  0.499816
0.404798  0.512443  0.539251
0.452009  0.560462  0.588900
0.521692  0.599423  0.575872
0.640343  0.656207  0.576337
0.778307  0.705133  0.524127
0.912598  0.780978  0.481973
0.375398  0.475169  0.498806
0.404884  0.510448  0.538137
0.441299  0.555914  0.587456
0.483447  0.596352  0.618062
0.567270  0.623197  0.591730
0.696881  0.715284  0.641217
0.813770  0.758641  0.604768
0.945214  0.806540  0.551710
0.406962  0.522701  0.549595
0.447916  0.558798  0.582008
0.484306  0.605807  0.634269
0.555376  0.632019  0.618946
0.672582  0.689073  0.612415
0.780969  0.755117  0.642465
0.884500  0.807800  0.629825
0.995898  0.846190  0.606977
0.451593  0.569793  0.601137
0.489764  0.606103  0.643941
0.536988  0.629686  0.631875
0.649903  0.685037  0.637530
0.733883  0.726959  0.640605
0.840256  0.779609  0.625172
0.942678  0.841783  0.646054
1.038051  0.869589  0.613308
0.254714  0.307602  0.307349
0.267341  0.330071  0.324478
0.289627  0.366817  0.379933
0.325408  0.398801  0.398544
0.413784  0.438298  0.383329
0.510818  0.492526  0.365416
0.638918  0.536761  0.294147
0.754141  0.608095  0.264767
0.276943  0.351477  0.357845
0.308153  0.391593  0.408313
0.321701  0.411245  0.431021
0.369676  0.452200  0.463346
0.442042  0.502252  0.486851
0.544780  0.555630  0.480336
0.667009  0.602557  0.403335
0.790982  0.658957  0.367420
0.311547  0.398019  0.415416
0.345862  0.429124  0.436594
0.381017  0.482447  0.499396
0.402224  0.504120  0.522989
0.461545  0.540464  0.532467
0.573930  0.602406  0.550048
0.676093  0.627689  0.481622
0.827975  0.716345  0.462343
0.331375  0.435845  0.464601
0.378231  0.469949  0.487470
0.418548  0.526183  0.566130
0.431138  0.547206  0.581178
0.490280  0.601867  0.616813
0.603913  0.647867  0.600468
0.731404  0.695603  0.543312
0.836986  0.759861  0.567225
0.384061  0.496807  0.527435
0.422432  0.539465  0.565479
0.448822  0.571808  0.609015
0.480272  0.606360  0.636520
0.536855  0.653359  0.681413
0.649104  0.699046  0.658023
0.741705  0.732796  0.628519
0.905138  0.805720  0.607921
0.414487  0.530774  0.561662
0.452383  0.574116  0.602408
0.478918  0.611201  0.644516
0.515939  0.642176  0.676889
0.577187  0.702792  0.740840
0.690373  0.747953  0.723704
0.818359  0.806844  0.706077
0.941608  0.846236  0.677535
0.453352  0.576265  0.608846
0.490479  0.620005  0.649902
0.545060  0.667976  0.697090
0.569604  0.693179  0.716985
0.635372  0.748375  0.773106
0.735695  0.793260  0.768500
0.868855  0.838721  0.747087
0.971626  0.872373  0.718409
0.491356  0.611192  0.645113
0.521643  0.643737  0.671246
0.564630  0.694506  0.733016
0.598355  0.721686  0.746463
0.695747  0.783370  0.796106
0.811605  0.818214  0.756879
0.906502  0.860483  0.748032
1.032437  0.909178  0.742065
0.294537  0.374232  0.388636
0.311843  0.393427  0.408402
0.345908  0.439092  0.463169
0.374319  0.474802  0.509290
0.421053  0.489072  0.476396
0.508108  0.534754  0.473698
0.613347  0.570801  0.426228
0.765857  0.652422  0.381428
0.320528  0.410772  0.429682
0.342529  0.451505  0.479275
0.363522  0.467196  0.497949
0.405844  0.522954  0.556580
0.444341  0.552454  0.576869
0.546940  0.576918  0.525391
0.649773  0.634026  0.528404
0.795380  0.699435  0.477695
0.349499  0.454258  0.481097
0.381599  0.482886  0.517131
0.416128  0.525705  0.548077
0.448409  0.565580  0.594026
0.491891  0.605534  0.628673
0.587058  0.647057  0.614338
0.692070  0.701268  0.619411
0.805259  0.746173  0.580104
0.385146  0.492121  0.519667
0.403185  0.511140  0.543202
0.463150  0.591051  0.622892
0.491885  0.618727  0.651174
0.537197  0.664986  0.700928
0.593857  0.687108  0.694285
0.748468  0.742522  0.654552
0.865821  0.798890  0.644556
0.418908  0.535638  0.561863
0.470971  0.584063  0.620168
0.496262  0.621532  0.646296
0.542645  0.667739  0.697350
0.596072  0.725221  0.766818
0.636609  0.740363  0.759528
0.753753  0.775906  0.725883
0.892046  0.840603  0.709263
0.451219  0.575305  0.606719
0.501025  0.627089  0.658203
0.536963  0.665751  0.697151
0.603201  0.729213  0.770814
0.635846  0.766730  0.805697
0.687630  0.809166  0.846530
0.792186  0.839518  0.810091
0.926632  0.878744  0.764484
0.502378  0.621471  0.655405
0.536899  0.655212  0.687597
0.574814  0.699867  0.737778
0.631719  0.759053  0.808396
0.680854  0.800052  0.835937
0.739851  0.844923  0.884127
0.832243  0.893391  0.901322
0.959991  0.899676  0.797124
0.531445  0.660420  0.692239
0.575388  0.702702  0.730369
0.610701  0.738011  0.784577
0.682765  0.800758  0.845469
0.734058  0.839634  0.878794
0.798366  0.882208  0.916032
0.876573  0.922773  0.936621
0.999627  0.940129  0.863133
0.330341  0.419756  0.448853
0.340060  0.446310  0.471767
0.387729  0.498905  0.529353
0.410761  0.532881  0.572259
0.459111  0.581894  0.613277
0.510984  0.589859  0.581384
0.633372  0.640649  0.561244
0.778789  0.702926  0.495594
0.350768  0.455747  0.485830
0.378676  0.488417  0.522297
0.427704  0.551035  0.583805
0.465293  0.591011  0.625401
0.506918  0.625913  0.655769
0.547301  0.659178  0.679060
0.639615  0.678522  0.632622
0.791481  0.738683  0.585313
0.376729  0.495834  0.533579
0.418131  0.536861  0.566588
0.459284  0.582724  0.615268
0.514377  0.643119  0.678258
0.553228  0.680448  0.712131
0.598781  0.722122  0.749877
0.698299  0.745450  0.700419
0.826535  0.788662  0.668779
0.429204  0.543904  0.575898
0.454940  0.580621  0.615042
0.506198  0.628500  0.661921
0.564304  0.689862  0.714613
0.583546  0.716095  0.767442
0.637348  0.762704  0.803281
0.691792  0.796880  0.822457
0.853109  0.831765  0.743405
0.449396  0.573092  0.606693
0.502713  0.626086  0.658189
0.543485  0.672191  0.703741
0.592577  0.716227  0.760622
0.633830  0.758530  0.797968
0.687579  0.800426  0.848771
0.760687  0.859334  0.898100
0.861986  0.882768  0.843910
0.484596  0.606380  0.642818
0.528269  0.651543  0.682753
0.580844  0.705903  0.742298
0.632011  0.757460  0.803782
0.660367  0.780579  0.828404
0.746726  0.850721  0.888187
0.802382  0.888620  0.921768
0.881614  0.922760  0.932716
0.534596  0.658917  0.694532
0.576157  0.706157  0.746351
0.613033  0.743353  0.789334
0.647593  0.775263  0.823233
0.712444  0.825262  0.872437
0.787766  0.877246  0.911719
0.850439  0.922465  0.950307
0.910491  0.949792  0.969133
0.570673  0.694157  0.733009
0.591176  0.729026  0.771798
0.647019  0.772496  0.819420
0.709905  0.826010  0.867083
0.760596  0.866476  0.899659
0.833863  0.911006  0.937663
0.884890  0.938093  0.958174
0.942047  0.968792  0.980601
