LUT/LUT_23.CUBE
TITLE "LUT_23" 
#LUT size 
LUT_3D_SIZE 15 
DOMAIN_MIN 0.0 0.0 0.0 
DOMAIN_MAX 1.0 1.0 1.0 
#data point 
0.063276  0.058839  0.028260
0.078088  0.072816  0.030827
0.099907  0.094324  0.047408
0.126484  0.118238  0.066999
0.186058  0.162814  0.072391
0.245904  0.201993  0.066964
0.316590  0.234490  0.059729
0.352805  0.255288  0.055310
0.424387  0.301323  0.057472
0.469360  0.321677  0.058090
0.531935  0.341463  0.051937
0.562361  0.371343  0.053465
0.639448  0.392978  0.047158
0.701004  0.421746  0.052064
0.771410  0.448919  0.051233
0.073856  0.078819  0.041907
0.091280  0.085692  0.039255
0.113354  0.103304  0.047846
0.158051  0.138155  0.067769
0.211694  0.174527  0.078070
0.271722  0.210496  0.071629
0.329443  0.251794  0.068596
0.385489  0.287385  0.063875
0.434346  0.312093  0.060258
0.476126  0.330540  0.062931
0.540534  0.359011  0.057612
0.608649  0.396842  0.058878
0.667735  0.430477  0.052445
0.728732  0.446498  0.050460
0.783208  0.467521  0.059363
0.104107  0.098199  0.048046
0.099362  0.097881  0.047222
0.134584  0.119589  0.055294
0.166668  0.152524  0.083911
0.239911  0.198025  0.079347
0.281691  0.221837  0.067372
0.361958  0.266058  0.081977
0.400271  0.294470  0.063948
0.458296  0.323419  0.067012
0.505688  0.350913  0.063395
0.553796  0.376480  0.062860
0.630652  0.418458  0.063138
0.677071  0.441286  0.058284
0.747394  0.462560  0.061849
0.803234  0.485377  0.055860
0.113076  0.109855  0.058112
0.130163  0.120564  0.065490
0.164627  0.142347  0.068810
0.208810  0.179309  0.082233
0.279188  0.226145  0.080547
0.321905  0.256085  0.081151
0.377623  0.284890  0.067548
0.435539  0.309524  0.064776
0.479817  0.345588  0.064598
0.521994  0.368013  0.061838
0.583139  0.402681  0.062546
0.643307  0.424711  0.062360
0.690172  0.454923  0.051975
0.760779  0.474975  0.055560
0.827302  0.516418  0.053716
0.149069  0.137720  0.076147
0.174021  0.159512  0.082148
0.219673  0.186691  0.090605
0.246656  0.213055  0.092750
0.293884  0.235479  0.079176
0.357682  0.285888  0.088391
0.398942  0.306832  0.077800
0.457134  0.335509  0.070805
0.512266  0.368181  0.073533
0.561162  0.391613  0.059023
0.598800  0.430404  0.067127
0.679843  0.467177  0.064760
0.720664  0.474332  0.056043
0.777165  0.510639  0.057120
0.839716  0.532363  0.054075
0.175551  0.168594  0.100582
0.219836  0.192932  0.084758
0.253834  0.210991  0.088742
0.303779  0.242541  0.081986
0.342941  0.272386  0.073340
0.369244  0.290251  0.090524
0.426464  0.325088  0.074631
0.483798  0.367313  0.081272
0.522611  0.380519  0.068645
0.560817  0.415707  0.059897
0.630567  0.454384  0.059094
0.677375  0.479403  0.069326
0.751259  0.504470  0.063865
0.797139  0.533357  0.063450
0.856500  0.559320  0.067635
0.225562  0.191036  0.085137
0.260054  0.221373  0.097242
0.306771  0.253966  0.097816
0.349563  0.281350  0.098946
0.378019  0.296926  0.079335
0.426515  0.337166  0.089908
0.456905  0.352628  0.078602
0.518950  0.399730  0.085846
0.552094  0.413005  0.072882
0.618595  0.478416  0.071593
0.658857  0.489092  0.065969
0.694921  0.499002  0.070786
0.757311  0.532539  0.065710
0.817998  0.558637  0.066847
0.883672  0.586445  0.063704
0.282652  0.235774  0.101267
0.305180  0.263530  0.099047
0.332548  0.272467  0.092159
0.382099  0.298999  0.082926
0.429856  0.341738  0.090093
0.467719  0.371341  0.071874
0.492384  0.391968  0.078245
0.533458  0.418948  0.071170
0.580569  0.462264  0.077725
0.640039  0.489966  0.069450
0.684847  0.526599  0.068518
0.735507  0.549894  0.071923
0.787127  0.579320  0.078492
0.850120  0.601204  0.073117
0.911321  0.629493  0.068626
0.299950  0.256225  0.109383
0.352859  0.292977  0.094648
0.388102  0.303594  0.075978
0.418095  0.331395  0.086089
0.472792  0.377752  0.085936
0.496227  0.394170  0.081839
0.529848  0.425308  0.076731
0.581956  0.461267  0.078646
0.609400  0.499991  0.068780
0.672010  0.544325  0.066707
0.693355  0.562257  0.073931
0.746535  0.589678  0.084910
0.814835  0.615394  0.072885
0.845951  0.656273  0.079219
0.927847  0.668155  0.069583
0.364430  0.303858  0.101376
0.391658  0.317744  0.090187
0.422361  0.336916  0.083873
0.460687  0.371643  0.091070
0.498340  0.398740  0.083912
0.535701  0.432807  0.078844
0.577146  0.470457  0.077003
0.623815  0.500708  0.075837
0.661392  0.542329  0.070553
0.690837  0.573089  0.074559
0.747608  0.617943  0.070520
0.778207  0.630856  0.068370
0.823185  0.664071  0.083872
0.878765  0.672507  0.076307
0.930147  0.713322  0.076320
0.379274  0.315591  0.106545
0.426887  0.340185  0.088667
0.459940  0.392586  0.085314
0.502745  0.399199  0.084244
0.553731  0.445292  0.086058
0.574024  0.474713  0.079970
0.604908  0.500462  0.088263
0.657967  0.541630  0.075169
0.699820  0.587491  0.067392
0.727582  0.602103  0.071040
0.779505  0.650728  0.072218
0.800720  0.663243  0.079294
0.861788  0.703070  0.073882
0.917274  0.720533  0.067890
0.955807  0.747362  0.082918
0.433697  0.352120  0.089093
0.459695  0.376049  0.093808
0.498465  0.406604  0.086780
0.534057  0.435217  0.082008
0.575015  0.475089  0.071344
0.623613  0.508565  0.073707
0.641709  0.541100  0.069864
0.673953  0.575824  0.067373
0.727714  0.617914  0.075765
0.755240  0.640776  0.066955
0.795738  0.669913  0.076774
0.844745  0.701627  0.073105
0.890031  0.718299  0.070492
0.917060  0.759191  0.081478
0.986211  0.775931  0.077750
0.464351  0.384162  0.082681
0.495362  0.405162  0.076925
0.531802  0.437182  0.077709
0.571506  0.477484  0.065713
0.614661  0.508159  0.088352
0.646866  0.545569  0.082017
0.692715  0.577332  0.073324
0.719181  0.595556  0.075110
0.761087  0.632490  0.080168
0.785522  0.658120  0.079643
0.831320  0.680901  0.073519
0.887863  0.718510  0.081916
0.902861  0.746090  0.084209
0.951967  0.774809  0.076030
1.022766  0.800371  0.088506
0.506769  0.417301  0.077923
0.545715  0.461183  0.077092
0.578745  0.486956  0.071936
0.615672  0.516396  0.083965
0.645085  0.549306  0.079566
0.677180  0.563790  0.065301
0.719826  0.603376  0.074563
0.751518  0.632045  0.072029
0.780089  0.655244  0.079674
0.812078  0.674185  0.080718
0.858973  0.698117  0.072931
0.896363  0.736820  0.081662
0.943114  0.767886  0.079300
0.984964  0.792537  0.082741
1.029830  0.807260  0.084843
0.537344  0.448648  0.084239
0.564279  0.471328  0.086315
0.603808  0.510525  0.086236
0.654366  0.544340  0.064955
0.687258  0.563585  0.067576
0.698760  0.595615  0.078895
0.741867  0.622485  0.080979
0.796608  0.662269  0.081505
0.809366  0.677056  0.074097
0.852146  0.707803  0.076196
0.887458  0.726890  0.084215
0.924502  0.761144  0.082831
0.970220  0.783926  0.089903
1.024761  0.806103  0.083709
1.078228  0.849269  0.084149
0.068824  0.070218  0.033357
0.089857  0.084622  0.036091
0.101895  0.095358  0.044672
0.121564  0.111140  0.052117
0.176914  0.154499  0.070692
0.243375  0.196897  0.070065
0.313982  0.247035  0.072662
0.367917  0.268083  0.057912
0.420789  0.291927  0.058286
0.455137  0.308412  0.054970
0.525711  0.348204  0.050706
0.582669  0.376065  0.047903
0.648533  0.401153  0.050091
0.696516  0.431200  0.050782
0.757127  0.451535  0.054258
0.088621  0.081085  0.040325
0.092816  0.089929  0.045561
0.117285  0.104383  0.050223
0.162288  0.141677  0.072083
0.206713  0.179278  0.078920
0.284649  0.227921  0.067532
0.330325  0.252319  0.067631
0.376648  0.276427  0.063875
0.439960  0.313847  0.061930
0.503713  0.339240  0.054776
0.533435  0.363333  0.056104
0.595010  0.389941  0.050238
0.666027  0.433072  0.054221
0.717303  0.439015  0.055670
0.784066  0.471289  0.058331
0.099377  0.095121  0.048609
0.106040  0.101799  0.058183
0.141752  0.132357  0.077215
0.171414  0.159612  0.086780
0.220612  0.193472  0.091115
0.304666  0.242011  0.074989
0.334601  0.260739  0.062293
0.400896  0.293493  0.064540
0.455023  0.325095  0.068812
0.505227  0.349342  0.061643
0.564780  0.383158  0.062170
0.616768  0.417133  0.056985
0.689140  0.441356  0.054993
0.738957  0.471873  0.055037
0.814614  0.491845  0.055145
0.127959  0.129145  0.073645
0.148691  0.143032  0.073390
0.169192  0.159646  0.091241
0.200999  0.182301  0.092626
0.256397  0.218560  0.087826
0.327904  0.257857  0.080216
0.368965  0.280965  0.080589
0.435374  0.327312  0.081067
0.472505  0.354039  0.073808
0.513367  0.374292  0.070185
0.581257  0.406233  0.073336
0.635914  0.437887  0.066662
0.694501  0.463407  0.059888
0.737315  0.484462  0.061703
0.819623  0.512595  0.056527
0.155681  0.146966  0.091773
0.170766  0.160802  0.094691
0.206312  0.188727  0.109356
0.240835  0.211121  0.100700
0.292916  0.253323  0.111713
0.348373  0.268274  0.082719
0.393093  0.311494  0.090159
0.442462  0.333561  0.072775
0.502179  0.372904  0.085846
0.547436  0.404923  0.090432
0.601027  0.423253  0.066636
0.665908  0.453455  0.065928
0.722892  0.487220  0.064467
0.779169  0.509987  0.063107
0.823947  0.536848  0.063530
0.187288  0.171272  0.100645
0.213237  0.198711  0.111895
0.252666  0.229914  0.128352
0.290143  0.246829  0.124253
0.339736  0.265979  0.096690
0.395097  0.305989  0.098005
0.446148  0.336046  0.086606
0.467604  0.355614  0.107380
0.517416  0.389359  0.084131
0.573886  0.426256  0.097100
0.616659  0.452309  0.075833
0.677051  0.487920  0.068844
0.734233  0.507805  0.074844
0.808488  0.540355  0.064963
0.867048  0.576419  0.057599
0.230116  0.221800  0.140731
0.269172  0.237331  0.114167
0.287825  0.258340  0.139196
0.324239  0.273600  0.120222
0.384952  0.305549  0.100510
0.425733  0.339097  0.099899
0.460174  0.364471  0.096360
0.513190  0.395401  0.102530
0.546543  0.422541  0.102425
0.592446  0.447954  0.093798
0.660017  0.487822  0.081298
0.706878  0.515458  0.073943
0.760569  0.543060  0.068313
0.829395  0.574663  0.062880
0.879586  0.598706  0.060756
0.253709  0.233534  0.127641
0.288309  0.260669  0.132521
0.339349  0.292728  0.140475
0.374727  0.310037  0.134218
0.426114  0.339349  0.094242
0.457361  0.368450  0.102821
0.510467  0.400860  0.088996
0.557570  0.427902  0.091378
0.584897  0.458828  0.090014
0.615592  0.483842  0.082816
0.679600  0.524778  0.076696
0.724450  0.546449  0.073032
0.793960  0.570802  0.067477
0.847254  0.592586  0.070303
0.919725  0.616795  0.076640
0.307299  0.264556  0.127744
0.345286  0.297268  0.137382
0.380205  0.311983  0.117007
0.395771  0.333236  0.119673
0.446031  0.367742  0.106778
0.497137  0.405970  0.100546
0.533483  0.429329  0.106546
0.579749  0.471953  0.078075
0.615544  0.499220  0.085695
0.675388  0.545512  0.090435
0.711590  0.560472  0.084825
0.756262  0.588928  0.087276
0.807214  0.616365  0.081888
0.871393  0.654095  0.081920
0.918224  0.660353  0.079450
0.333505  0.282195  0.130834
0.391532  0.326222  0.128218
0.422298  0.348127  0.133391
0.466122  0.382735  0.106506
0.496694  0.409127  0.110797
0.551753  0.447197  0.092936
0.588056  0.485384  0.095538
0.611218  0.507770  0.097398
0.660804  0.545906  0.089891
0.687573  0.573680  0.084972
0.744969  0.618133  0.070599
0.778764  0.631304  0.076049
0.828240  0.649208  0.075277
0.883978  0.680155  0.080780
0.949979  0.718264  0.083230
0.368447  0.321736  0.144561
0.395511  0.337178  0.137875
0.433449  0.368671  0.127009
0.504009  0.416354  0.102975
0.537268  0.433782  0.110249
0.578511  0.479635  0.097814
0.628359  0.527274  0.088857
0.659207  0.551088  0.084236
0.691603  0.582622  0.090328
0.729764  0.617184  0.086396
0.775050  0.637336  0.080749
0.821293  0.675407  0.094262
0.853922  0.688592  0.069556
0.919704  0.724832  0.087123
0.957439  0.728990  0.097905
0.406929  0.344788  0.135752
0.457759  0.374637  0.126377
0.506478  0.422493  0.109480
0.531538  0.432689  0.102270
0.571480  0.490724  0.110601
0.615975  0.508801  0.096935
0.633386  0.532366  0.100331
0.680683  0.565883  0.104767
0.715500  0.594538  0.085209
0.736540  0.627210  0.095277
0.794137  0.658030  0.074083
0.847833  0.690578  0.093190
0.901370  0.728461  0.086489
0.923580  0.753345  0.088512
0.978220  0.776519  0.077045
0.468265  0.384019  0.124817
0.518336  0.424818  0.083151
0.540306  0.445088  0.112037
0.595973  0.484434  0.095001
0.607590  0.504033  0.096305
0.649104  0.544931  0.101066
0.691712  0.582482  0.095975
0.702946  0.592141  0.092729
0.760207  0.628957  0.092958
0.794409  0.662120  0.091036
0.831232  0.683367  0.086104
0.885774  0.720347  0.097591
0.917552  0.749157  0.087560
0.979130  0.773523  0.085082
1.004431  0.788122  0.085164
0.490824  0.408807  0.125684
0.519533  0.431304  0.104275
0.568274  0.477027  0.092152
0.582787  0.486777  0.090529
0.649674  0.549272  0.090741
0.674236  0.568036  0.085521
0.694797  0.597616  0.107898
0.757652  0.637390  0.078014
0.787203  0.653613  0.089740
0.815664  0.681559  0.098000
0.860906  0.717032  0.092872
0.889016  0.730552  0.097554
0.933054  0.765439  0.096236
0.984897  0.792051  0.080892
1.029573  0.815416  0.088847
0.540987  0.451201  0.123635
0.574776  0.478547  0.091046
0.593433  0.483471  0.104155
0.638562  0.523737  0.094468
0.670154  0.567505  0.090177
0.708956  0.599391  0.093003
0.747229  0.627547  0.094928
0.781143  0.648277  0.100658
0.810120  0.678890  0.097965
0.857466  0.705354  0.094647
0.894384  0.735956  0.102552
0.914851  0.754105  0.093681
0.973722  0.795214  0.094398
1.027663  0.812720  0.089574
1.081009  0.845461  0.099629
0.095601  0.086332  0.041544
0.103008  0.107234  0.062743
0.114975  0.114254  0.059024
0.155716  0.142348  0.073789
0.187984  0.168465  0.086835
0.245497  0.200581  0.076659
0.307870  0.246073  0.069920
0.376907  0.276517  0.065373
0.425492  0.301931  0.061396
0.470540  0.322149  0.061321
0.526502  0.353102  0.056759
0.584610  0.381004  0.062617
0.635231  0.407209  0.049349
0.717199  0.441814  0.055376
0.773040  0.451798  0.049658
0.110670  0.113966  0.060827
0.124145  0.122348  0.072515
0.138316  0.134156  0.077615
0.157518  0.156153  0.096527
0.220564  0.194502  0.099058
0.284693  0.236962  0.077310
0.343591  0.262811  0.080681
0.376236  0.283716  0.076748
0.443409  0.322365  0.056110
0.490568  0.346028  0.066218
0.550483  0.383186  0.062114
0.606273  0.402464  0.058729
0.657724  0.428068  0.063602
0.745205  0.458501  0.052481
0.782394  0.479616  0.061044
0.122077  0.125667  0.076350
0.135445  0.147996  0.104424
0.157294  0.157375  0.101764
0.185694  0.176994  0.105467
0.229826  0.200869  0.111873
0.298174  0.250699  0.117427
0.339020  0.279109  0.095115
0.390210  0.301963  0.086255
0.462788  0.339239  0.078189
0.517869  0.369394  0.091633
0.559493  0.403022  0.069398
0.618278  0.425618  0.064998
0.687406  0.445500  0.056833
0.745532  0.475040  0.062655
0.793862  0.495644  0.055349
0.144478  0.156513  0.113486
0.154892  0.162675  0.120839
0.162519  0.177836  0.143765
0.201773  0.200295  0.133093
0.235327  0.216739  0.123239
0.321745  0.276720  0.126578
0.367948  0.306939  0.122870
0.417085  0.320844  0.110530
0.483686  0.371274  0.093776
0.530792  0.390569  0.095213
0.571871  0.411438  0.088038
0.642605  0.443289  0.071468
0.691427  0.469735  0.075826
0.740564  0.486925  0.065130
0.820546  0.524188  0.063594
0.152619  0.176401  0.137453
0.192837  0.210421  0.176076
0.206774  0.212222  0.152447
0.223250  0.223498  0.158591
0.290181  0.256507  0.148500
0.331405  0.284652  0.141553
0.388985  0.318865  0.133687
0.460168  0.359747  0.115767
0.495615  0.386602  0.115621
0.549899  0.404160  0.102887
0.612319  0.440748  0.104530
0.661619  0.465880  0.089029
0.713293  0.490898  0.075204
0.774652  0.536603  0.079881
0.838348  0.553392  0.068985
0.174562  0.198369  0.172964
0.195311  0.210151  0.168766
0.238147  0.241472  0.171525
0.265335  0.251336  0.166370
0.308340  0.283594  0.165129
0.361682  0.316966  0.164696
0.427561  0.343600  0.140126
0.471999  0.370227  0.127293
0.536952  0.413052  0.103719
0.574699  0.432734  0.114128
0.634304  0.462449  0.096302
0.672422  0.495549  0.114123
0.726520  0.505652  0.091814
0.802423  0.558942  0.094082
0.850101  0.574948  0.083904
0.203658  0.224413  0.180950
0.230536  0.244787  0.185073
0.275611  0.266164  0.182433
0.318213  0.296460  0.183930
0.347967  0.312276  0.170239
0.403436  0.339227  0.163526
0.454172  0.371325  0.154737
0.498963  0.398764  0.139388
0.540961  0.424686  0.135430
0.586015  0.462120  0.130008
0.643175  0.493168  0.128538
0.702035  0.522753  0.127835
0.757785  0.548039  0.124921
0.826324  0.583118  0.104906
0.871014  0.597309  0.087458
0.261054  0.264511  0.203882
0.289028  0.284726  0.205734
0.333387  0.303065  0.192623
0.354387  0.321333  0.172472
0.392710  0.348194  0.181343
0.440482  0.372150  0.156861
0.495369  0.410443  0.159147
0.539539  0.434023  0.145474
0.592184  0.472109  0.116775
0.643016  0.503973  0.127280
0.678032  0.516673  0.121955
0.715603  0.549248  0.139835
0.771135  0.582187  0.123225
0.848029  0.613681  0.112143
0.891493  0.637125  0.110568
0.282459  0.285100  0.200094
0.327971  0.302971  0.193022
0.350083  0.309589  0.186462
0.404007  0.352584  0.188179
0.425267  0.377543  0.191012
0.470014  0.400687  0.178065
0.534029  0.441663  0.161734
0.566050  0.468898  0.139403
0.629061  0.507611  0.116184
0.667518  0.527801  0.130715
0.715515  0.565785  0.116173
0.750445  0.600480  0.125072
0.808797  0.620361  0.126269
0.865219  0.648751  0.133186
0.928795  0.670580  0.118356
0.313216  0.307954  0.219397
0.359607  0.336589  0.196963
0.401924  0.347348  0.184438
0.425930  0.380481  0.202795
0.463680  0.395400  0.190116
0.527581  0.440084  0.166191
0.571868  0.470022  0.164703
0.605832  0.498677  0.129291
0.655685  0.534306  0.138441
0.693601  0.579558  0.121830
0.744951  0.616617  0.130029
0.790782  0.632199  0.122151
0.837349  0.660558  0.145131
0.877380  0.683205  0.134415
0.931935  0.701583  0.120945
0.363034  0.333840  0.197831
0.396549  0.354533  0.196149
0.435099  0.387094  0.200516
0.492529  0.418789  0.168780
0.516978  0.437381  0.161514
0.552776  0.465930  0.171220
0.589566  0.502112  0.156406
0.642168  0.547312  0.143012
0.681808  0.575011  0.120228
0.720497  0.601393  0.125619
0.762067  0.628539  0.124428
0.799474  0.660771  0.121187
0.861918  0.711182  0.130398
0.908051  0.715787  0.126956
0.984594  0.761934  0.134679
0.403350  0.361876  0.205393
0.433848  0.382537  0.195421
0.485681  0.416353  0.188282
0.517311  0.444203  0.180462
0.568719  0.472337  0.171607
0.600083  0.507269  0.157753
0.620927  0.521984  0.149947
0.679985  0.562915  0.133852
0.720679  0.598442  0.147908
0.768937  0.641747  0.123793
0.797939  0.659737  0.132568
0.837250  0.702911  0.131997
0.889244  0.726292  0.124327
0.932329  0.760277  0.132150
0.985866  0.785069  0.148708
0.434196  0.380209  0.196640
0.468184  0.410703  0.191901
0.519879  0.439721  0.170318
0.536547  0.458025  0.195225
0.582128  0.494242  0.180438
0.640631  0.534927  0.166267
0.673303  0.559647  0.140443
0.705838  0.600677  0.142365
0.753714  0.629750  0.138182
0.788720  0.654646  0.136642
0.820431  0.686342  0.133692
0.858071  0.718663  0.143285
0.916524  0.750467  0.126510
0.966878  0.784336  0.153499
1.001222  0.787586  0.127391
0.465264  0.403221  0.207257
0.510218  0.436165  0.184847
0.526440  0.453528  0.191002
0.586462  0.509704  0.157156
0.619863  0.532860  0.152893
0.682080  0.580833  0.142923
0.715549  0.595498  0.138351
0.751631  0.639566  0.125944
0.780839  0.655254  0.135205
0.802406  0.678005  0.130914
0.840801  0.706338  0.126900
0.899460  0.751990  0.134560
0.933142  0.761745  0.131962
0.993606  0.793346  0.127240
1.037377  0.818561  0.151847
0.502771  0.445165  0.217134
0.556804  0.477504  0.193739
0.585940  0.509315  0.160612
0.627701  0.538776  0.154864
0.677495  0.554567  0.155297
0.695038  0.594032  0.147783
0.751093  0.630028  0.134988
0.775046  0.648666  0.135675
0.803977  0.680312  0.135264
0.856018  0.718995  0.144759
0.895632  0.745887  0.120760
0.918093  0.752643  0.144743
0.964236  0.786151  0.145866
1.023506  0.813717  0.129286
1.066832  0.841970  0.134126
0.118750  0.116858  0.072156
0.123889  0.118969  0.072845
0.143481  0.146375  0.100632
0.156785  0.163903  0.117829
0.196655  0.181399  0.092696
0.245077  0.212284  0.091665
0.327344  0.257312  0.091387
0.378977  0.288739  0.082753
0.408359  0.306083  0.072424
0.478766  0.341139  0.074399
0.516525  0.370560  0.074815
0.595576  0.395041  0.068876
0.625656  0.411216  0.060456
0.711979  0.442759  0.049180
0.760478  0.452950  0.058291
0.131802  0.133603  0.100333
0.133260  0.148006  0.120006
0.153732  0.163226  0.126066
0.178825  0.190211  0.132430
0.209447  0.203879  0.137844
0.265650  0.237203  0.120129
0.338362  0.280800  0.122227
0.389164  0.309133  0.107427
0.433650  0.326173  0.086261
0.488475  0.359047  0.082670
0.545297  0.382501  0.076496
0.603126  0.416358  0.079971
0.671893  0.438505  0.074399
0.720435  0.456353  0.060537
0.790977  0.487499  0.057718
0.139482  0.156349  0.113813
0.152082  0.173048  0.141107
0.170028  0.186007  0.158984
0.196657  0.212040  0.175560
0.224070  0.225800  0.159166
0.293779  0.259680  0.144244
0.356656  0.295933  0.139265
0.400302  0.320607  0.124948
0.466243  0.350844  0.104130
0.514410  0.383343  0.102099
0.562864  0.405156  0.105327
0.617370  0.429355  0.081867
0.665302  0.455057  0.080753
0.741728  0.487360  0.071896
0.821083  0.519187  0.063935
0.150262  0.175128  0.155189
0.167969  0.199062  0.185110
0.185798  0.214769  0.192062
0.204657  0.225173  0.192686
0.254492  0.256102  0.189072
0.304253  0.285920  0.177691
0.371221  0.319401  0.159036
0.416489  0.335273  0.134284
0.489100  0.378117  0.124353
0.547358  0.415195  0.116587
0.574723  0.419321  0.116152
0.635005  0.455794  0.111053
0.702839  0.496231  0.101502
0.748288  0.503068  0.089455
0.816907  0.527122  0.102369
0.167236  0.206974  0.196418
0.188954  0.229596  0.217433
0.195603  0.230350  0.216149
0.238646  0.256016  0.210795
0.272769  0.275764  0.201187
0.318031  0.299658  0.196748
0.367953  0.331864  0.188853
0.447093  0.370227  0.167454
0.482835  0.377468  0.154159
0.549319  0.418111  0.125162
0.602427  0.452262  0.126144
0.648688  0.477384  0.131811
0.702453  0.509751  0.130686
0.762552  0.531909  0.111039
0.835915  0.564485  0.105362
0.190462  0.229960  0.210879
0.202217  0.240135  0.224446
0.226378  0.263156  0.239498
0.244726  0.272918  0.241319
0.297117  0.304716  0.240832
0.353667  0.327023  0.221540
0.419557  0.363068  0.182981
0.468253  0.389932  0.199109
0.514413  0.408862  0.175907
0.552562  0.427768  0.166757
0.614423  0.477710  0.154835
0.663595  0.514035  0.152408
0.740563  0.536632  0.133751
0.782319  0.568427  0.138163
0.829276  0.577609  0.128166
0.210790  0.257373  0.247139
0.225825  0.256274  0.239349
0.260636  0.287110  0.255388
0.295636  0.307606  0.254315
0.333550  0.323257  0.236342
0.381524  0.365203  0.244356
0.440114  0.389647  0.213123
0.494049  0.417209  0.214180
0.541496  0.441240  0.195514
0.583922  0.458709  0.169715
0.636938  0.485479  0.177029
0.713833  0.540263  0.159469
0.745618  0.555278  0.173342
0.801449  0.597574  0.141637
0.871218  0.625338  0.154832
0.219328  0.268763  0.259326
0.267837  0.295939  0.260956
0.294291  0.323640  0.271894
0.338753  0.342709  0.270316
0.378693  0.354539  0.244723
0.437017  0.387117  0.218722
0.466975  0.409034  0.232624
0.530351  0.441959  0.224540
0.566911  0.475731  0.228000
0.617850  0.496020  0.191969
0.687699  0.540982  0.171130
0.728071  0.559527  0.190867
0.794281  0.597519  0.167312
0.818926  0.612079  0.179617
0.879438  0.632449  0.174973
0.264197  0.298254  0.264897
0.287070  0.316539  0.272417
0.325439  0.340508  0.268359
0.368328  0.357343  0.257000
0.423403  0.398502  0.251551
0.459826  0.421797  0.258849
0.501603  0.440128  0.235578
0.552242  0.480658  0.223319
0.590460  0.492711  0.232227
0.663848  0.541086  0.199346
0.716313  0.583288  0.169655
0.762412  0.598823  0.195353
0.791863  0.619853  0.183729
0.865662  0.666194  0.190674
0.911796  0.680563  0.192962
0.288734  0.319973  0.296886
0.340655  0.338312  0.271791
0.386228  0.371797  0.269695
0.412678  0.389923  0.262354
0.474507  0.422706  0.245967
0.515495  0.446175  0.247058
0.541619  0.472675  0.245324
0.591886  0.510541  0.235071
0.644352  0.541044  0.208605
0.679368  0.563595  0.202182
0.741031  0.611218  0.186562
0.791927  0.646365  0.177714
0.813165  0.659141  0.187003
0.898388  0.700628  0.193822
