LUT/LUT_34.CUBE
TITLE "LUT_34" 
#LUT size 
LUT_3D_SIZE 8 
DOMAIN_MIN 0.0 0.0 0.0 
DOMAIN_MAX 1.0 1.0 1.0 
#data point 
0.077108  0.077018  0.029393
0.099183  0.096940  0.049938
0.170047  0.153023  0.078068
0.315145  0.236465  0.067109
0.409852  0.303536  0.066158
0.504462  0.372727  0.072333
0.614252  0.423211  0.061828
0.727184  0.487860  0.063307
0.114521  0.107355  0.050762
0.129955  0.116404  0.059793
0.225407  0.195606  0.090466
0.347936  0.276317  0.091662
0.461578  0.337982  0.087853
0.533432  0.393581  0.076397
0.645695  0.459854  0.073198
0.752293  0.525724  0.061997
0.145502  0.142209  0.083269
0.206508  0.190580  0.105881
0.292189  0.247017  0.095057
0.397030  0.314492  0.083957
0.491120  0.364565  0.075719
0.592898  0.444716  0.085361
0.689585  0.504547  0.072599
0.810742  0.566723  0.070171
0.220119  0.189129  0.086034
0.309887  0.258914  0.104485
0.378326  0.299880  0.091653
0.453226  0.338339  0.082414
0.551188  0.421099  0.082196
0.644344  0.484820  0.081737
0.736654  0.548625  0.080484
0.856804  0.616574  0.072678
0.301490  0.261757  0.119213
0.381651  0.300262  0.090054
0.469905  0.361378  0.093495
0.527186  0.402734  0.087032
0.616480  0.486960  0.076720
0.693444  0.559653  0.082953
0.802908  0.615193  0.090256
0.907910  0.692200  0.079613
0.383668  0.309593  0.118214
0.466424  0.369453  0.089094
0.558340  0.432775  0.094047
0.613629  0.485608  0.096848
0.701120  0.578710  0.077999
0.779348  0.644536  0.082050
0.859036  0.704845  0.081363
0.957082  0.752283  0.094097
0.472007  0.367312  0.098518
0.528887  0.418834  0.098044
0.625960  0.495920  0.085012
0.695384  0.570204  0.084975
0.757933  0.620462  0.093765
0.834307  0.672009  0.085553
0.910728  0.738529  0.085060
1.021908  0.788449  0.092202
0.541958  0.434683  0.096899
0.622453  0.508029  0.099231
0.696852  0.561166  0.081511
0.748795  0.609646  0.087561
0.810506  0.655151  0.087852
0.882385  0.708873  0.102445
0.967024  0.770131  0.090831
1.075083  0.829699  0.089469
0.108066  0.096594  0.052532
0.121506  0.112783  0.058687
0.184288  0.167096  0.087106
0.283160  0.234528  0.088973
0.407268  0.310549  0.076243
0.506993  0.375295  0.073687
0.609243  0.444679  0.071432
0.732224  0.489988  0.062132
0.133819  0.124485  0.069778
0.159835  0.157842  0.092578
0.222947  0.200822  0.113033
0.314339  0.271700  0.105885
0.437607  0.342025  0.093597
0.547307  0.403578  0.078257
0.670615  0.480844  0.070135
0.753428  0.520174  0.065613
0.154926  0.164340  0.121198
0.197319  0.206369  0.144494
0.277953  0.258211  0.155438
0.390554  0.325442  0.118193
0.489485  0.381675  0.122115
0.592957  0.442231  0.111513
0.688581  0.508177  0.093598
0.801623  0.590234  0.092961
0.207185  0.226050  0.186202
0.266392  0.265312  0.201438
0.341434  0.299827  0.166868
0.446519  0.368455  0.155451
0.532536  0.407478  0.129295
0.632478  0.495416  0.133063
0.747730  0.559314  0.131207
0.847220  0.635646  0.091417
0.285080  0.279088  0.198367
0.338678  0.308210  0.182619
0.431042  0.375086  0.197182
0.534920  0.441454  0.172389
0.621052  0.494675  0.117944
0.715510  0.573245  0.104780
0.795861  0.622301  0.120966
0.906923  0.692222  0.123760
0.366441  0.330773  0.195914
0.438160  0.382995  0.197924
0.500126  0.423482  0.159446
0.582674  0.479347  0.153164
0.691004  0.567142  0.112111
0.765592  0.627331  0.111563
0.870312  0.702675  0.129913
0.983884  0.756356  0.132507
0.432001  0.375686  0.210051
0.523556  0.428498  0.174087
0.591607  0.487977  0.185281
0.680886  0.553706  0.125752
0.759315  0.615346  0.126918
0.838915  0.685111  0.128106
0.914784  0.748064  0.114578
0.992832  0.778784  0.124325
0.505471  0.426715  0.217196
0.600070  0.494084  0.165598
0.678584  0.552023  0.165536
0.761602  0.621765  0.132363
0.817747  0.674685  0.127151
0.895780  0.735579  0.115905
0.969816  0.770223  0.132572
1.070396  0.832128  0.140591
0.140444  0.146322  0.101957
0.152478  0.160576  0.127323
0.182214  0.192640  0.137901
0.307383  0.258400  0.127246
0.425907  0.329599  0.092136
0.523458  0.390272  0.094205
0.624923  0.455540  0.088316
0.707858  0.507018  0.082791
0.167413  0.180717  0.145807
0.190939  0.220622  0.188962
0.227506  0.251908  0.219806
0.339854  0.307697  0.176850
0.468371  0.372463  0.148781
0.536699  0.415254  0.143804
0.658013  0.488386  0.103799
0.775126  0.556290  0.110352
0.212464  0.247340  0.231172
0.225248  0.268497  0.252162
0.242552  0.273796  0.246785
0.363576  0.358028  0.253297
0.485719  0.419719  0.228098
0.590302  0.467674  0.152355
0.697560  0.538596  0.142072
0.804286  0.606249  0.142126
0.223947  0.277577  0.267304
0.264609  0.318956  0.322404
0.313578  0.356532  0.320547
0.413710  0.399526  0.311507
0.519163  0.453453  0.258621
0.624898  0.504936  0.218633
0.756717  0.591116  0.201680
0.834424  0.639667  0.195149
0.257767  0.320225  0.315442
0.324844  0.368891  0.345402
0.391384  0.403213  0.333646
0.482283  0.454552  0.337020
0.568816  0.498559  0.296163
0.696769  0.574857  0.284034
0.823689  0.650566  0.229525
0.918975  0.705564  0.235326
0.305353  0.364680  0.348946
0.390306  0.420451  0.375968
0.477697  0.449878  0.335153
0.554291  0.504457  0.332011
0.657975  0.570952  0.329179
0.763220  0.636886  0.274406
0.851742  0.692736  0.262464
0.961172  0.756583  0.255038
0.354695  0.395100  0.368717
0.453914  0.450835  0.362378
0.557074  0.506294  0.336185
0.637036  0.560290  0.341070
0.744248  0.622384  0.320697
0.813728  0.670041  0.294496
0.914738  0.734742  0.263927
1.013844  0.802689  0.240150
0.437571  0.456045  0.381510
0.547447  0.510858  0.345633
0.627049  0.555243  0.330691
0.723839  0.610809  0.317613
0.799569  0.664977  0.302974
0.908834  0.740386  0.272581
0.965419  0.775124  0.271535
1.086989  0.839700  0.249687
0.162959  0.189808  0.160978
0.179007  0.216985  0.202895
0.228485  0.256538  0.226481
0.276419  0.298210  0.248071
0.445282  0.370034  0.169047
0.538093  0.429624  0.144363
0.644352  0.481272  0.134569
0.734051  0.546944  0.137171
0.188283  0.231817  0.211263
0.220074  0.266793  0.253219
0.259950  0.301801  0.283976
0.328856  0.346742  0.299170
0.462654  0.407861  0.227644
0.553438  0.456213  0.201381
0.674794  0.524850  0.185103
0.782028  0.593475  0.180144
0.235798  0.279759  0.269009
0.259214  0.321528  0.315581
0.290127  0.351511  0.359454
0.385573  0.418061  0.369498
0.455179  0.462456  0.366078
0.585896  0.505945  0.273529
0.707461  0.580160  0.255752
0.823941  0.645970  0.245152
0.268402  0.333558  0.333781
0.292513  0.369178  0.377634
0.317460  0.402755  0.415255
0.392453  0.437305  0.411151
0.497582  0.496108  0.410526
0.628655  0.565032  0.348162
0.734389  0.618618  0.325262
0.856644  0.679128  0.298528
0.312898  0.391772  0.404147
0.345032  0.433348  0.448126
0.369549  0.450811  0.459474
0.470716  0.497498  0.454082
0.560213  0.564133  0.473441
0.640196  0.594330  0.429606
0.783308  0.669258  0.394623
0.906312  0.741985  0.361164
0.338337  0.433397  0.446936
0.363003  0.455561  0.477523
0.438785  0.486229  0.458973
0.510754  0.541928  0.493031
0.597147  0.589923  0.490535
0.710560  0.662510  0.482254
0.864073  0.737014  0.438055
0.933343  0.781893  0.431881
0.365325  0.464835  0.493311
0.436028  0.506296  0.508831
0.509808  0.537980  0.469167
0.580394  0.588675  0.501798
0.688527  0.646500  0.491508
0.802915  0.707982  0.466638
0.904080  0.764140  0.463956
0.989803  0.817969  0.489173
0.403057  0.504568  0.527749
0.482327  0.527726  0.491496
0.557405  0.580161  0.517735
0.666388  0.637269  0.488443
0.786839  0.706387  0.484051
0.863653  0.750440  0.466506
0.967038  0.804434  0.490375
1.053542  0.852031  0.492186
0.186893  0.229933  0.215464
0.226137  0.278368  0.275023
0.251899  0.304129  0.295800
0.297215  0.336787  0.315055
0.406159  0.400672  0.296859
0.542850  0.463099  0.242816
0.658219  0.526877  0.207562
0.758641  0.563106  0.177091
0.236937  0.291900  0.284462
0.244687  0.311113  0.318940
0.288160  0.358561  0.364851
0.347049  0.410342  0.400005
0.418359  0.440550  0.384888
0.551928  0.496592  0.328152
0.674194  0.552881  0.275690
0.786978  0.614811  0.248872
0.267724  0.337805  0.349344
0.303154  0.377987  0.385875
0.321753  0.403322  0.424022
0.383689  0.456075  0.455269
0.461283  0.497862  0.455313
0.565240  0.547948  0.434687
0.711190  0.609751  0.372432
0.821870  0.662861  0.332622
0.296427  0.379553  0.397540
0.334100  0.425558  0.437176
0.359080  0.458270  0.487447
0.382311  0.489545  0.524386
0.505456  0.542684  0.491607
0.601790  0.595463  0.500722
0.732772  0.669130  0.455332
0.856830  0.711747  0.396417
0.336330  0.430601  0.448950
0.359440  0.470938  0.503562
0.403844  0.514982  0.537401
0.453158  0.558120  0.581801
0.530504  0.596523  0.576819
0.643018  0.657109  0.578098
0.773208  0.711271  0.523377
0.915474  0.780572  0.482179
0.365892  0.469727  0.498792
0.405821  0.506293  0.533496
0.439880  0.556275  0.588573
0.480912  0.600431  0.622085
0.577546  0.629541  0.588362
0.698412  0.711905  0.638445
0.812884  0.755819  0.602872
0.942946  0.810438  0.549872
0.411261  0.522594  0.554598
0.445721  0.558173  0.582042
0.481267  0.600159  0.636503
0.557961  0.630325  0.617799
0.677680  0.687609  0.609366
0.777994  0.750091  0.634306
0.887347  0.805976  0.622936
0.997199  0.842445  0.604894
0.448828  0.571012  0.603117
0.483895  0.604658  0.635884
0.538333  0.635222  0.630555
0.645154  0.684106  0.631387
0.730580  0.725332  0.631478
0.852689  0.778032  0.625256
0.942182  0.837049  0.636764
1.042884  0.874828  0.610530
0.250046  0.308218  0.311764
0.264465  0.331185  0.338377
0.291683  0.364897  0.376091
0.323144  0.396442  0.394500
0.419167  0.440880  0.383429
0.512668  0.492677  0.366789
0.639020  0.535018  0.295370
0.766387  0.604191  0.268222
0.273551  0.350030  0.368059
0.304774  0.388918  0.407993
0.317375  0.408041  0.432693
0.364967  0.452103  0.464138
0.449486  0.507277  0.483477
0.550896  0.554592  0.467051
0.672787  0.601673  0.400846
0.796798  0.657174  0.361568
0.311850  0.397866  0.418285
0.344210  0.431682  0.445941
0.383647  0.479952  0.511307
0.402721  0.504096  0.528754
0.464046  0.535134  0.534400
0.580553  0.605944  0.546231
0.679165  0.632805  0.476336
0.827301  0.713066  0.451257
0.329143  0.431373  0.471311
0.376210  0.471702  0.489776
0.416366  0.530196  0.557847
0.423235  0.545990  0.584064
0.489149  0.597193  0.623234
0.606527  0.647276  0.597686
0.730507  0.693854  0.546783
0.839026  0.757063  0.561807
0.382594  0.490491  0.523119
0.414783  0.534668  0.563152
0.450080  0.575082  0.609291
0.477544  0.606368  0.636256
0.530925  0.656811  0.684318
0.647721  0.700405  0.655776
0.745954  0.735618  0.628716
0.907947  0.806716  0.600434
0.408521  0.526955  0.563336
0.449008  0.570963  0.602325
0.480435  0.610318  0.647373
0.518689  0.644576  0.682325
0.573545  0.700811  0.731036
0.691316  0.751738  0.723512
0.819468  0.802104  0.700549
0.935674  0.848040  0.675854
0.455924  0.574902  0.612233
0.494139  0.618279  0.651231
0.547749  0.665060  0.690975
0.571413  0.696428  0.720629
0.634459  0.741847  0.767596
0.730061  0.790777  0.770460
0.864491  0.837174  0.744228
0.976714  0.871560  0.708864
0.495400  0.617100  0.648008
0.523007  0.642136  0.670723
0.566244  0.694463  0.729718
0.603764  0.723666  0.749364
0.701709  0.784379  0.796301
0.810865  0.816220  0.751583
0.910921  0.862721  0.747520
1.029353  0.910914  0.736060
0.291130  0.374034  0.389577
0.310717  0.394751  0.407581
0.343332  0.434075  0.461844
0.365635  0.471263  0.504245
0.418032  0.488941  0.478409
0.510211  0.530202  0.475519
0.623054  0.573096  0.416191
0.768881  0.647821  0.385104
0.317388  0.411900  0.434043
0.340042  0.447627  0.476838
0.362557  0.467354  0.500102
0.405081  0.518875  0.555293
0.440899  0.549948  0.572664
0.552183  0.579275  0.528377
0.651600  0.640148  0.525074
0.797896  0.703461  0.474639
0.350762  0.447584  0.475962
0.378498  0.484427  0.516385
0.413364  0.527600  0.555793
0.451173  0.567089  0.592951
0.489317  0.608948  0.631864
0.592650  0.647061  0.613442
0.690202  0.698990  0.612963
0.803908  0.749747  0.573614
0.378936  0.490019  0.522810
0.402997  0.517001  0.545914
0.461539  0.583819  0.618703
0.495514  0.618960  0.653534
0.534176  0.665351  0.702031
0.591832  0.690484  0.696352
0.747324  0.745178  0.650164
0.857937  0.790677  0.645147
0.413556  0.533233  0.564131
0.469798  0.584342  0.611439
0.492575  0.614582  0.647879
0.541776  0.668496  0.702621
0.595784  0.725693  0.770684
0.628353  0.742258  0.758591
0.761558  0.780205  0.718965
0.901019  0.839063  0.710701
0.453669  0.578419  0.611587
0.496779  0.621873  0.665964
0.533176  0.663715  0.699008
0.597801  0.725729  0.768833
0.635148  0.758366  0.807612
0.689561  0.802396  0.844471
0.789286  0.840524  0.813605
0.925512  0.871829  0.761489
0.496325  0.622500  0.655362
0.536537  0.656676  0.685058
0.570173  0.701649  0.740679
0.629911  0.757257  0.807353
0.680110  0.796947  0.839047
0.736685  0.844344  0.888113
0.835175  0.887085  0.896778
0.964899  0.905575  0.797618
0.527029  0.659442  0.692233
0.574382  0.702481  0.733009
0.603088  0.739822  0.786689
0.677633  0.802447  0.848652
0.725717  0.831698  0.881705
0.800456  0.885029  0.911159
0.875855  0.920462  0.930381
0.998302  0.948685  0.859785
0.319786  0.420177  0.450752
0.339015  0.443133  0.479164
0.385592  0.494898  0.529303
0.409622  0.537028  0.572628
0.459412  0.581223  0.615988
0.508855  0.592166  0.579978
0.635278  0.643332  0.553777
0.786862  0.702911  0.492294
0.353279  0.457833  0.481931
0.374421  0.489596  0.526557
0.427917  0.548494  0.584081
0.460639  0.583680  0.622523
0.498001  0.627299  0.653276
0.548644  0.660626  0.680526
0.636817  0.681253  0.635193
0.791275  0.734444  0.580608
0.374846  0.495033  0.532732
0.415691  0.536310  0.574315
0.462369  0.588225  0.624192
0.514380  0.638231  0.672679
0.550599  0.682726  0.718782
0.595788  0.722138  0.756228
0.700956  0.742976  0.702518
0.828394  0.789828  0.669596
0.419957  0.539093  0.569138
0.453755  0.578141  0.616447
0.507142  0.632524  0.667259
0.564404  0.689716  0.721227
0.582267  0.719494  0.761897
0.631604  0.759737  0.806057
0.691201  0.789224  0.822544
0.856322  0.829308  0.740286
0.446827  0.574480  0.612755
0.499850  0.622150  0.655905
0.538140  0.664467  0.705070
0.586693  0.716926  0.765018
0.628626  0.756005  0.798609
0.682375  0.803908  0.849948
0.759150  0.858790  0.897501
0.865534  0.880706  0.841301
0.488369  0.606567  0.642027
0.527162  0.650973  0.688203
0.581529  0.704168  0.739704
0.621998  0.754219  0.802962
0.652324  0.779930  0.833507
0.737211  0.847125  0.890580
0.803796  0.888569  0.927021
0.882751  0.925375  0.936232
0.533332  0.659193  0.698766
0.576346  0.706870  0.744187
0.603638  0.739295  0.790076
0.649226  0.778551  0.817563
0.706752  0.826629  0.871603
0.790480  0.874927  0.915362
0.850909  0.915256  0.949257
0.908381  0.953165  0.966000
0.566875  0.696336  0.729437
0.586651  0.725804  0.777098
0.639433  0.771350  0.821090
0.705630  0.823917  0.867407
0.755508  0.862145  0.903061
0.831037  0.907481  0.935350
0.886590  0.942768  0.955541
0.944275  0.969693  0.983389
