LUT/LUT_19.CUBE
TITLE "LUT_19" 
#LUT size 
LUT_3D_SIZE 15 
DOMAIN_MIN 0.0 0.0 0.0 
DOMAIN_MAX 1.0 1.0 1.0 
#data point 
0.055937  0.052876  0.027070
0.070282  0.067921  0.031543
0.092616  0.092938  0.045613
0.135044  0.120762  0.059864
0.190736  0.166926  0.066493
0.246624  0.200786  0.063124
0.320734  0.235193  0.054494
0.363402  0.247264  0.047067
0.429408  0.286681  0.048098
0.483384  0.314179  0.045857
0.538713  0.328614  0.045595
0.582172  0.354299  0.047938
0.659983  0.383426  0.044390
0.713146  0.395148  0.048642
0.792273  0.421355  0.045242
0.069050  0.065972  0.034852
0.085999  0.079095  0.036118
0.113118  0.099806  0.044145
0.151859  0.134865  0.061257
0.209154  0.177733  0.069560
0.277764  0.212087  0.058811
0.333474  0.248117  0.064302
0.399684  0.280169  0.057162
0.442413  0.305041  0.051991
0.483362  0.316150  0.046737
0.557754  0.347949  0.056567
0.620947  0.381534  0.057226
0.689261  0.404356  0.049718
0.748467  0.427696  0.043746
0.795850  0.446498  0.052433
0.102713  0.095445  0.049827
0.099021  0.090429  0.046982
0.133505  0.120929  0.054352
0.167459  0.152964  0.073783
0.245658  0.199154  0.069697
0.289878  0.225209  0.068495
0.365158  0.264605  0.066567
0.405452  0.289506  0.059185
0.464228  0.320294  0.056962
0.518836  0.339947  0.052301
0.565246  0.362904  0.053413
0.637898  0.405723  0.051727
0.692373  0.423384  0.054534
0.762631  0.446089  0.057322
0.817755  0.470265  0.055091
0.115707  0.110034  0.058041
0.124809  0.118869  0.066751
0.161940  0.143315  0.069712
0.217452  0.182343  0.080807
0.284419  0.227141  0.076456
0.324580  0.254644  0.067554
0.377834  0.281114  0.068194
0.443277  0.307283  0.051259
0.489931  0.333333  0.054629
0.533083  0.361436  0.055395
0.593898  0.386731  0.060087
0.656742  0.410580  0.057409
0.705606  0.439008  0.046025
0.781220  0.456319  0.049324
0.841204  0.491009  0.049389
0.146111  0.134414  0.071627
0.176631  0.158771  0.082750
0.217387  0.183507  0.088153
0.257138  0.211020  0.082632
0.303084  0.238140  0.077932
0.360355  0.281444  0.081863
0.401694  0.302517  0.072014
0.462848  0.336275  0.064628
0.519211  0.361549  0.058840
0.568095  0.385076  0.057054
0.611030  0.420187  0.061046
0.690959  0.451414  0.057590
0.732479  0.466850  0.054770
0.802167  0.493526  0.049551
0.857136  0.514746  0.055572
0.176015  0.167491  0.098017
0.217581  0.188106  0.080626
0.251564  0.210921  0.085978
0.316160  0.246626  0.067782
0.340154  0.274212  0.070152
0.367056  0.293878  0.082797
0.434168  0.328953  0.074156
0.481267  0.367162  0.074824
0.524404  0.382315  0.064358
0.564157  0.408856  0.055575
0.639410  0.445104  0.059919
0.686602  0.464951  0.069747
0.764097  0.484229  0.056280
0.812998  0.518627  0.059732
0.872282  0.539787  0.064829
0.226309  0.199726  0.082405
0.262889  0.224224  0.087798
0.305396  0.252366  0.093746
0.346352  0.288024  0.091760
0.385275  0.300322  0.074348
0.429366  0.336575  0.085114
0.453300  0.359870  0.072933
0.513204  0.403106  0.075380
0.552579  0.421110  0.067412
0.620497  0.468810  0.066897
0.661491  0.486766  0.063766
0.703830  0.497637  0.067003
0.765551  0.529252  0.059437
0.829783  0.543325  0.063005
0.901040  0.570861  0.063846
0.279037  0.239462  0.101062
0.311030  0.261677  0.091771
0.339131  0.272284  0.084581
0.389488  0.307739  0.078605
0.424759  0.349772  0.081525
0.464612  0.378031  0.066974
0.492547  0.399198  0.071311
0.531332  0.424498  0.071801
0.579531  0.468952  0.069564
0.633969  0.499111  0.062555
0.694324  0.518640  0.062286
0.741975  0.549787  0.076383
0.795309  0.570021  0.069854
0.854827  0.587034  0.069599
0.924756  0.613077  0.063260
0.305116  0.250884  0.104707
0.351058  0.291181  0.087320
0.379240  0.309516  0.071014
0.414974  0.336132  0.078339
0.464665  0.383104  0.082844
0.494476  0.404377  0.081740
0.526548  0.436124  0.073345
0.580071  0.473015  0.079122
0.607671  0.508518  0.072274
0.666634  0.546148  0.065194
0.696124  0.563815  0.070639
0.744252  0.588044  0.075327
0.818812  0.610149  0.069464
0.860453  0.643975  0.073408
0.936632  0.659997  0.065418
0.363485  0.305580  0.096647
0.392675  0.320076  0.084906
0.422352  0.345711  0.083647
0.461677  0.381817  0.080480
0.496854  0.414234  0.068536
0.533884  0.435563  0.072183
0.569687  0.475137  0.074913
0.619829  0.507078  0.069099
0.651469  0.547865  0.063306
0.687393  0.575248  0.070731
0.737397  0.620237  0.069130
0.772924  0.633635  0.063448
0.826232  0.661143  0.077806
0.886955  0.667758  0.069584
0.943794  0.706756  0.076391
0.378828  0.322661  0.091492
0.428995  0.348369  0.090552
0.456310  0.394012  0.081587
0.493682  0.413833  0.076741
0.547680  0.451882  0.079866
0.568326  0.484147  0.071922
0.605196  0.507381  0.085844
0.654461  0.549390  0.068813
0.696935  0.586355  0.071018
0.724980  0.612379  0.068778
0.767431  0.646864  0.067852
0.801961  0.664335  0.070753
0.866167  0.700959  0.073485
0.915395  0.718744  0.069783
0.959793  0.736185  0.080524
0.430003  0.360036  0.090567
0.460520  0.375392  0.089847
0.495673  0.420074  0.079306
0.529680  0.446388  0.071808
0.572061  0.483248  0.072356
0.624816  0.513568  0.067866
0.639812  0.548310  0.067231
0.670236  0.579191  0.065429
0.725999  0.613945  0.072398
0.759450  0.642740  0.065171
0.797506  0.676512  0.073382
0.842727  0.700981  0.068277
0.892017  0.725203  0.067803
0.920021  0.768587  0.082848
0.988219  0.776196  0.072365
0.459587  0.386851  0.083279
0.492788  0.413310  0.074110
0.533176  0.446772  0.071601
0.564821  0.488207  0.060370
0.609141  0.520158  0.079990
0.640506  0.555269  0.078841
0.683752  0.585775  0.071723
0.711082  0.603308  0.078673
0.756241  0.638256  0.076524
0.781247  0.662286  0.072388
0.829967  0.688459  0.069356
0.881063  0.721934  0.083723
0.912325  0.752708  0.083019
0.951757  0.782726  0.073503
1.022057  0.803902  0.082195
0.504885  0.430407  0.072866
0.538396  0.469104  0.070681
0.573238  0.493020  0.070111
0.615050  0.524992  0.081914
0.645621  0.556031  0.073563
0.672461  0.572879  0.064339
0.707443  0.604361  0.069280
0.748288  0.633998  0.066375
0.774398  0.664546  0.075257
0.812314  0.679573  0.075663
0.856990  0.709676  0.072499
0.903530  0.738337  0.072050
0.940325  0.774523  0.077454
0.984317  0.795012  0.078143
1.023397  0.813355  0.073941
0.533411  0.456516  0.075674
0.557562  0.484507  0.073151
0.598110  0.514631  0.073094
0.644138  0.552830  0.065530
0.679182  0.583178  0.071623
0.700297  0.605825  0.072629
0.739254  0.626912  0.080141
0.782686  0.663041  0.068839
0.810612  0.685874  0.066605
0.852402  0.708040  0.074938
0.885175  0.729405  0.083951
0.921858  0.768536  0.078687
0.971325  0.787764  0.085894
1.028304  0.815886  0.079780
1.072759  0.851896  0.081291
0.069784  0.067756  0.029964
0.083519  0.075691  0.032834
0.101189  0.096712  0.043807
0.127606  0.113927  0.051524
0.181187  0.157133  0.071981
0.245726  0.190396  0.065740
0.321671  0.237646  0.063091
0.374221  0.264206  0.056035
0.432343  0.285714  0.050523
0.469370  0.302106  0.047714
0.545595  0.336633  0.045988
0.596858  0.364322  0.045223
0.668061  0.382218  0.042714
0.713557  0.406389  0.046311
0.778357  0.426261  0.049522
0.089323  0.082640  0.040755
0.091427  0.086038  0.040015
0.116506  0.105487  0.047848
0.165623  0.145736  0.071113
0.211999  0.181157  0.073786
0.287949  0.226546  0.060073
0.337731  0.249336  0.061679
0.380385  0.280145  0.054673
0.446326  0.308413  0.047572
0.504064  0.330245  0.051326
0.551373  0.348306  0.044908
0.615205  0.383680  0.045863
0.686680  0.412799  0.042200
0.738681  0.419724  0.048120
0.801101  0.448166  0.048360
0.098559  0.096193  0.050244
0.105639  0.108743  0.059925
0.147115  0.136749  0.071500
0.179633  0.162094  0.080918
0.232306  0.196011  0.082079
0.304717  0.239818  0.076494
0.345117  0.259630  0.061393
0.408884  0.295004  0.063081
0.460616  0.321157  0.059653
0.514424  0.339744  0.057444
0.578665  0.378976  0.054461
0.634357  0.398258  0.055495
0.704857  0.426793  0.050136
0.761171  0.453006  0.048281
0.831824  0.473877  0.058563
0.127093  0.126016  0.076981
0.145859  0.139259  0.070419
0.170099  0.162552  0.096539
0.204773  0.188220  0.092218
0.257282  0.212850  0.083856
0.325756  0.261521  0.073135
0.373971  0.278069  0.075994
0.436790  0.323615  0.080838
0.480455  0.345085  0.063240
0.526447  0.365745  0.060440
0.593817  0.395886  0.065142
0.653242  0.424590  0.063610
0.711239  0.444418  0.053421
0.766580  0.466420  0.051882
0.838619  0.492020  0.057523
0.155049  0.150155  0.090219
0.174515  0.166408  0.093510
0.210731  0.192931  0.106488
0.246365  0.211903  0.092802
0.305135  0.255479  0.106007
0.350831  0.263438  0.085228
0.404846  0.309171  0.086882
0.447533  0.326235  0.070395
0.502118  0.368472  0.078380
0.555930  0.395738  0.079273
0.604909  0.413158  0.056233
0.677823  0.445332  0.061674
0.737398  0.479182  0.066254
0.789601  0.489836  0.061181
0.843980  0.521366  0.059557
0.183702  0.174706  0.099916
0.217108  0.195597  0.108209
0.252331  0.230905  0.123898
0.289046  0.249961  0.123549
0.340164  0.276950  0.090491
0.388582  0.307943  0.095955
0.450672  0.335918  0.087700
0.467836  0.364804  0.098738
0.523258  0.389112  0.075021
0.578152  0.427116  0.087188
0.636035  0.444624  0.078316
0.692743  0.483108  0.065776
0.743800  0.485801  0.066627
0.816253  0.524905  0.063511
0.881592  0.558546  0.055534
0.236206  0.223005  0.143999
0.269226  0.234070  0.110797
0.288989  0.261248  0.127888
0.332159  0.277475  0.119316
0.382775  0.306028  0.099766
0.429140  0.342390  0.092317
0.458995  0.366721  0.089750
0.514328  0.396047  0.099452
0.549074  0.417977  0.092195
0.586361  0.446977  0.088350
0.663837  0.483475  0.075947
0.716921  0.506627  0.065164
0.769830  0.533224  0.066875
0.843219  0.556841  0.058467
0.896174  0.580901  0.064372
0.258087  0.234252  0.131665
0.287883  0.254881  0.130615
0.336745  0.293216  0.133927
0.374998  0.311775  0.127972
0.423680  0.343357  0.089670
0.462306  0.369774  0.100048
0.506498  0.405753  0.091626
0.556340  0.436535  0.081646
0.588886  0.459625  0.080324
0.622291  0.485206  0.088861
0.680571  0.524618  0.069625
0.735560  0.539714  0.070069
0.799927  0.566763  0.061165
0.849802  0.593605  0.070518
0.933324  0.604743  0.075877
0.311237  0.263907  0.123972
0.343535  0.296083  0.142683
0.381042  0.311394  0.124179
0.398217  0.343569  0.121094
0.450151  0.374512  0.110720
0.496476  0.411419  0.096432
0.528504  0.441656  0.101648
0.573414  0.474376  0.076369
0.611825  0.514854  0.089392
0.671267  0.551789  0.093309
0.719137  0.565581  0.085515
0.762949  0.585945  0.087655
0.818575  0.610534  0.079921
0.879868  0.646826  0.084849
0.931259  0.649671  0.072964
0.335387  0.282753  0.128634
0.395950  0.327258  0.126365
0.423602  0.355821  0.124553
0.463185  0.387073  0.102265
0.494382  0.417852  0.109796
0.540349  0.450609  0.086449
0.583937  0.486349  0.100061
0.612507  0.514893  0.092738
0.656413  0.547324  0.085925
0.685157  0.573243  0.082730
0.745239  0.625316  0.074831
0.779202  0.633914  0.068856
0.831923  0.658391  0.077410
0.888373  0.678721  0.077854
0.950122  0.707558  0.079956
0.370749  0.317300  0.134860
0.394691  0.344070  0.132867
0.440448  0.381281  0.128981
0.500974  0.422979  0.104899
0.534136  0.444456  0.098306
0.574144  0.486827  0.093785
0.624762  0.528162  0.089818
0.651817  0.554698  0.082607
0.695096  0.583853  0.089318
0.725853  0.615470  0.086692
0.776286  0.635538  0.076563
0.815337  0.673349  0.084383
0.855852  0.694207  0.069192
0.923265  0.718633  0.081399
0.959888  0.726614  0.089665
0.407911  0.349081  0.133052
0.451813  0.382521  0.122819
0.504607  0.429740  0.109830
0.532624  0.443547  0.096320
0.564939  0.492932  0.102153
0.610907  0.517077  0.097531
0.630277  0.539113  0.101410
0.677741  0.574936  0.100035
0.706701  0.599466  0.088734
0.738963  0.629820  0.091952
0.793804  0.664299  0.075587
0.843826  0.693548  0.089936
0.894929  0.729434  0.080706
0.927585  0.757066  0.085220
0.984108  0.776223  0.077293
0.461292  0.390400  0.120946
0.512794  0.431579  0.079422
0.537561  0.450609  0.101619
0.584198  0.490303  0.095951
0.596321  0.512143  0.100929
0.640914  0.553299  0.095996
0.680928  0.593562  0.094822
0.695059  0.599030  0.089315
0.754984  0.634156  0.096333
0.787940  0.661416  0.102015
0.824686  0.687112  0.083066
0.875625  0.731473  0.090086
0.916273  0.744918  0.084633
0.976133  0.776507  0.085152
1.008227  0.792432  0.083649
0.482324  0.417806  0.120255
0.509709  0.447251  0.100369
0.570161  0.480842  0.090294
0.585476  0.501131  0.091511
0.638553  0.552685  0.085032
0.668396  0.574832  0.080111
0.686723  0.597726  0.106709
0.747658  0.643179  0.082609
0.782544  0.661273  0.088407
0.814570  0.687928  0.095402
0.856961  0.717940  0.083984
0.897871  0.735713  0.093689
0.936377  0.770215  0.093114
0.988219  0.797006  0.081912
1.034759  0.823938  0.083335
0.535054  0.461359  0.123552
0.564827  0.490860  0.088618
0.580827  0.501665  0.103631
0.631232  0.538722  0.086726
0.660287  0.574335  0.090763
0.706057  0.602631  0.096888
0.737497  0.636583  0.086843
0.779240  0.666776  0.094912
0.805883  0.680712  0.094863
0.849417  0.706882  0.097859
0.893097  0.744498  0.095450
0.920047  0.762892  0.091023
0.978135  0.799593  0.094677
1.022477  0.815615  0.084898
1.076229  0.852315  0.104175
0.087259  0.081663  0.041480
0.104038  0.104428  0.056919
0.116978  0.107054  0.064030
0.157849  0.142939  0.075877
0.191859  0.167446  0.079095
0.255379  0.206734  0.068884
0.312586  0.239885  0.061137
0.385219  0.267314  0.058567
0.436248  0.297016  0.055736
0.478448  0.316724  0.053678
0.533079  0.344621  0.048520
0.597790  0.368859  0.054567
0.646425  0.386807  0.048985
0.739528  0.418119  0.050436
0.789591  0.420402  0.041125
0.110142  0.106565  0.065266
0.121280  0.117822  0.070709
0.132317  0.133392  0.083855
0.164253  0.157360  0.096263
0.218717  0.200246  0.099750
0.285943  0.234615  0.081807
0.339370  0.260273  0.071239
0.382209  0.281893  0.071116
0.449704  0.314283  0.062356
0.503115  0.343031  0.063400
0.559885  0.370107  0.053428
0.615518  0.394682  0.052249
0.670323  0.407444  0.051290
0.762490  0.440235  0.047853
0.804116  0.449236  0.050764
0.121437  0.124788  0.080654
0.134346  0.144562  0.109980
0.155999  0.155097  0.102574
0.194334  0.175815  0.103985
0.228270  0.205008  0.111257
0.305072  0.257767  0.109617
0.350417  0.280838  0.089594
0.393590  0.299376  0.081259
0.467309  0.330225  0.074860
0.523080  0.361087  0.089568
0.569106  0.388453  0.061222
0.629049  0.417699  0.057078
0.703335  0.433717  0.057635
0.762091  0.462060  0.056137
0.805703  0.470209  0.051357
0.142287  0.156816  0.119797
0.155358  0.162149  0.127439
0.157535  0.172568  0.142483
0.205506  0.201727  0.133855
0.236081  0.219785  0.134511
0.324228  0.275627  0.120674
0.374909  0.309278  0.115162
0.421463  0.320284  0.102173
0.486510  0.368640  0.091224
0.540576  0.383469  0.092529
0.580895  0.401859  0.085250
0.647155  0.434389  0.073652
0.708278  0.457034  0.068097
0.762563  0.474164  0.058869
0.830896  0.500998  0.062204
0.149671  0.175660  0.147984
0.189371  0.209726  0.178113
0.201351  0.209183  0.154020
0.223888  0.221096  0.163551
0.291109  0.256472  0.138520
0.331338  0.286169  0.139767
0.394502  0.313821  0.133785
0.460716  0.354457  0.110649
0.503187  0.379427  0.117805
0.561713  0.404889  0.102655
0.614695  0.434866  0.102325
0.671617  0.452431  0.090954
0.729087  0.481030  0.078887
0.787649  0.520369  0.073357
0.850437  0.534350  0.065707
0.171335  0.198310  0.173922
0.195554  0.215678  0.174636
0.240172  0.245057  0.171515
0.264029  0.254189  0.164706
0.318413  0.287608  0.165047
0.365509  0.320804  0.169389
0.427907  0.343260  0.142169
0.475712  0.370277  0.127779
0.541773  0.409241  0.107991
0.579347  0.427431  0.114348
0.633868  0.452073  0.097491
0.688599  0.486529  0.119937
0.740670  0.502786  0.090329
0.814408  0.541814  0.088554
0.858561  0.556563  0.084073
0.209282  0.229202  0.184974
0.239800  0.248667  0.180203
0.279617  0.269944  0.185598
0.323249  0.297539  0.185680
0.357786  0.318690  0.170204
0.405440  0.340429  0.165676
0.455760  0.380080  0.153915
0.503450  0.403125  0.143117
0.541062  0.424425  0.136073
0.595413  0.462661  0.129738
0.652567  0.497309  0.134535
0.708332  0.519420  0.136701
0.769984  0.532500  0.127520
0.836458  0.577000  0.107154
0.889882  0.579601  0.089983
0.260970  0.263688  0.201216
0.289703  0.282062  0.208955
0.325565  0.304772  0.193616
0.358994  0.318207  0.167953
0.398293  0.353981  0.184469
0.445160  0.375187  0.159534
0.495944  0.412558  0.163731
0.542166  0.440964  0.143957
0.594642  0.471667  0.118994
0.651017  0.499853  0.125852
0.681270  0.522371  0.128275
0.719703  0.553780  0.139595
0.782768  0.581223  0.130825
0.862915  0.606045  0.105833
0.902967  0.621021  0.111173
0.273655  0.274501  0.202534
0.329755  0.307707  0.197211
0.353235  0.315987  0.185149
0.404591  0.356355  0.186131
0.431954  0.379860  0.190777
0.466660  0.405069  0.175839
0.529501  0.449196  0.165309
0.563406  0.477695  0.142469
0.631807  0.508495  0.123401
0.666975  0.531364  0.126443
0.716774  0.564294  0.125689
0.757084  0.600800  0.129469
0.814631  0.610929  0.131631
0.872885  0.640005  0.128356
0.930643  0.665554  0.113837
0.312608  0.305996  0.218016
0.358965  0.337475  0.195884
0.403588  0.356643  0.185174
0.427976  0.382943  0.199770
0.463859  0.407829  0.195413
0.526561  0.442246  0.165659
0.572009  0.477393  0.162908
0.603943  0.504971  0.139642
0.648247  0.549563  0.136328
0.698393  0.581916  0.125910
0.739141  0.608724  0.132849
0.793131  0.630546  0.130465
0.839730  0.659833  0.139564
0.883012  0.681357  0.133532
0.934894  0.701088  0.117347
0.365832  0.332691  0.199818
0.394423  0.356002  0.190356
0.430685  0.393098  0.207011
0.487827  0.421478  0.169956
0.516518  0.445674  0.158877
0.543493  0.475199  0.163334
0.589349  0.517633  0.159183
0.648057  0.543692  0.144388
0.679524  0.583575  0.116519
0.718854  0.602127  0.130924
0.761180  0.634535  0.130734
0.795556  0.665637  0.133549
0.858607  0.712209  0.128238
0.908846  0.719176  0.129492
0.979934  0.757248  0.129221
0.404625  0.363377  0.205099
0.431759  0.389054  0.195190
0.479007  0.429029  0.192936
0.521503  0.446892  0.177354
0.568757  0.483127  0.175120
0.597885  0.510285  0.156468
0.623082  0.526884  0.155607
0.670179  0.569116  0.136240
0.720101  0.608004  0.147843
0.765987  0.640295  0.121337
0.792839  0.669693  0.134245
0.834919  0.710773  0.137404
0.880379  0.727306  0.133935
0.931910  0.761561  0.134977
0.988317  0.795989  0.145206
0.438404  0.385538  0.197607
0.467114  0.417500  0.190376
0.512680  0.446213  0.171500
0.536173  0.467315  0.197141
0.585539  0.506920  0.177423
0.637821  0.543468  0.165502
0.665243  0.566867  0.140441
0.704559  0.608070  0.145294
0.752188  0.639774  0.138098
0.783450  0.661897  0.129800
0.814236  0.691518  0.136519
0.854247  0.721714  0.136343
0.915152  0.756489  0.126847
0.965437  0.780122  0.155730
1.006935  0.799852  0.125887
0.474213  0.408263  0.205802
0.507919  0.439560  0.182176
0.528850  0.470156  0.192820
0.576107  0.510942  0.158354
0.615509  0.539287  0.146478
0.680492  0.587505  0.151191
0.706245  0.599199  0.138977
0.743677  0.648967  0.127680
0.774483  0.666001  0.129823
0.808234  0.685792  0.129883
0.845887  0.716298  0.129574
0.904865  0.755910  0.127538
0.934124  0.774761  0.136146
0.991323  0.805753  0.135801
1.035587  0.820716  0.153407
0.497868  0.447279  0.204917
0.555398  0.486731  0.193913
0.588235  0.520867  0.168867
0.623018  0.546086  0.156946
0.677776  0.565880  0.147206
0.692403  0.600185  0.146226
0.738197  0.637979  0.139347
0.766198  0.658804  0.138062
0.805473  0.687383  0.140182
0.849718  0.721378  0.150083
0.898225  0.751876  0.130141
0.917301  0.762118  0.144863
0.963699  0.799132  0.143882
1.018804  0.815865  0.134681
1.068663  0.851340  0.137399
0.114944  0.116081  0.074829
0.120075  0.117826  0.080311
0.138283  0.146713  0.109665
0.153154  0.163450  0.118854
0.198270  0.180981  0.095081
0.251026  0.211021  0.092037
0.334700  0.258561  0.087362
0.386858  0.280859  0.078309
0.409704  0.297976  0.074021
0.487591  0.338146  0.068178
0.527990  0.355206  0.068519
0.604295  0.378478  0.073048
0.651974  0.398286  0.059416
0.727941  0.421134  0.048937
0.779947  0.433288  0.051262
0.122758  0.134781  0.102970
0.131136  0.148203  0.123631
0.149888  0.166344  0.134119
0.176808  0.181948  0.135874
0.212539  0.205889  0.136142
0.271280  0.238999  0.117035
0.342993  0.278655  0.120671
0.398567  0.307043  0.100726
0.436757  0.323385  0.083175
0.493241  0.350547  0.085146
0.550628  0.373839  0.077875
0.611608  0.397998  0.075257
0.682319  0.425563  0.069323
0.733558  0.434623  0.055590
0.809327  0.462586  0.049949
0.136640  0.150993  0.125396
0.141351  0.170450  0.153782
0.166414  0.188752  0.165910
0.187809  0.214719  0.182720
0.222849  0.235680  0.160916
0.294688  0.261041  0.136573
0.358535  0.298823  0.137420
0.405246  0.317925  0.123519
0.467405  0.339083  0.106905
0.520555  0.382839  0.098941
0.575136  0.399461  0.100132
0.623979  0.420267  0.081344
0.682006  0.440354  0.071284
0.756014  0.467662  0.074881
0.835182  0.497118  0.065035
0.149775  0.174899  0.157190
0.160970  0.199270  0.186738
0.184501  0.213614  0.195849
0.207254  0.228421  0.197632
0.256019  0.258546  0.188080
0.306340  0.286129  0.176955
0.378695  0.317761  0.166812
0.421470  0.338811  0.132976
0.496421  0.373485  0.129175
0.551965  0.411831  0.115379
0.585194  0.415279  0.117059
0.644074  0.450531  0.116348
0.715599  0.478643  0.112113
0.763664  0.489864  0.095032
0.824548  0.512677  0.095189
0.166007  0.208509  0.203267
0.188082  0.228320  0.218054
0.200126  0.233290  0.215750
0.233395  0.258890  0.219592
0.278026  0.272937  0.200461
0.322770  0.306932  0.197015
0.374655  0.329993  0.185807
0.449095  0.367194  0.166868
0.484148  0.382142  0.155660
0.555099  0.416530  0.126306
0.608012  0.443161  0.134307
0.664026  0.463429  0.129248
0.711251  0.503971  0.133896
0.776516  0.524084  0.115488
0.853865  0.549268  0.111418
0.190789  0.227592  0.214806
0.202746  0.243317  0.227791
0.225606  0.265007  0.245563
0.245483  0.275049  0.244946
0.299844  0.306311  0.245064
0.356844  0.325572  0.222193
0.424514  0.358836  0.185901
0.462682  0.385312  0.201577
0.513106  0.414160  0.175030
0.552019  0.420581  0.166954
0.627229  0.472252  0.152827
0.670337  0.505698  0.154517
0.744855  0.527543  0.142929
0.795062  0.556189  0.140386
0.847119  0.570259  0.124562
0.214833  0.257389  0.241400
0.231722  0.260119  0.234760
0.257066  0.284653  0.251777
0.295430  0.306652  0.255249
0.331314  0.323672  0.237760
0.395040  0.362836  0.247056
0.443891  0.390034  0.215091
0.494612  0.422540  0.214952
0.549652  0.442301  0.197701
0.588794  0.461388  0.177618
0.641759  0.486832  0.178597
0.711725  0.528536  0.159616
0.755589  0.550348  0.167698
0.817082  0.578640  0.150085
0.884564  0.614103  0.157314
0.216032  0.264313  0.261043
0.272829  0.297452  0.262220
0.302236  0.320901  0.267562
0.338215  0.341538  0.272500
0.383166  0.361434  0.244363
0.437380  0.388301  0.215299
0.470982  0.420947  0.227995
0.530080  0.444033  0.222537
0.568666  0.476376  0.228174
0.625635  0.498261  0.195330
0.692611  0.548083  0.177033
0.731192  0.552222  0.190076
0.794074  0.586135  0.167385
0.826437  0.602356  0.180955
0.899252  0.619286  0.175682
0.268982  0.299824  0.264303
0.292363  0.319202  0.273887
0.336741  0.341489  0.272456
0.371460  0.359003  0.262417
0.425522  0.396882  0.256093
0.462858  0.425674  0.250622
0.499979  0.446193  0.232732
0.551746  0.487148  0.223891
0.590956  0.495554  0.227007
0.666304  0.542274  0.203211
0.720321  0.580492  0.175756
0.770025  0.595070  0.197980
0.805150  0.614300  0.189737
0.867779  0.655941  0.198039
0.922672  0.661136  0.190890
0.287052  0.326247  0.291273
0.334090  0.344928  0.269947
0.388084  0.373998  0.269894
0.420537  0.391501  0.257964
0.475380  0.425825  0.247793
0.512623  0.446102  0.248248
0.545462  0.470601  0.252849
0.587437  0.510826  0.228061
0.643434  0.542388  0.211479
0.672263  0.573047  0.194342
0.738572  0.610865  0.191378
0.796406  0.647332  0.192108
0.817453  0.654577  0.188742
0.904654  0.698997  0.195657
