LUT/LUT_37.CUBE
TITLE "LUT_37" 
#LUT size 
LUT_3D_SIZE 5 
#data point 
DOMAIN_MIN 0.000000 0.000000 0.000000
DOMAIN_MAX 0.857143 0.857143 0.857143
0.072199  0.073688  0.031728
0.127681  0.117738  0.063981
0.308890  0.238426  0.071209
0.453169  0.344322  0.072541
0.613557  0.425481  0.064961
0.120026  0.113456  0.061162
0.196515  0.181742  0.097632
0.378941  0.292791  0.094305
0.517462  0.389284  0.084289
0.652299  0.480834  0.072990
0.218723  0.195234  0.089894
0.339794  0.276545  0.104736
0.448128  0.344155  0.086772
0.612484  0.473809  0.079604
0.737711  0.554973  0.084955
0.360895  0.288646  0.119489
0.461591  0.371331  0.104516
0.582374  0.458139  0.092247
0.707943  0.573601  0.083394
0.827208  0.670645  0.086971
0.467444  0.364590  0.099657
0.591398  0.460208  0.088963
0.698842  0.567220  0.083433
0.783847  0.651048  0.089473
0.909474  0.734088  0.082643
0.126626  0.125946  0.075628
0.161632  0.167708  0.117374
0.315603  0.265652  0.107006
0.458572  0.338892  0.091436
0.599248  0.445454  0.082165
0.161938  0.176957  0.141040
0.208519  0.225767  0.173165
0.364111  0.320991  0.161322
0.534247  0.417252  0.111606
0.673695  0.512105  0.103853
0.215261  0.254838  0.228960
0.288198  0.313918  0.264902
0.431131  0.375517  0.212593
0.566976  0.450760  0.166797
0.732708  0.576470  0.158756
0.286887  0.326004  0.303296
0.390714  0.378187  0.267812
0.524075  0.448070  0.247230
0.665923  0.547600  0.198331
0.814204  0.658606  0.171049
0.404590  0.393686  0.292994
0.538054  0.460424  0.255027
0.652379  0.553337  0.246097
0.791084  0.647148  0.186877
0.929884  0.730995  0.183228
0.162445  0.191983  0.165704
0.196980  0.226218  0.205266
0.275398  0.294375  0.246193
0.486825  0.391731  0.160573
0.646208  0.484062  0.134437
0.214455  0.258443  0.249291
0.261822  0.313982  0.302069
0.355275  0.381715  0.347452
0.502559  0.446743  0.272050
0.688821  0.554955  0.227816
0.269637  0.330752  0.330188
0.309133  0.391516  0.411503
0.391010  0.441572  0.410194
0.556855  0.521331  0.396873
0.729299  0.617372  0.316330
0.333414  0.411924  0.428372
0.382611  0.463132  0.471254
0.479940  0.516803  0.474810
0.622177  0.601149  0.478826
0.819715  0.702498  0.407334
0.366571  0.468340  0.487486
0.475466  0.524445  0.493878
0.574347  0.589557  0.502758
0.741363  0.680486  0.496466
0.904957  0.765710  0.463319
0.216323  0.273711  0.265805
0.271741  0.335621  0.332727
0.324580  0.372849  0.345065
0.460114  0.438690  0.320368
0.649481  0.536795  0.252285
0.264991  0.346258  0.357582
0.316539  0.397077  0.415233
0.353493  0.440424  0.453466
0.497710  0.522805  0.448481
0.690114  0.599361  0.391031
0.330339  0.417104  0.437002
0.369692  0.472296  0.498011
0.412389  0.521339  0.548103
0.546380  0.593678  0.547619
0.721252  0.675529  0.502858
0.382482  0.490846  0.516995
0.414706  0.533997  0.571396
0.488802  0.611816  0.645287
0.632473  0.680527  0.635177
0.763947  0.742042  0.616932
0.430397  0.549258  0.574898
0.482008  0.603413  0.643472
0.564367  0.680587  0.702751
0.692018  0.741863  0.706462
0.850405  0.806206  0.687914
0.290758  0.371828  0.389531
0.328550  0.413957  0.430725
0.372064  0.475569  0.506729
0.461777  0.510926  0.479557
0.615585  0.571676  0.420606
0.327661  0.421716  0.446757
0.368273  0.477503  0.506534
0.441322  0.557086  0.586512
0.508019  0.587352  0.579564
0.662910  0.658525  0.564465
0.383659  0.490150  0.520369
0.448780  0.565294  0.599148
0.490470  0.619708  0.648198
0.557463  0.679085  0.699866
0.747710  0.747348  0.651451
0.425921  0.548863  0.582498
0.498252  0.622798  0.660058
0.556619  0.681400  0.716278
0.639088  0.753771  0.791692
0.758906  0.802559  0.772372
0.497421  0.623142  0.653499
0.565619  0.692636  0.721046
0.629960  0.761290  0.805945
0.705100  0.820613  0.865269
0.832449  0.893500  0.900742
