LUT/LUT_28.CUBE
TITLE "LUT_28" 
#LUT size 
LUT_3D_SIZE 5 
#data point 
DOMAIN_MIN 0.000000 0.000000 0.000000
DOMAIN_MAX 0.857143 0.857143 0.857143
0.070063  0.070765  0.034055
0.123752  0.120278  0.061377
0.312732  0.233620  0.062663
0.460857  0.335383  0.067029
0.624395  0.408056  0.054046
0.113417  0.111368  0.059076
0.204121  0.177206  0.086070
0.377540  0.288658  0.072487
0.517369  0.374188  0.063884
0.676104  0.465911  0.055972
0.228441  0.196448  0.079723
0.343590  0.283608  0.094801
0.451231  0.348682  0.082127
0.618052  0.477253  0.075388
0.742849  0.541836  0.076789
0.367704  0.301549  0.109765
0.459022  0.366586  0.095804
0.580512  0.460347  0.081604
0.700442  0.584213  0.077327
0.825074  0.662063  0.080094
0.471998  0.376445  0.089541
0.584954  0.470699  0.075998
0.697380  0.569806  0.074921
0.784077  0.650460  0.080097
0.908652  0.743721  0.087115
0.115480  0.116931  0.077065
0.156043  0.165102  0.121126
0.317314  0.261540  0.098465
0.469433  0.343922  0.082253
0.612814  0.427634  0.072522
0.156362  0.177742  0.144561
0.204953  0.222782  0.185883
0.366448  0.318461  0.159438
0.540541  0.419718  0.112122
0.690471  0.499752  0.101051
0.221233  0.261861  0.244930
0.293696  0.312464  0.262283
0.429372  0.384836  0.210426
0.578042  0.457473  0.161518
0.735612  0.566823  0.162326
0.284862  0.326858  0.299680
0.410390  0.378292  0.266230
0.531645  0.463784  0.250206
0.673928  0.562856  0.198232
0.812657  0.653777  0.189194
0.404884  0.393642  0.287447
0.540743  0.471742  0.253216
0.653632  0.554211  0.246642
0.797367  0.649420  0.194916
0.923991  0.747029  0.188274
0.160644  0.190365  0.171314
0.192078  0.231728  0.220667
0.290623  0.304665  0.241767
0.493271  0.387571  0.161364
0.650809  0.473349  0.136796
0.203991  0.259033  0.258809
0.257310  0.311027  0.310491
0.355538  0.377264  0.328030
0.507647  0.448762  0.271738
0.698431  0.549401  0.220542
0.258566  0.328599  0.338572
0.300461  0.389701  0.419211
0.394053  0.435672  0.405858
0.568120  0.528286  0.391730
0.741519  0.614157  0.323690
0.317823  0.405389  0.421466
0.381325  0.464101  0.470645
0.491601  0.521286  0.465095
0.631175  0.602952  0.471479
0.826833  0.691935  0.406389
0.359582  0.464001  0.495766
0.480671  0.533931  0.495320
0.592242  0.591444  0.491826
0.744995  0.686306  0.485670
0.904260  0.768461  0.458057
0.207751  0.265948  0.275798
0.256394  0.327678  0.338311
0.328758  0.370794  0.343790
0.465455  0.441955  0.312209
0.661159  0.526833  0.252939
0.267166  0.348349  0.369362
0.308124  0.398307  0.423289
0.363042  0.443049  0.456615
0.503058  0.514784  0.449800
0.696953  0.602806  0.376513
0.319107  0.418456  0.434572
0.368366  0.473646  0.503612
0.407821  0.520067  0.554213
0.546072  0.589386  0.541813
0.723470  0.672968  0.504055
0.371359  0.481396  0.520257
0.416470  0.536618  0.574064
0.484793  0.605757  0.641710
0.634969  0.682134  0.628450
0.772058  0.742374  0.610806
0.430761  0.546671  0.582674
0.477618  0.605552  0.647216
0.552649  0.675240  0.703656
0.706429  0.737194  0.692596
0.855186  0.812308  0.679141
0.279423  0.369712  0.390188
0.318152  0.413870  0.438475
0.358912  0.472693  0.506671
0.468934  0.512083  0.474919
0.630614  0.575272  0.411221
0.326845  0.419292  0.446330
0.374964  0.476882  0.507567
0.437659  0.555197  0.588239
0.515880  0.587399  0.566483
0.670277  0.660782  0.557777
0.373026  0.489180  0.522461
0.435218  0.561101  0.596808
0.495692  0.623285  0.653851
0.563614  0.674635  0.700246
0.744487  0.741570  0.648647
0.421453  0.550399  0.584318
0.501331  0.629544  0.660993
0.546342  0.680013  0.710315
0.633623  0.758709  0.799374
0.762681  0.805287  0.767935
0.494074  0.623386  0.659753
0.555433  0.684674  0.722626
0.622138  0.758183  0.811740
0.706824  0.814810  0.863945
0.832730  0.891284  0.901494
