LUT/LUT_31.CUBE
TITLE "LUT_31" 
#LUT size 
LUT_3D_SIZE 15 
DOMAIN_MIN 0.0 0.0 0.0 
DOMAIN_MAX 1.0 1.0 1.0 
#data point 
0.077440  0.067791  0.031313
0.084316  0.078686  0.040754
0.101704  0.094582  0.045101
0.120199  0.118179  0.068106
0.170630  0.154796  0.074901
0.241510  0.197879  0.074248
0.312314  0.236592  0.063012
0.347335  0.264933  0.070848
0.414219  0.303052  0.064605
0.460474  0.334405  0.069207
0.515483  0.364933  0.064228
0.551384  0.392091  0.066125
0.620158  0.417095  0.053996
0.670661  0.462424  0.060477
0.730240  0.482111  0.062492
0.089970  0.078189  0.038538
0.096454  0.092509  0.045116
0.118399  0.109005  0.061111
0.151804  0.135801  0.068788
0.196882  0.176195  0.087326
0.261584  0.214773  0.085251
0.323465  0.256859  0.075244
0.383271  0.289618  0.079289
0.427049  0.326499  0.073321
0.464289  0.343187  0.060178
0.525644  0.381250  0.066528
0.593368  0.412101  0.068846
0.652904  0.457168  0.059530
0.701272  0.480106  0.061140
0.751340  0.488832  0.068820
0.111428  0.108256  0.054706
0.105532  0.098887  0.053356
0.123822  0.119211  0.060191
0.160156  0.152554  0.085321
0.219422  0.193925  0.089531
0.276608  0.225260  0.083863
0.350722  0.273914  0.090067
0.396659  0.300338  0.074638
0.461703  0.330362  0.082497
0.499337  0.367792  0.075495
0.536419  0.397119  0.071844
0.613890  0.440729  0.068782
0.650566  0.461075  0.067447
0.715466  0.481851  0.068358
0.763997  0.522428  0.064039
0.119339  0.114053  0.054987
0.132247  0.123689  0.058092
0.154307  0.138604  0.068324
0.200031  0.176225  0.090258
0.263223  0.219999  0.084930
0.312132  0.250358  0.088166
0.377222  0.290556  0.082987
0.423059  0.316101  0.083381
0.479954  0.356121  0.065777
0.514584  0.378163  0.071972
0.566749  0.412680  0.078501
0.625618  0.441733  0.081342
0.665753  0.476312  0.065210
0.744875  0.509114  0.062224
0.796204  0.548026  0.068917
0.147452  0.145445  0.079054
0.163292  0.154361  0.087977
0.210145  0.194521  0.102648
0.243837  0.212181  0.101954
0.290658  0.247458  0.089507
0.353717  0.276985  0.095806
0.398318  0.312660  0.086415
0.449173  0.341987  0.078783
0.495402  0.367876  0.074227
0.547994  0.412101  0.071108
0.593386  0.439399  0.076161
0.660753  0.486252  0.075158
0.697210  0.500065  0.064093
0.754810  0.538096  0.070251
0.814408  0.559182  0.063451
0.167147  0.160477  0.096644
0.208307  0.185316  0.090456
0.236175  0.207115  0.095076
0.290687  0.242715  0.093665
0.344926  0.261950  0.081233
0.373719  0.290013  0.096167
0.419323  0.323491  0.093459
0.485672  0.363065  0.085181
0.516370  0.385197  0.081018
0.555021  0.409243  0.078125
0.623466  0.462792  0.069005
0.661215  0.488422  0.081245
0.733114  0.524143  0.071269
0.784448  0.559051  0.078240
0.837072  0.579356  0.070627
0.228170  0.192128  0.084560
0.257797  0.226399  0.113881
0.307235  0.254779  0.103108
0.344846  0.282748  0.103045
0.384066  0.299772  0.084019
0.424235  0.339407  0.098549
0.457133  0.342256  0.081305
0.517998  0.399877  0.096156
0.552956  0.419567  0.079947
0.612157  0.476658  0.080860
0.652971  0.482796  0.078237
0.681603  0.512357  0.079215
0.737157  0.548359  0.079118
0.802116  0.581910  0.068755
0.862776  0.612724  0.073212
0.270220  0.238184  0.111244
0.304045  0.253375  0.104869
0.326392  0.265659  0.102690
0.379245  0.295540  0.085433
0.426353  0.337052  0.103869
0.464759  0.363376  0.081352
0.489477  0.379955  0.086167
0.546340  0.419057  0.082758
0.582514  0.457336  0.080838
0.636916  0.492411  0.075037
0.673972  0.528041  0.077632
0.728185  0.564527  0.080644
0.776452  0.593184  0.083276
0.836688  0.626941  0.079085
0.904393  0.651610  0.066699
0.301092  0.254096  0.120682
0.354082  0.286922  0.100883
0.387317  0.300204  0.087944
0.417913  0.319485  0.091085
0.470197  0.363705  0.095573
0.493576  0.389014  0.090716
0.533567  0.404099  0.087208
0.578746  0.449513  0.089968
0.615367  0.490664  0.074631
0.669039  0.542118  0.085736
0.696234  0.562279  0.077651
0.744478  0.589035  0.089413
0.803850  0.617045  0.087797
0.833794  0.658647  0.083776
0.919442  0.689634  0.076812
0.365063  0.299184  0.112485
0.391745  0.316715  0.099447
0.429132  0.325576  0.092810
0.462146  0.371508  0.100386
0.499828  0.391208  0.089792
0.531490  0.422878  0.083051
0.578144  0.456428  0.083538
0.627469  0.494916  0.087888
0.652768  0.533385  0.077692
0.704445  0.576185  0.079407
0.753688  0.609403  0.084180
0.780322  0.632975  0.081758
0.820630  0.669220  0.086468
0.865942  0.679351  0.078865
0.918183  0.720491  0.088180
0.385011  0.313113  0.112196
0.430125  0.343290  0.101636
0.461271  0.377711  0.091144
0.495406  0.390113  0.088951
0.556187  0.440112  0.092094
0.584738  0.464079  0.084709
0.617327  0.485430  0.096123
0.668300  0.535680  0.076211
0.703206  0.574564  0.073848
0.724658  0.586753  0.073157
0.777849  0.644268  0.078228
0.798132  0.650334  0.085940
0.858003  0.698821  0.082251
0.911806  0.724619  0.073169
0.950737  0.751305  0.097560
0.434040  0.335843  0.093367
0.464095  0.372109  0.097952
0.506949  0.402560  0.096774
0.544013  0.422546  0.090164
0.586572  0.454643  0.080444
0.631342  0.502928  0.084657
0.650190  0.530130  0.081830
0.678181  0.555096  0.076197
0.736834  0.615297  0.086654
0.757562  0.631001  0.073868
0.805535  0.664766  0.088745
0.849861  0.692058  0.082850
0.887935  0.709651  0.071580
0.919185  0.755298  0.080852
0.974232  0.771905  0.085685
0.471297  0.373220  0.097252
0.489463  0.398122  0.081421
0.526871  0.418745  0.091204
0.584760  0.468346  0.082631
0.626141  0.494301  0.083845
0.649230  0.526754  0.090417
0.694234  0.572473  0.082705
0.722370  0.583050  0.085287
0.760076  0.622822  0.089675
0.781866  0.657175  0.082705
0.833905  0.677763  0.088618
0.895872  0.717721  0.085063
0.912007  0.738877  0.081993
0.950617  0.760995  0.084569
1.026064  0.789008  0.088667
0.511442  0.409692  0.087514
0.547880  0.454326  0.086886
0.579177  0.468977  0.075923
0.622503  0.500564  0.082761
0.649168  0.531392  0.086408
0.674596  0.550543  0.077172
0.721064  0.589751  0.076892
0.770924  0.621965  0.080880
0.785581  0.647355  0.086420
0.819051  0.666612  0.084870
0.851409  0.697760  0.082217
0.898716  0.727585  0.085157
0.940544  0.762847  0.088385
0.990287  0.788269  0.089669
1.015220  0.798371  0.085768
0.539355  0.434057  0.095074
0.569850  0.454838  0.088606
0.616719  0.508836  0.092636
0.660037  0.539364  0.067616
0.691889  0.561770  0.082658
0.708778  0.582081  0.085100
0.747590  0.613965  0.085282
0.793415  0.653104  0.082697
0.809810  0.664767  0.081825
0.855496  0.694974  0.090999
0.885342  0.711977  0.101015
0.930910  0.758312  0.086055
0.969095  0.769476  0.089184
1.028011  0.796827  0.086519
1.074358  0.834090  0.088373
0.081036  0.080280  0.043714
0.097981  0.089341  0.037683
0.106361  0.096883  0.042352
0.122553  0.112293  0.054767
0.166477  0.150048  0.072535
0.243111  0.196764  0.079033
0.316220  0.253087  0.084454
0.358355  0.277861  0.077389
0.414631  0.305136  0.065556
0.443834  0.314321  0.062998
0.513680  0.365181  0.067521
0.567004  0.398687  0.062745
0.630645  0.432540  0.055541
0.666168  0.462565  0.061673
0.720837  0.489909  0.066976
0.100635  0.089342  0.040075
0.102671  0.095454  0.048180
0.112676  0.109701  0.052593
0.152715  0.135239  0.070119
0.192628  0.173380  0.089835
0.276300  0.226968  0.085667
0.323627  0.254313  0.073667
0.369763  0.283302  0.071601
0.426394  0.318124  0.070236
0.492534  0.354230  0.075379
0.515377  0.378520  0.062057
0.570952  0.405347  0.062952
0.637886  0.454021  0.062628
0.684570  0.470547  0.068309
0.747611  0.507752  0.065027
0.106530  0.096877  0.044268
0.115965  0.114997  0.058156
0.140545  0.129996  0.071176
0.175603  0.156461  0.082932
0.216588  0.194797  0.091802
0.297463  0.238187  0.074686
0.333715  0.257549  0.077444
0.392296  0.297154  0.084834
0.443808  0.334867  0.075412
0.486568  0.361549  0.080641
0.545610  0.391779  0.065657
0.602324  0.430426  0.066823
0.665340  0.458533  0.059356
0.709561  0.505247  0.067782
0.793292  0.528022  0.062971
0.132459  0.129111  0.068878
0.138147  0.133925  0.079603
0.169790  0.158771  0.092381
0.185790  0.172964  0.092536
0.248373  0.223731  0.097701
0.320484  0.262416  0.085024
0.353330  0.287254  0.096145
0.427702  0.333142  0.088746
0.474187  0.356097  0.083821
0.515721  0.377446  0.081900
0.565920  0.422406  0.082587
0.632060  0.450693  0.078276
0.686157  0.477544  0.070027
0.711017  0.506585  0.071741
0.791919  0.548424  0.060991
0.158500  0.162015  0.088971
0.168538  0.158166  0.094941
0.203699  0.191308  0.113391
0.236854  0.210141  0.109329
0.292116  0.254049  0.120466
0.345092  0.274829  0.092772
0.390291  0.309114  0.094783
0.445147  0.337673  0.084766
0.496621  0.377914  0.083382
0.536805  0.407878  0.086805
0.587849  0.430050  0.072179
0.640613  0.472699  0.069695
0.695717  0.515591  0.083668
0.757797  0.528638  0.068882
0.796167  0.564836  0.070745
0.184403  0.173780  0.102489
0.213543  0.194983  0.109324
0.244856  0.221776  0.127939
0.289509  0.247146  0.131046
0.342435  0.275202  0.107665
0.395884  0.314706  0.102866
0.444727  0.342658  0.094053
0.471913  0.359750  0.113103
0.512385  0.392183  0.089879
0.563369  0.430099  0.101090
0.604347  0.461709  0.090389
0.654358  0.489765  0.079787
0.710164  0.515143  0.082148
0.784550  0.561873  0.066632
0.851481  0.603563  0.070644
0.231196  0.224039  0.151439
0.260940  0.229848  0.115790
0.276775  0.251901  0.139888
0.314531  0.274473  0.135667
0.385677  0.301692  0.116836
0.421011  0.336105  0.097860
0.470372  0.352841  0.102146
0.502813  0.395019  0.112730
0.537484  0.426075  0.098794
0.587208  0.452250  0.095038
0.654121  0.504263  0.090049
0.685904  0.531182  0.082446
0.751815  0.555317  0.076440
0.802047  0.587443  0.064550
0.852642  0.613289  0.068065
0.257910  0.237741  0.128710
0.286280  0.260884  0.134951
0.336198  0.299110  0.141268
0.370030  0.313010  0.147304
0.427038  0.341614  0.103794
0.449510  0.356416  0.111848
0.517826  0.404973  0.088844
0.548577  0.417639  0.092842
0.578478  0.460167  0.100310
0.616476  0.483351  0.089984
0.676790  0.527330  0.087649
0.715305  0.550753  0.077412
0.775038  0.586761  0.070996
0.822344  0.612186  0.074467
0.898206  0.636396  0.074611
0.302610  0.265148  0.136630
0.349760  0.294778  0.151141
0.378651  0.310730  0.118886
0.403776  0.329421  0.121267
0.452198  0.358922  0.115522
0.492816  0.394958  0.110956
0.533292  0.424402  0.109055
0.580285  0.461008  0.088645
0.618171  0.487370  0.092163
0.667828  0.543299  0.096897
0.701495  0.560900  0.088312
0.753940  0.598527  0.093679
0.798732  0.619256  0.086301
0.861608  0.662017  0.097652
0.896656  0.683755  0.079858
0.326044  0.280179  0.132828
0.388534  0.320076  0.131200
0.411391  0.338440  0.130778
0.477100  0.371438  0.106669
0.499265  0.404232  0.112802
0.551232  0.435295  0.101706
0.595270  0.476108  0.104720
0.617433  0.493735  0.105344
0.667518  0.533142  0.106081
0.699884  0.571780  0.098752
0.748566  0.605535  0.079564
0.773984  0.626688  0.085044
0.830747  0.653202  0.079615
0.880237  0.689978  0.082905
0.939220  0.724964  0.084537
0.373759  0.319335  0.149235
0.391653  0.331001  0.145571
0.431745  0.348968  0.122885
0.509954  0.401364  0.114974
0.538834  0.428772  0.112623
0.582719  0.466685  0.099745
0.635500  0.515682  0.092316
0.667676  0.544701  0.092649
0.702972  0.571487  0.089767
0.735789  0.605104  0.085600
0.781786  0.631303  0.092683
0.821421  0.667537  0.095261
0.855904  0.685627  0.071318
0.913598  0.719605  0.098137
0.943884  0.729315  0.098426
0.403895  0.338969  0.135111
0.457831  0.367543  0.129552
0.502142  0.408297  0.116373
0.538491  0.427130  0.103375
0.581205  0.481009  0.115682
0.616254  0.493392  0.098009
0.641336  0.509413  0.109469
0.688294  0.561168  0.106148
0.721849  0.585294  0.089074
0.742035  0.623852  0.094753
0.798965  0.657507  0.077860
0.854849  0.690985  0.099678
0.893425  0.723879  0.093789
0.913984  0.745270  0.092233
0.975536  0.768516  0.084402
0.471218  0.381328  0.122761
0.519801  0.426429  0.090037
0.551383  0.442179  0.115674
0.602021  0.480180  0.105193
0.609143  0.496196  0.098342
0.659752  0.533018  0.113390
0.694534  0.577864  0.096078
0.715033  0.579957  0.099349
0.761202  0.622084  0.093975
0.789183  0.649778  0.096266
0.823653  0.684807  0.101359
0.885008  0.709001  0.100359
0.911127  0.745306  0.096282
0.979363  0.775424  0.092077
1.005757  0.782718  0.091122
0.490799  0.400655  0.132870
0.526049  0.422468  0.107615
0.577496  0.461345  0.093922
0.582990  0.471626  0.098370
0.656291  0.533801  0.099024
0.681604  0.552326  0.086154
0.704210  0.587831  0.106789
0.768197  0.635919  0.078658
0.791492  0.640451  0.091977
0.823659  0.684453  0.105110
0.869996  0.705810  0.092456
0.889094  0.722817  0.100846
0.938607  0.754301  0.099963
0.979962  0.775184  0.087498
1.018501  0.802666  0.097509
0.542364  0.437746  0.121964
0.581531  0.464094  0.098867
0.589862  0.479368  0.102685
0.644117  0.510146  0.100430
0.677955  0.553602  0.098639
0.714507  0.581572  0.091472
0.755723  0.609753  0.092674
0.782392  0.643411  0.113971
0.817198  0.672259  0.111185
0.848354  0.697630  0.102348
0.904150  0.733969  0.107808
0.915989  0.752776  0.102453
0.970866  0.777202  0.101981
1.027611  0.806562  0.095114
1.074180  0.826619  0.105061
0.101776  0.093002  0.044970
0.113074  0.105016  0.062138
0.115526  0.112890  0.054656
0.157182  0.146866  0.076813
0.186298  0.166457  0.088682
0.228952  0.198393  0.084099
0.292626  0.235148  0.082277
0.379347  0.285877  0.074198
0.409618  0.304824  0.072288
0.453871  0.344653  0.077333
0.509772  0.369205  0.068605
0.560646  0.401870  0.067578
0.618996  0.438794  0.070073
0.681020  0.469515  0.057952
0.744306  0.483348  0.060694
0.115153  0.116114  0.061234
0.129283  0.127493  0.078244
0.142972  0.136384  0.077440
0.157034  0.145605  0.080616
0.213915  0.187681  0.095975
0.278900  0.237728  0.096777
0.339031  0.262096  0.093359
0.370731  0.285969  0.092135
0.438469  0.335541  0.073794
0.478564  0.350275  0.075472
0.534657  0.392861  0.078021
0.581589  0.421301  0.065887
0.639734  0.452654  0.073311
0.729211  0.486748  0.062254
0.755743  0.506779  0.069108
0.129541  0.126206  0.068873
0.140330  0.145010  0.099902
0.162420  0.157411  0.099928
0.181498  0.173737  0.103557
0.224550  0.199676  0.110105
0.289476  0.250531  0.112979
0.320389  0.269006  0.102081
0.386656  0.304456  0.099310
0.439438  0.339823  0.092006
0.510505  0.379595  0.092502
0.552500  0.405099  0.076352
0.602501  0.441314  0.076460
0.683426  0.469334  0.066183
0.719491  0.489352  0.067324
0.767629  0.513846  0.067641
0.158081  0.155165  0.105121
0.155940  0.162828  0.113372
0.167592  0.177652  0.136588
0.205602  0.196596  0.134259
0.231282  0.218629  0.133269
0.319963  0.274483  0.128442
0.371265  0.305528  0.127205
0.407937  0.318663  0.122362
0.473085  0.365311  0.097996
0.526625  0.386198  0.085218
0.564006  0.419135  0.087527
0.636085  0.458250  0.077333
0.670965  0.485450  0.075035
0.713701  0.506713  0.073139
0.787950  0.542594  0.067055
0.156378  0.163762  0.126882
0.187667  0.204954  0.174048
0.196987  0.207907  0.150711
0.231725  0.222059  0.153514
0.283998  0.261033  0.149810
0.323819  0.286913  0.147914
0.388214  0.327029  0.125900
0.450064  0.358144  0.116690
0.489573  0.384014  0.121459
0.539960  0.407263  0.105096
0.597876  0.443765  0.108348
0.650030  0.474497  0.094362
0.691660  0.503454  0.092403
0.747953  0.549917  0.080255
0.810090  0.580688  0.085281
0.173584  0.194420  0.162989
0.200328  0.207252  0.158711
0.233050  0.236490  0.177957
0.263376  0.244808  0.158233
0.299282  0.276056  0.164235
0.352603  0.313323  0.170216
0.413048  0.344158  0.145619
0.468202  0.370260  0.125446
0.531860  0.404209  0.111939
0.573321  0.442799  0.115269
0.623200  0.467126  0.097002
0.666068  0.499778  0.119592
0.706399  0.519234  0.087752
0.778734  0.576403  0.092511
0.829037  0.595433  0.085390
0.204519  0.224805  0.182773
0.231751  0.240173  0.178104
0.272616  0.271049  0.191506
0.314235  0.287748  0.174751
0.338432  0.298121  0.169101
0.392342  0.338265  0.166134
0.448422  0.370046  0.160060
0.489065  0.398829  0.144521
0.533223  0.411824  0.131816
0.586900  0.458527  0.118027
0.630910  0.494427  0.134238
0.700042  0.536238  0.127309
0.752172  0.556443  0.123465
0.812091  0.598694  0.115139
0.850038  0.626446  0.093871
0.265535  0.266421  0.206296
0.279702  0.286749  0.212003
0.323284  0.303467  0.188406
0.355698  0.316606  0.177477
0.393067  0.339933  0.175677
0.437377  0.364285  0.157427
0.492685  0.405891  0.171742
0.536221  0.433610  0.142705
0.590614  0.463540  0.128904
0.641582  0.497607  0.131753
0.672260  0.515164  0.128216
0.707887  0.552653  0.132353
0.763697  0.584758  0.122454
0.823700  0.629551  0.114148
0.871022  0.646182  0.109245
0.289968  0.281278  0.206089
0.324679  0.300903  0.192588
0.339158  0.307643  0.180629
0.394490  0.343508  0.187926
0.438491  0.376469  0.192286
0.457695  0.388316  0.178490
0.535707  0.439396  0.171680
0.561453  0.464798  0.135883
0.622746  0.496470  0.118739
0.665051  0.530644  0.132964
0.714679  0.570367  0.105930
0.741964  0.600777  0.131893
0.800433  0.619548  0.122803
0.849752  0.652266  0.132959
0.921282  0.683626  0.120143
0.311840  0.305135  0.216462
0.355216  0.336183  0.204718
0.400620  0.343253  0.176801
0.427019  0.374342  0.205336
0.469130  0.397851  0.194626
0.528156  0.428250  0.171540
0.577526  0.468983  0.170289
0.601295  0.489774  0.127470
0.662747  0.522919  0.143498
0.694881  0.570610  0.120033
0.745183  0.610958  0.118842
0.785281  0.637471  0.127489
0.828771  0.651288  0.137441
0.869179  0.692876  0.128714
0.917345  0.705267  0.127143
0.367367  0.330304  0.196801
0.390129  0.352665  0.205666
0.439411  0.386441  0.201922
0.498761  0.408840  0.164133
0.513321  0.428492  0.157228
0.556149  0.452296  0.175857
0.583281  0.485268  0.152070
0.647802  0.537398  0.143728
0.692524  0.566903  0.116995
0.727728  0.599186  0.125941
0.766267  0.627931  0.115604
0.803694  0.661050  0.116469
0.867532  0.702577  0.133051
0.905323  0.710537  0.128477
0.980178  0.756185  0.138176
0.398058  0.352232  0.206520
0.434423  0.378835  0.203564
0.486475  0.407834  0.193347
0.511365  0.426314  0.184085
0.567249  0.470749  0.170519
0.605500  0.495608  0.155304
0.632086  0.506802  0.143948
0.683622  0.551736  0.128331
0.723386  0.589635  0.149248
0.785668  0.637311  0.114973
0.792477  0.654497  0.123940
0.831351  0.691454  0.130673
0.885823  0.729747  0.124256
0.938626  0.751940  0.130360
0.981197  0.780913  0.144744
0.427074  0.382602  0.207259
0.461873  0.395280  0.201017
0.523596  0.431953  0.174534
0.541593  0.443761  0.189493
0.594129  0.489785  0.182958
0.645233  0.536299  0.162523
0.684821  0.553815  0.129437
0.714288  0.581594  0.139974
0.757572  0.620697  0.132121
0.785349  0.655549  0.130927
0.834055  0.687421  0.131354
0.865503  0.701862  0.150126
0.909649  0.740169  0.120243
0.957650  0.769273  0.153089
0.995035  0.782297  0.124966
0.473186  0.399425  0.201455
0.513571  0.432157  0.179963
0.528297  0.432455  0.184687
0.591099  0.489180  0.164574
0.623971  0.515477  0.151218
0.680764  0.571643  0.134670
0.716617  0.584332  0.141739
0.761877  0.634179  0.126818
0.786261  0.640195  0.136298
0.811413  0.667277  0.132026
0.842796  0.690434  0.131305
0.903812  0.737284  0.134616
0.934770  0.752951  0.128851
0.992368  0.782753  0.135879
1.033109  0.814208  0.141031
0.505244  0.433406  0.213848
0.546900  0.465379  0.196984
0.599042  0.494393  0.164132
0.634526  0.525274  0.154488
0.680412  0.557478  0.163617
0.709255  0.584391  0.141809
0.759530  0.628026  0.136310
0.785750  0.635533  0.135369
0.815736  0.680498  0.130440
0.868651  0.703696  0.139433
0.896802  0.738006  0.117226
0.922092  0.744099  0.134539
0.967709  0.772263  0.136828
1.027020  0.802693  0.120578
1.070769  0.831185  0.138792
0.121679  0.120726  0.071957
0.123553  0.113099  0.067953
0.146315  0.148943  0.097874
0.160258  0.169039  0.119410
0.202950  0.180530  0.086975
0.239905  0.209726  0.105352
0.318006  0.264282  0.098502
0.374603  0.291361  0.092377
0.406782  0.308972  0.094070
0.463574  0.339295  0.086945
0.514633  0.379171  0.079585
0.569674  0.409647  0.081010
0.609115  0.437251  0.076867
0.684095  0.460190  0.060231
0.738890  0.489323  0.062010
0.134949  0.138720  0.096505
0.141020  0.149255  0.110923
0.153734  0.164740  0.115596
0.187567  0.185840  0.134096
0.208814  0.201721  0.127019
0.257086  0.223826  0.117419
0.328576  0.280914  0.117025
0.382270  0.309246  0.113302
0.432844  0.329494  0.093907
0.473455  0.364051  0.094653
0.544211  0.395678  0.089114
0.587823  0.420375  0.079988
0.655753  0.468798  0.079184
0.705955  0.482078  0.062485
0.767360  0.519370  0.068570
0.137636  0.150644  0.114296
0.163858  0.178503  0.137544
0.181475  0.195612  0.153425
0.200958  0.217509  0.177300
0.224174  0.228622  0.152979
0.292018  0.262105  0.139504
0.340962  0.295576  0.135994
0.397368  0.318498  0.137376
0.451906  0.350853  0.106764
0.514127  0.392218  0.102658
0.550853  0.419274  0.104631
0.614433  0.444238  0.081926
0.649817  0.465964  0.084985
0.711389  0.505044  0.082821
0.804611  0.551439  0.070892
0.161399  0.173642  0.144755
0.176919  0.201759  0.174223
0.184124  0.214455  0.184165
0.209992  0.226460  0.185916
0.260994  0.261879  0.192591
0.293684  0.284533  0.179535
0.361794  0.314946  0.161372
0.407774  0.332042  0.132642
0.481639  0.379227  0.120652
0.538563  0.418398  0.113836
0.556641  0.420085  0.119151
0.628741  0.472648  0.104979
0.681121  0.503438  0.103159
0.726608  0.519686  0.085580
0.793799  0.545705  0.103780
0.177571  0.206126  0.189482
0.199380  0.233389  0.206624
0.198878  0.230279  0.203142
0.231049  0.253915  0.203396
0.269989  0.270365  0.205003
0.314272  0.295005  0.189742
0.354841  0.320586  0.186457
0.441886  0.366213  0.161179
0.470715  0.376528  0.158534
0.545761  0.415372  0.119344
0.600015  0.459522  0.117058
0.631487  0.480683  0.124664
0.689425  0.528688  0.131287
0.742635  0.553026  0.111557
0.815948  0.577647  0.104784
0.191265  0.223682  0.203461
0.207041  0.241254  0.212726
0.224605  0.267786  0.235446
0.246418  0.275736  0.241281
0.296148  0.307884  0.244275
0.353133  0.331988  0.216557
0.418616  0.369007  0.186858
0.461191  0.388557  0.198140
0.503510  0.400522  0.173595
0.539218  0.426713  0.161175
0.607019  0.480040  0.152979
0.659217  0.518266  0.142841
0.734343  0.550111  0.130164
0.771886  0.583052  0.143925
0.808027  0.601420  0.137569
0.217374  0.262524  0.241160
0.227768  0.260892  0.229543
0.265564  0.291733  0.256016
0.293979  0.309557  0.263378
0.329713  0.321691  0.241163
0.395285  0.368202  0.245861
0.432025  0.378351  0.208229
0.486942  0.404227  0.210002
0.530827  0.440592  0.198961
0.571738  0.451160  0.162014
0.622735  0.487278  0.168145
0.708573  0.541983  0.151586
0.736468  0.568680  0.166033
0.792671  0.606177  0.133165
0.852260  0.643614  0.146743
0.221448  0.266501  0.250052
0.272892  0.303841  0.267229
0.299935  0.323456  0.278644
0.330719  0.335772  0.268327
0.366683  0.347470  0.241953
0.432779  0.383043  0.213658
0.464746  0.405136  0.231232
0.528076  0.434816  0.214712
0.560515  0.461365  0.220832
0.608731  0.487611  0.186851
0.692375  0.545319  0.160602
0.714225  0.566755  0.184011
0.784343  0.604128  0.168902
0.808993  0.619819  0.173264
0.863193  0.641713  0.168100
0.269581  0.297707  0.262037
0.291912  0.313955  0.277440
0.321526  0.344113  0.278070
0.362117  0.360802  0.262177
0.413962  0.388022  0.250619
0.453281  0.410519  0.265412
0.506743  0.438009  0.234395
0.545822  0.471016  0.214963
0.583703  0.494692  0.234798
0.663842  0.544049  0.186030
0.723905  0.581980  0.170352
0.752954  0.599603  0.177886
0.782956  0.621418  0.186191
0.856649  0.664432  0.189851
0.913211  0.692968  0.183580
0.285891  0.324648  0.298566
0.335657  0.348143  0.277611
0.381055  0.370545  0.267724
0.404008  0.380864  0.264738
0.478228  0.415976  0.257096
0.511982  0.445942  0.248373
0.529182  0.457643  0.246796
0.596756  0.501239  0.235816
0.646100  0.532675  0.199782
0.666483  0.559705  0.199461
0.742418  0.604266  0.169772
0.791780  0.641562  0.169412
0.816406  0.653108  0.179379
0.887786  0.704605  0.189577
