LUT/LUT_20.CUBE
TITLE "LUT_20" 
#LUT size 
LUT_3D_SIZE 8 
DOMAIN_MIN 0.0 0.0 0.0 
DOMAIN_MAX 1.0 1.0 1.0 
#data point 
0.056395  0.058741  0.026773
0.094479  0.090427  0.045489
0.186595  0.165623  0.068467
0.319674  0.237171  0.052949
0.427698  0.291502  0.051637
0.539579  0.331328  0.047793
0.653664  0.386256  0.046177
0.784559  0.428482  0.047236
0.104272  0.097307  0.047068
0.132861  0.121677  0.058693
0.244089  0.201804  0.072864
0.363869  0.270140  0.069319
0.463229  0.322588  0.062797
0.564396  0.366367  0.057510
0.688104  0.429877  0.057277
0.814477  0.475200  0.053100
0.148339  0.135406  0.073212
0.216746  0.185200  0.086202
0.300023  0.237363  0.075812
0.402211  0.304902  0.070943
0.516607  0.366395  0.061809
0.608092  0.424915  0.062666
0.727291  0.470038  0.052421
0.850539  0.516864  0.055143
0.223631  0.198269  0.085547
0.306438  0.252750  0.096173
0.384157  0.299524  0.077252
0.452242  0.355524  0.075562
0.551344  0.416366  0.068548
0.660459  0.487440  0.065244
0.760860  0.529288  0.059971
0.897890  0.574961  0.065750
0.302895  0.251837  0.105316
0.381105  0.307739  0.071506
0.467955  0.378660  0.084817
0.527712  0.426687  0.070327
0.607055  0.504903  0.075291
0.695004  0.561198  0.071631
0.816436  0.611417  0.072689
0.933084  0.663188  0.067930
0.379008  0.317744  0.096830
0.456817  0.393635  0.084584
0.551449  0.450745  0.077355
0.601441  0.505384  0.086601
0.697973  0.586949  0.071248
0.770401  0.649717  0.067817
0.864866  0.703163  0.073206
0.957624  0.739196  0.079913
0.460133  0.384681  0.082950
0.533414  0.443120  0.072254
0.609241  0.518386  0.084951
0.683501  0.582559  0.071423
0.758046  0.636418  0.074289
0.830713  0.686164  0.074685
0.911048  0.750958  0.083765
1.023933  0.801209  0.085271
0.536996  0.455147  0.077160
0.598234  0.514277  0.079788
0.680345  0.579073  0.072814
0.740756  0.627819  0.081718
0.808070  0.683130  0.067847
0.887316  0.729226  0.080861
0.972240  0.785172  0.087873
1.072031  0.851507  0.078329
0.092276  0.085326  0.039210
0.114930  0.109181  0.061421
0.192930  0.168796  0.079228
0.310137  0.240800  0.062830
0.433758  0.299472  0.053920
0.530750  0.343608  0.052176
0.642444  0.394984  0.047151
0.784876  0.429412  0.042561
0.122709  0.124841  0.078304
0.157208  0.152294  0.103459
0.227100  0.207109  0.108768
0.348594  0.282438  0.089891
0.466803  0.332994  0.077361
0.564597  0.389617  0.062859
0.700212  0.433766  0.058186
0.802053  0.476972  0.052008
0.152192  0.175109  0.146189
0.206711  0.207048  0.152155
0.289089  0.258070  0.141154
0.392097  0.315547  0.134853
0.501374  0.382599  0.113363
0.611749  0.434702  0.102304
0.726069  0.483831  0.079205
0.846639  0.540568  0.065876
0.208015  0.224498  0.183477
0.275954  0.270256  0.186720
0.354097  0.317618  0.171459
0.457418  0.374368  0.155363
0.538956  0.426986  0.132558
0.651352  0.494666  0.131692
0.768496  0.536964  0.126199
0.885613  0.584117  0.090725
0.276331  0.275685  0.198990
0.353261  0.315828  0.186655
0.430690  0.380802  0.192262
0.529605  0.447951  0.163901
0.631041  0.509130  0.123086
0.717890  0.565980  0.121040
0.812243  0.612620  0.131108
0.929550  0.664887  0.112995
0.364759  0.333021  0.197639
0.428496  0.388528  0.207374
0.518623  0.442575  0.159551
0.591574  0.512667  0.159943
0.680186  0.583022  0.116504
0.761332  0.634835  0.132224
0.859990  0.710931  0.130321
0.978361  0.756942  0.127234
0.444111  0.380331  0.199074
0.513828  0.441608  0.173340
0.585632  0.506116  0.180382
0.667536  0.564851  0.138668
0.751133  0.637239  0.137924
0.815528  0.688325  0.137911
0.913545  0.753040  0.130103
1.008683  0.792934  0.126314
0.500565  0.442981  0.206425
0.589766  0.517554  0.170446
0.679021  0.565088  0.148344
0.742434  0.634922  0.135468
0.801700  0.680147  0.139677
0.898129  0.747811  0.126600
0.962032  0.796461  0.142292
1.072191  0.850706  0.135811
0.126456  0.139849  0.113535
0.144851  0.163347  0.126275
0.193376  0.201224  0.140955
0.324051  0.267336  0.118120
0.441648  0.315365  0.087263
0.542850  0.374229  0.091829
0.663859  0.421048  0.079123
0.770051  0.456121  0.070847
0.157405  0.185021  0.165268
0.179984  0.217591  0.202426
0.229463  0.257682  0.218700
0.344396  0.303828  0.177155
0.479436  0.367012  0.138720
0.562428  0.408086  0.134225
0.679295  0.467941  0.116617
0.807111  0.517340  0.108886
0.198935  0.238221  0.236257
0.216245  0.269713  0.271800
0.245859  0.277354  0.255500
0.378080  0.363495  0.251640
0.498548  0.408857  0.224155
0.607973  0.458868  0.164933
0.731202  0.520719  0.157932
0.842945  0.565176  0.151474
0.206718  0.277177  0.284641
0.260671  0.320552  0.317211
0.319248  0.346738  0.314236
0.415745  0.403594  0.319910
0.532496  0.459630  0.266495
0.643777  0.505136  0.227314
0.759940  0.564591  0.216617
0.866919  0.617600  0.198338
0.255192  0.321437  0.321035
0.335043  0.367161  0.333093
0.403978  0.408068  0.326866
0.492266  0.460371  0.332714
0.584130  0.510207  0.304063
0.699048  0.575622  0.290611
0.822217  0.643914  0.247199
0.932938  0.682123  0.253959
0.318550  0.371797  0.362880
0.396819  0.415970  0.363019
0.477614  0.460652  0.336952
0.568783  0.517296  0.324047
0.664755  0.593008  0.315996
0.759114  0.644193  0.283359
0.864724  0.708466  0.265535
0.970424  0.752325  0.262650
0.376081  0.404400  0.358444
0.461761  0.461806  0.354389
0.559533  0.522427  0.332330
0.632800  0.573836  0.335799
0.729401  0.641906  0.318206
0.811284  0.698232  0.310762
0.916905  0.747949  0.260977
1.023715  0.805868  0.249323
0.446466  0.453425  0.364011
0.564713  0.519453  0.346998
0.630488  0.578678  0.331258
0.713018  0.630732  0.320766
0.781853  0.682383  0.314129
0.890271  0.741671  0.281137
0.968863  0.788826  0.284856
1.069288  0.851828  0.262535
0.156846  0.190867  0.179931
0.177410  0.220108  0.208367
0.211051  0.253760  0.239977
0.301026  0.301080  0.234941
0.443334  0.358349  0.175850
0.549879  0.407576  0.151201
0.659153  0.452928  0.147814
0.775582  0.497006  0.139014
0.176790  0.222795  0.218401
0.212596  0.267700  0.264026
0.256659  0.308563  0.297851
0.337245  0.351833  0.298728
0.466915  0.406355  0.231551
0.573121  0.453138  0.222779
0.688412  0.495219  0.186514
0.807409  0.555649  0.195933
0.220717  0.276037  0.284384
0.248442  0.319110  0.324327
0.282123  0.362040  0.371233
0.396320  0.413253  0.360256
0.473541  0.456612  0.358978
0.613631  0.498586  0.279440
0.724278  0.567780  0.269098
0.849926  0.608386  0.260831
0.247691  0.323908  0.348250
0.288934  0.369846  0.385344
0.307965  0.401550  0.424032
0.403877  0.437981  0.408061
0.507108  0.497845  0.392135
0.649449  0.558374  0.348556
0.748458  0.609539  0.329449
0.880799  0.655255  0.310842
0.287497  0.383767  0.407605
0.339103  0.424893  0.448959
0.370983  0.451703  0.457136
0.474322  0.498849  0.447698
0.551775  0.564025  0.474027
0.663393  0.598975  0.404749
0.792629  0.662686  0.391690
0.912831  0.732877  0.362081
0.324925  0.423972  0.456113
0.369628  0.451087  0.468460
0.457829  0.494204  0.459344
0.526121  0.547181  0.481487
0.614772  0.601980  0.480434
0.723770  0.666810  0.486378
0.858068  0.727993  0.438123
0.942824  0.769443  0.419892
0.360074  0.464087  0.502965
0.428683  0.508301  0.501226
0.521248  0.537934  0.475222
0.604149  0.596363  0.490886
0.701805  0.652044  0.484788
0.797545  0.710594  0.450062
0.898439  0.771506  0.453375
1.011252  0.825558  0.467772
0.400624  0.498185  0.524884
0.496543  0.531582  0.490494
0.578841  0.582583  0.501583
0.674501  0.642143  0.486594
0.795486  0.715135  0.468862
0.864039  0.754366  0.453973
0.964563  0.808924  0.482513
1.064958  0.856443  0.470928
0.171932  0.230148  0.238908
0.215273  0.276881  0.294640
0.240334  0.307506  0.315943
0.318077  0.348056  0.308849
0.421431  0.400209  0.295006
0.556579  0.453153  0.245118
0.682921  0.511268  0.228309
0.795177  0.527077  0.191371
0.218294  0.279771  0.299805
0.244689  0.314340  0.335742
0.268809  0.351274  0.373631
0.341474  0.405536  0.400613
0.431796  0.448354  0.374855
0.561362  0.488931  0.327743
0.683268  0.543200  0.275816
0.802344  0.587031  0.262388
0.260357  0.344155  0.363632
0.284864  0.369738  0.393539
0.310736  0.403392  0.426409
0.383354  0.461241  0.461882
0.471416  0.500378  0.443291
0.580071  0.543512  0.415887
0.717551  0.604232  0.366568
0.841276  0.645165  0.338717
0.288707  0.376981  0.404541
0.321041  0.414700  0.445311
0.350696  0.457840  0.491556
0.378807  0.491427  0.521018
0.510457  0.544028  0.497911
0.617570  0.599646  0.488595
0.747247  0.652782  0.445877
0.864275  0.694344  0.402113
0.327558  0.428645  0.458252
0.358974  0.473071  0.508663
0.398111  0.510692  0.545911
0.448946  0.561538  0.590264
0.546026  0.598581  0.561480
0.654681  0.657000  0.567496
0.784611  0.707400  0.505816
0.909772  0.769242  0.477104
0.356468  0.471844  0.510219
0.391012  0.507538  0.536730
0.440062  0.557509  0.595020
0.487917  0.598126  0.622165
0.595019  0.635190  0.586819
0.702062  0.702099  0.616696
0.820037  0.754614  0.597034
0.946532  0.807973  0.547384
0.396323  0.512964  0.554210
0.428689  0.557670  0.591590
0.475937  0.600856  0.630729
0.566987  0.633541  0.622304
0.685371  0.689020  0.600696
0.769010  0.749067  0.632176
0.888488  0.794317  0.606413
1.007580  0.853176  0.587022
0.441075  0.562469  0.607660
0.476430  0.598491  0.636585
0.547058  0.633532  0.633933
0.649685  0.679946  0.626618
0.747795  0.733085  0.623360
0.842855  0.774231  0.618663
0.949511  0.834673  0.620051
1.054277  0.880792  0.605969
0.226259  0.299442  0.322105
0.244064  0.325240  0.347615
0.274626  0.367167  0.399352
0.318189  0.392791  0.398702
0.430761  0.444251  0.373760
0.526533  0.490325  0.363334
0.659957  0.528229  0.313511
0.801741  0.575305  0.288974
0.257231  0.346588  0.371985
0.280874  0.377332  0.411198
0.310771  0.413998  0.444515
0.358344  0.443819  0.468039
0.464794  0.500652  0.464718
0.559366  0.546604  0.452435
0.685190  0.600774  0.406675
0.821816  0.634658  0.363527
0.295571  0.393251  0.429448
0.330134  0.432678  0.466267
0.372451  0.475171  0.513608
0.398780  0.502144  0.529638
0.469080  0.539286  0.534434
0.594308  0.611219  0.530101
0.705679  0.644354  0.477247
0.842860  0.697690  0.447342
0.322246  0.429051  0.472519
0.363058  0.470339  0.509466
0.407781  0.527028  0.559287
0.430510  0.556771  0.588460
0.485056  0.597218  0.618192
0.618592  0.637131  0.568665
0.734045  0.693847  0.543203
0.862482  0.760376  0.544509
0.367242  0.483935  0.525010
0.394853  0.520061  0.570831
0.438849  0.564035  0.602131
0.472637  0.602643  0.637753
0.530279  0.652611  0.682993
0.639027  0.688402  0.644232
0.764420  0.737878  0.621511
0.913898  0.809835  0.602552
0.403710  0.523967  0.562370
0.434371  0.560789  0.604074
0.478079  0.606697  0.643786
0.517043  0.641785  0.678515
0.576639  0.706733  0.735016
0.693153  0.751172  0.720089
0.818072  0.802983  0.695238
0.942697  0.842316  0.664072
0.445172  0.574954  0.612557
0.487795  0.611987  0.649059
0.541122  0.668603  0.696579
0.560923  0.691334  0.723590
0.634488  0.740942  0.756781
0.735127  0.780870  0.750340
0.870889  0.838749  0.729112
0.979488  0.874310  0.708803
0.483033  0.614902  0.650959
0.513575  0.644790  0.685201
0.556224  0.695635  0.745955
0.601845  0.730093  0.755750
0.701791  0.779097  0.777121
0.829825  0.822761  0.743291
0.919017  0.861188  0.746251
1.025760  0.910661  0.737178
0.261292  0.362959  0.388663
0.292800  0.390452  0.426921
0.325239  0.427172  0.465171
0.352863  0.466043  0.506978
0.418080  0.492591  0.485960
0.524753  0.531487  0.472261
0.647427  0.583446  0.412799
0.782355  0.629019  0.384997
0.304540  0.409898  0.446596
0.327440  0.433854  0.475390
0.359801  0.473972  0.512932
0.401770  0.519233  0.559450
0.440024  0.549998  0.571390
0.559867  0.585576  0.512581
0.670850  0.639987  0.510468
0.812447  0.687192  0.459529
0.331526  0.444705  0.485156
0.370391  0.486126  0.528193
0.410855  0.520322  0.560122
0.440051  0.563639  0.604976
0.479839  0.607219  0.637501
0.596265  0.649583  0.605483
0.704585  0.692756  0.592076
0.820986  0.741922  0.561009
0.369786  0.493299  0.530242
0.398957  0.513203  0.552782
0.449681  0.568088  0.612309
0.492885  0.623339  0.659031
0.538630  0.668699  0.694694
0.602858  0.690813  0.687976
0.749601  0.746626  0.650385
0.866806  0.799185  0.633501
0.400068  0.525166  0.566420
0.451331  0.578667  0.614013
0.486060  0.613094  0.650297
0.533068  0.669896  0.716804
0.572740  0.717973  0.765097
0.636921  0.740518  0.749848
0.774858  0.777633  0.697950
0.900218  0.837229  0.700542
0.437883  0.572789  0.615999
0.489336  0.614989  0.653803
0.532015  0.667539  0.706710
0.584317  0.719358  0.769849
0.615208  0.756616  0.808962
0.678748  0.798747  0.843650
0.793212  0.834985  0.811361
0.933776  0.868983  0.752592
0.488605  0.621197  0.664129
0.521689  0.656756  0.694715
0.558308  0.696485  0.748443
0.616117  0.756707  0.811402
0.665036  0.791302  0.835907
0.728867  0.845349  0.886251
0.830765  0.893157  0.892553
0.970444  0.910009  0.807196
0.521842  0.659275  0.704868
0.552168  0.699226  0.745983
0.594605  0.736267  0.797512
0.654748  0.790929  0.848335
0.707243  0.823667  0.875084
0.781384  0.880065  0.913913
0.875588  0.925755  0.928034
1.005723  0.948437  0.868562
0.299958  0.418283  0.463926
0.324451  0.442816  0.491551
0.363659  0.488698  0.538640
0.403134  0.523446  0.567917
0.442737  0.570926  0.615511
0.518118  0.594374  0.577049
0.651390  0.635346  0.531604
0.799059  0.688650  0.496378
0.328037  0.454523  0.500532
0.368223  0.489870  0.537909
0.412734  0.537773  0.581249
0.448209  0.579715  0.616971
0.490564  0.620987  0.659238
0.542946  0.658741  0.673853
0.656994  0.690876  0.630359
0.803428  0.736508  0.570933
0.369773  0.492606  0.541596
0.406992  0.534312  0.579666
0.448650  0.579374  0.623641
0.503871  0.633941  0.674202
0.533376  0.678443  0.731556
0.590576  0.722475  0.763252
0.697441  0.738164  0.689925
0.843410  0.790210  0.657040
0.409916  0.539774  0.584008
0.442921  0.575861  0.618537
0.494921  0.629694  0.665549
0.542290  0.686704  0.728768
0.571326  0.714424  0.777303
0.620923  0.751187  0.801003
0.706596  0.800171  0.816461
0.849035  0.827232  0.727721
0.436795  0.571531  0.614244
0.487080  0.619395  0.659859
0.525981  0.669559  0.706984
0.562075  0.711378  0.772479
0.604761  0.749692  0.809514
0.668432  0.795356  0.843751
0.744929  0.857902  0.895234
0.875714  0.880999  0.833328
0.474887  0.607164  0.640976
0.518737  0.650884  0.693892
0.562213  0.708186  0.761985
0.601528  0.746253  0.803826
0.642969  0.783025  0.842694
0.721798  0.838320  0.881710
0.797079  0.889325  0.924065
0.883735  0.924425  0.925661
0.519012  0.663240  0.702473
0.557080  0.700824  0.760740
0.586131  0.736502  0.801918
0.643767  0.771556  0.828546
0.699374  0.814194  0.868251
0.774554  0.877360  0.914150
0.840942  0.915299  0.944726
0.927478  0.965862  0.972354
0.546751  0.691777  0.744873
0.572706  0.721703  0.790688
0.629301  0.770894  0.832017
0.689779  0.817801  0.866494
0.750384  0.850289  0.897288
0.832973  0.908167  0.935478
0.897016  0.944062  0.967143
0.969367  0.982450  0.999510
