LUT/LUT_10.CUBE
TITLE "LUT_10" 
#LUT size 
LUT_3D_SIZE 8 
DOMAIN_MIN 0.0 0.0 0.0 
DOMAIN_MAX 1.0 1.0 1.0 
#data point 
0.037560  0.035551  0.015642
0.096633  0.086182  0.039402
0.213193  0.155511  0.045768
0.344513  0.204201  0.029413
0.461796  0.238773  0.023750
0.591049  0.268414  0.020516
0.725525  0.295047  0.020741
0.855049  0.311749  0.008377
0.093526  0.087898  0.042518
0.136949  0.122213  0.053696
0.261715  0.196724  0.050787
0.370423  0.245454  0.044042
0.489940  0.291374  0.046375
0.608044  0.320695  0.034603
0.750349  0.364546  0.029907
0.875789  0.386728  0.028219
0.147761  0.133877  0.071458
0.224819  0.187713  0.077349
0.309132  0.246532  0.059134
0.410289  0.296321  0.059689
0.534361  0.340580  0.049855
0.640359  0.386299  0.048627
0.779012  0.407900  0.045742
0.904947  0.452847  0.046144
0.231663  0.202017  0.080852
0.306382  0.257166  0.065658
0.374383  0.322068  0.061196
0.458977  0.379097  0.058471
0.565038  0.419730  0.054981
0.677872  0.469933  0.046647
0.802177  0.485637  0.044606
0.937211  0.509884  0.051764
0.297170  0.271168  0.087520
0.376702  0.341481  0.064538
0.448491  0.409835  0.064453
0.524848  0.466314  0.059633
0.608137  0.521551  0.056598
0.705079  0.569080  0.054410
0.831944  0.591009  0.053467
0.951338  0.626824  0.062672
0.368145  0.348896  0.074796
0.445574  0.414398  0.062892
0.529291  0.484001  0.064322
0.587761  0.538415  0.068031
0.679143  0.604289  0.053362
0.759158  0.660556  0.062354
0.856819  0.705270  0.061667
0.973097  0.733391  0.067597
0.432667  0.424650  0.073992
0.503996  0.487672  0.059650
0.579066  0.552664  0.054987
0.649412  0.606003  0.058599
0.738172  0.659708  0.060506
0.814738  0.712920  0.064754
0.903268  0.762854  0.065559
1.019554  0.814845  0.066899
0.494393  0.498539  0.063679
0.565596  0.554424  0.063946
0.645666  0.610266  0.065797
0.712728  0.663017  0.066359
0.788179  0.710381  0.060739
0.874688  0.763337  0.062848
0.966851  0.816878  0.069601
1.074751  0.867245  0.065430
0.072831  0.077124  0.047254
0.114503  0.110795  0.057766
0.208214  0.168703  0.063109
0.328276  0.221800  0.046521
0.467028  0.258683  0.040621
0.579407  0.274054  0.034152
0.708159  0.308679  0.028097
0.855602  0.324482  0.029103
0.102098  0.123922  0.102549
0.147503  0.154257  0.123413
0.239452  0.211964  0.110765
0.370642  0.270148  0.085909
0.483637  0.314688  0.075115
0.607636  0.350685  0.055653
0.743829  0.374677  0.045620
0.867427  0.397933  0.036791
0.143508  0.174477  0.162087
0.209787  0.213337  0.155764
0.298278  0.266748  0.145034
0.404051  0.307596  0.138403
0.515755  0.364985  0.111277
0.639797  0.408069  0.101864
0.770597  0.442595  0.085666
0.901191  0.477327  0.065191
0.201287  0.228889  0.192532
0.289913  0.278741  0.183837
0.364793  0.333551  0.161843
0.454721  0.386310  0.143816
0.552770  0.427724  0.131325
0.672863  0.476296  0.130063
0.799235  0.501277  0.124988
0.926713  0.545596  0.096619
0.278613  0.285898  0.201259
0.353823  0.342894  0.175207
0.430419  0.399973  0.185054
0.511844  0.475176  0.155338
0.606779  0.531685  0.117777
0.715286  0.565053  0.137138
0.827915  0.602899  0.137889
0.963219  0.628385  0.126484
0.357511  0.348849  0.200536
0.423835  0.419669  0.191854
0.498552  0.476265  0.166111
0.569285  0.541884  0.166953
0.666820  0.606209  0.133510
0.754358  0.659441  0.139133
0.852155  0.708405  0.135288
0.992245  0.743596  0.130074
0.427567  0.424925  0.191090
0.491651  0.479231  0.166139
0.556912  0.539381  0.171029
0.635269  0.607839  0.145766
0.730823  0.661079  0.139714
0.811097  0.713245  0.152597
0.907996  0.774751  0.136453
1.005500  0.818383  0.127258
0.477890  0.486598  0.192023
0.558273  0.564769  0.170795
0.637720  0.611738  0.155075
0.709248  0.662254  0.141399
0.794210  0.722966  0.145084
0.875841  0.767282  0.141879
0.957676  0.819903  0.147861
1.059471  0.870899  0.147910
0.103488  0.135468  0.130962
0.131672  0.161671  0.150400
0.204239  0.205128  0.147818
0.334505  0.255996  0.126096
0.469195  0.290746  0.102206
0.582374  0.321283  0.099920
0.715434  0.343093  0.082888
0.848574  0.353521  0.082914
0.134976  0.180306  0.183279
0.158972  0.210790  0.215540
0.230122  0.259558  0.225378
0.354372  0.301408  0.182222
0.498468  0.347618  0.152016
0.597254  0.381489  0.149806
0.727908  0.422356  0.128490
0.860941  0.444102  0.118835
0.167640  0.234101  0.251055
0.199143  0.262093  0.276173
0.258288  0.285418  0.258365
0.383752  0.359662  0.255248
0.508773  0.402407  0.217234
0.635416  0.433401  0.192186
0.762170  0.491914  0.175614
0.883061  0.512098  0.170573
0.196634  0.275889  0.300074
0.257245  0.319710  0.319183
0.329504  0.352715  0.307403
0.425418  0.407874  0.304114
0.548468  0.449029  0.268187
0.664165  0.496577  0.244141
0.784922  0.540351  0.226148
0.908110  0.572316  0.218405
0.242212  0.321405  0.336538
0.332079  0.368170  0.336231
0.410451  0.416616  0.322735
0.491895  0.479223  0.311974
0.593717  0.533500  0.295614
0.702105  0.573600  0.280598
0.829816  0.624686  0.255754
0.957324  0.647468  0.258797
0.320149  0.376929  0.363454
0.404133  0.425760  0.350866
0.484314  0.484875  0.330259
0.555841  0.550015  0.313497
0.654097  0.615552  0.308627
0.752528  0.666211  0.290253
0.861669  0.702634  0.270871
0.986622  0.742793  0.280343
0.380051  0.412530  0.356263
0.459032  0.478705  0.337867
0.553765  0.549597  0.329433
0.620459  0.604316  0.318759
0.712413  0.672129  0.310445
0.806585  0.719555  0.297517
0.907272  0.780458  0.266503
1.014463  0.819804  0.260591
0.452330  0.480335  0.351146
0.541021  0.556002  0.325010
0.611601  0.612023  0.311463
0.689367  0.660384  0.316552
0.766947  0.715518  0.307720
0.876952  0.783252  0.299459
0.947257  0.825600  0.294896
1.059316  0.882772  0.273477
0.129642  0.177933  0.190368
0.152204  0.209726  0.224347
0.212766  0.259965  0.245274
0.321247  0.304296  0.229619
0.457258  0.338025  0.180544
0.588532  0.358108  0.168921
0.717212  0.373159  0.169972
0.840644  0.392343  0.177839
0.157298  0.219553  0.238738
0.191626  0.262633  0.282599
0.242177  0.310122  0.319235
0.339679  0.347362  0.291932
0.484489  0.397658  0.245733
0.594670  0.423011  0.239059
0.720454  0.441708  0.211349
0.850678  0.479896  0.214836
0.197099  0.278113  0.304868
0.232727  0.311932  0.333965
0.277354  0.358348  0.381090
0.386203  0.410252  0.355052
0.480513  0.450413  0.341009
0.633077  0.484651  0.283291
0.747490  0.525494  0.262520
0.880156  0.561908  0.274264
0.235019  0.324105  0.357235
0.269296  0.366048  0.400460
0.309873  0.407135  0.430115
0.410077  0.446017  0.407874
0.520932  0.497042  0.388638
0.668731  0.540251  0.339039
0.775375  0.583222  0.344094
0.906401  0.624020  0.323073
0.271049  0.377484  0.418542
0.307785  0.416097  0.451019
0.374589  0.456529  0.458261
0.468751  0.499595  0.444999
0.556081  0.559390  0.466512
0.683614  0.597902  0.415948
0.810679  0.647304  0.394853
0.929889  0.691655  0.373724
0.304126  0.416919  0.466437
0.361950  0.453442  0.476141
0.469401  0.507061  0.460155
0.533898  0.550944  0.467625
0.630217  0.618130  0.465754
0.732461  0.677217  0.457547
0.853860  0.735033  0.431404
0.964373  0.754895  0.423456
0.345469  0.455297  0.499469
0.427678  0.506742  0.499784
0.522537  0.552240  0.478890
0.603443  0.609843  0.470289
0.696827  0.682064  0.455475
0.789464  0.730414  0.444625
0.891212  0.788949  0.455379
1.014576  0.833536  0.453093
0.394955  0.494795  0.519996
0.501598  0.542909  0.488384
0.591794  0.614268  0.477715
0.669901  0.668569  0.464191
0.781552  0.729646  0.447982
0.852001  0.778181  0.445411
0.950248  0.829575  0.470213
1.055456  0.886370  0.446696
0.145633  0.225982  0.272178
0.185949  0.270564  0.314787
0.229437  0.311118  0.325974
0.327030  0.351724  0.313321
0.442479  0.388891  0.297583
0.586192  0.407330  0.262972
0.737304  0.428227  0.261538
0.859609  0.421447  0.245455
0.193277  0.282408  0.324322
0.227305  0.313310  0.349278
0.257337  0.348225  0.373926
0.347559  0.400655  0.381337
0.455371  0.443216  0.373655
0.588863  0.478557  0.332853
0.720616  0.498699  0.301798
0.860571  0.518777  0.296204
0.231120  0.336250  0.384623
0.262529  0.364910  0.407440
0.298032  0.405525  0.442766
0.383997  0.454607  0.457966
0.482293  0.492648  0.433892
0.605910  0.541260  0.414059
0.743006  0.569573  0.368293
0.876225  0.595323  0.355214
0.265966  0.376436  0.425333
0.310161  0.411011  0.459495
0.337292  0.461814  0.495953
0.387734  0.491893  0.520739
0.511782  0.545604  0.499173
0.627864  0.594728  0.480384
0.762729  0.636078  0.445463
0.894613  0.669515  0.417959
0.309210  0.425836  0.474106
0.348278  0.462513  0.512609
0.390692  0.509918  0.549593
0.439019  0.554584  0.588486
0.564656  0.600065  0.557168
0.664305  0.647624  0.549799
0.801861  0.690279  0.489940
0.928976  0.735694  0.479756
0.343195  0.467936  0.520592
0.375487  0.506360  0.552180
0.433488  0.557332  0.601657
0.493453  0.599361  0.617289
0.605602  0.638309  0.594031
0.711582  0.705911  0.601147
0.825482  0.749313  0.575663
0.956526  0.795542  0.537034
0.379210  0.509990  0.564050
0.417814  0.549904  0.600227
0.480218  0.597167  0.629744
0.572133  0.638495  0.611567
0.685778  0.698258  0.596150
0.773076  0.743557  0.614305
0.886400  0.796875  0.596071
1.006396  0.857936  0.579072
0.419770  0.558182  0.615136
0.463875  0.593655  0.639534
0.557196  0.636923  0.626906
0.661169  0.682282  0.616986
0.751719  0.739068  0.610149
0.841287  0.788342  0.602250
0.946190  0.848455  0.602572
1.057657  0.892926  0.598974
0.159208  0.293931  0.371244
0.202568  0.326252  0.387432
0.250057  0.364127  0.417828
0.327399  0.400916  0.405882
0.449279  0.432733  0.374413
0.569005  0.452668  0.374472
0.707375  0.457165  0.350310
0.863368  0.454803  0.350259
0.205334  0.336815  0.412031
0.257399  0.376698  0.441256
0.301930  0.412302  0.462897
0.352842  0.445116  0.479095
0.459577  0.486225  0.451606
0.575835  0.528937  0.441925
0.712576  0.563011  0.420504
0.861941  0.573101  0.395853
0.256458  0.386096  0.450658
0.307193  0.424587  0.479403
0.339237  0.467211  0.515578
0.390050  0.504561  0.535759
0.476599  0.540935  0.525669
0.606534  0.596461  0.516226
0.729643  0.628797  0.478927
0.876229  0.651627  0.447829
0.298652  0.431711  0.490911
0.346848  0.477019  0.531843
0.388417  0.519370  0.566636
0.424636  0.551725  0.585442
0.494918  0.594252  0.604842
0.624594  0.633732  0.562929
0.751192  0.686761  0.540634
0.884560  0.730419  0.533174
0.335830  0.482549  0.540243
0.385463  0.522655  0.574645
0.428627  0.566211  0.609480
0.471001  0.607338  0.643133
0.530291  0.653208  0.678774
0.651263  0.693832  0.639711
0.775392  0.740049  0.615318
0.920443  0.794786  0.593949
0.373964  0.524090  0.583771
0.416311  0.563172  0.612822
0.470229  0.603198  0.647908
0.517750  0.651564  0.698085
0.579007  0.703373  0.728824
0.697735  0.743098  0.706037
0.824735  0.795142  0.681342
0.948922  0.842812  0.658732
0.415124  0.566650  0.627700
0.467416  0.615152  0.666902
0.513018  0.660827  0.715685
0.558152  0.689622  0.724760
0.633576  0.741581  0.752327
0.749355  0.782795  0.738700
0.870907  0.833184  0.725212
0.974435  0.873003  0.710577
0.448054  0.614879  0.680799
0.485869  0.654806  0.717295
0.529118  0.691880  0.758766
0.612335  0.730502  0.764527
0.703316  0.779755  0.775137
0.827391  0.820903  0.737978
0.928652  0.871937  0.742730
1.032803  0.913670  0.734543
0.128282  0.341410  0.487197
0.211815  0.387450  0.486500
0.265554  0.423868  0.509506
0.328237  0.467318  0.528126
0.428663  0.486938  0.490239
0.565304  0.496902  0.472812
0.706104  0.491327  0.461895
0.850730  0.489708  0.465720
0.204092  0.404908  0.515758
0.270278  0.429786  0.516559
0.320433  0.470933  0.540477
0.375619  0.519867  0.581532
0.441881  0.540319  0.559081
0.583112  0.577008  0.513640
0.708637  0.594097  0.508285
0.842728  0.610070  0.500175
0.261852  0.441612  0.534596
0.325642  0.480590  0.549951
0.379213  0.524025  0.584454
0.419728  0.570703  0.623015
0.478502  0.608252  0.641492
0.600486  0.639884  0.597105
0.712361  0.678570  0.585178
0.852749  0.709452  0.563933
0.321635  0.488676  0.563377
0.375960  0.519302  0.580485
0.428979  0.574900  0.627493
0.472875  0.623097  0.675492
0.526164  0.670045  0.715302
0.613425  0.692192  0.669060
0.750304  0.742117  0.638951
0.879441  0.776886  0.620880
0.358464  0.526246  0.601918
0.420561  0.573469  0.636731
0.464333  0.611219  0.667623
0.510357  0.672643  0.737733
0.557045  0.712012  0.776965
0.643575  0.748216  0.753738
0.786905  0.787291  0.705229
0.905371  0.833735  0.698268
0.407228  0.577551  0.651473
0.457165  0.610492  0.674722
0.509292  0.666111  0.729950
0.549350  0.710878  0.777873
0.597203  0.747877  0.820598
0.678918  0.793551  0.833023
0.800499  0.834270  0.798468
0.937753  0.874085  0.756516
0.437399  0.616989  0.696724
0.482693  0.659555  0.726556
0.537764  0.702047  0.776250
0.595749  0.746593  0.826176
0.646521  0.783601  0.846502
0.724355  0.839761  0.883688
0.834361  0.883473  0.877488
0.973193  0.911567  0.810411
0.468977  0.654860  0.737629
0.519738  0.695959  0.779733
0.571238  0.733154  0.812205
0.625212  0.774830  0.852869
0.696556  0.816744  0.876501
0.784923  0.882258  0.915200
0.892137  0.924103  0.905275
1.012506  0.954316  0.868483
0.108524  0.362653  0.619708
0.177068  0.415641  0.623259
0.257173  0.471813  0.634614
0.311172  0.509100  0.649853
0.388829  0.549132  0.654504
0.542529  0.545050  0.608425
0.719382  0.528017  0.583769
0.873340  0.523225  0.574787
0.167353  0.435010  0.633347
0.262442  0.488121  0.617267
0.335855  0.531891  0.642339
0.382216  0.574598  0.674130
0.440708  0.617875  0.699404
0.552864  0.658785  0.676834
0.687203  0.653041  0.628355
0.851594  0.650782  0.601576
0.250690  0.484839  0.634744
0.332986  0.540303  0.643871
0.400421  0.585051  0.673849
0.454403  0.629544  0.710204
0.495074  0.672953  0.754362
0.579432  0.715209  0.757960
0.706559  0.734327  0.695643
0.856282  0.764099  0.659013
0.319721  0.528860  0.643537
0.393097  0.577049  0.660735
0.450095  0.626281  0.704887
0.494964  0.673990  0.756236
0.534760  0.713299  0.792162
0.612435  0.752855  0.824786
0.708566  0.795344  0.807263
0.866240  0.827985  0.729935
0.373130  0.569920  0.672857
0.443098  0.618331  0.692243
0.485408  0.662685  0.736533
0.539202  0.705658  0.777599
0.582334  0.739458  0.819646
0.649882  0.789738  0.858972
0.742528  0.850366  0.894790
0.885331  0.880855  0.824370
0.414804  0.608662  0.704747
0.480676  0.657195  0.735573
0.524759  0.697666  0.780289
0.576046  0.743401  0.820008
0.634761  0.775091  0.856193
0.711262  0.833729  0.884427
0.794985  0.892625  0.926614
0.895994  0.926513  0.923537
0.459865  0.649333  0.753536
0.517015  0.691762  0.786232
0.568110  0.729873  0.813245
0.620972  0.768761  0.846307
0.684677  0.806277  0.872026
0.761504  0.870604  0.914201
0.842394  0.920297  0.946859
0.939037  0.968771  0.985205
0.490208  0.676080  0.784727
0.543050  0.717938  0.816192
0.608092  0.760572  0.845483
0.679762  0.810115  0.879525
0.735383  0.853131  0.907372
0.818752  0.906151  0.937865
0.900027  0.945370  0.972283
0.979343  0.991206  0.999308
