LUT/LUT_33.CUBE
TITLE "LUT_33" 
#LUT size 
LUT_3D_SIZE 15 
DOMAIN_MIN 0.0 0.0 0.0 
DOMAIN_MAX 1.0 1.0 1.0 
#data point 
0.079545  0.071544  0.032478
0.085959  0.082620  0.039034
0.096614  0.095042  0.044887
0.122626  0.116277  0.069355
0.175371  0.153680  0.073931
0.238084  0.202551  0.076160
0.312762  0.235997  0.071738
0.342285  0.265015  0.076429
0.413241  0.302634  0.064221
0.455436  0.342619  0.067473
0.509295  0.369940  0.074050
0.548369  0.394047  0.071400
0.616387  0.419766  0.060145
0.666249  0.468194  0.059885
0.727919  0.485539  0.061145
0.091043  0.082710  0.040326
0.099545  0.094175  0.047500
0.116138  0.111472  0.059821
0.148953  0.135821  0.069452
0.195178  0.178804  0.093084
0.258220  0.215670  0.090655
0.324812  0.258644  0.079537
0.385345  0.290768  0.082976
0.422482  0.327390  0.071827
0.462023  0.348202  0.066008
0.519107  0.376948  0.072497
0.593103  0.413437  0.067951
0.650538  0.460989  0.057484
0.698300  0.484365  0.066156
0.743504  0.497785  0.067865
0.112475  0.104514  0.051822
0.109604  0.103040  0.054260
0.124885  0.118940  0.060938
0.160859  0.151064  0.089009
0.223439  0.197984  0.090483
0.277137  0.223771  0.084921
0.346417  0.277224  0.089673
0.389559  0.297785  0.073257
0.460974  0.340254  0.086798
0.494598  0.365711  0.079446
0.532095  0.396854  0.074003
0.607225  0.445979  0.068654
0.646427  0.460165  0.072043
0.709419  0.489787  0.070634
0.752947  0.527988  0.061402
0.120519  0.115576  0.058676
0.136583  0.121524  0.061085
0.152266  0.143252  0.070877
0.193705  0.179871  0.093548
0.262400  0.223431  0.086518
0.308202  0.252139  0.091889
0.378687  0.293937  0.085520
0.422256  0.314456  0.087091
0.482110  0.354915  0.065737
0.517561  0.382370  0.071140
0.566221  0.418071  0.079474
0.621440  0.447039  0.080801
0.664869  0.476689  0.070146
0.732921  0.518357  0.060333
0.791008  0.559289  0.071073
0.147240  0.140886  0.082690
0.160030  0.154228  0.089355
0.209681  0.192825  0.108174
0.238244  0.213440  0.108650
0.293112  0.247758  0.095866
0.357597  0.275808  0.098650
0.396998  0.315704  0.084279
0.444582  0.339978  0.079973
0.491819  0.362702  0.075835
0.550644  0.413150  0.077255
0.591707  0.445153  0.079496
0.654503  0.486761  0.077760
0.688516  0.504075  0.072346
0.751487  0.541829  0.073994
0.814969  0.566624  0.067517
0.163263  0.161874  0.097047
0.211159  0.186362  0.090510
0.234035  0.206952  0.099749
0.287326  0.245930  0.098610
0.335557  0.263005  0.084559
0.367831  0.288335  0.095880
0.416333  0.324069  0.098381
0.485298  0.362861  0.087147
0.510437  0.386547  0.083076
0.550199  0.405571  0.075954
0.620474  0.463116  0.067227
0.657767  0.492002  0.083038
0.731581  0.531953  0.076543
0.779598  0.565219  0.081442
0.831348  0.584911  0.072202
0.223233  0.189746  0.085661
0.256136  0.226773  0.114219
0.308032  0.256613  0.102122
0.342834  0.280309  0.107747
0.385486  0.299726  0.091535
0.425542  0.335041  0.099757
0.453772  0.342146  0.080882
0.521405  0.395465  0.098893
0.553132  0.420559  0.083872
0.611325  0.471843  0.079494
0.647837  0.483150  0.081299
0.676608  0.513475  0.085060
0.734275  0.546979  0.083111
0.806286  0.587585  0.067273
0.858021  0.615483  0.070113
0.269502  0.234872  0.110580
0.299635  0.251695  0.105051
0.321667  0.263211  0.104981
0.373764  0.292834  0.088380
0.426618  0.339057  0.105818
0.462716  0.365075  0.082094
0.490796  0.378684  0.087245
0.547925  0.421932  0.086935
0.582869  0.449374  0.089065
0.632272  0.495447  0.079217
0.670212  0.528849  0.081671
0.727379  0.565080  0.082496
0.772559  0.597230  0.078888
0.834506  0.621278  0.082522
0.902142  0.655972  0.070113
0.301719  0.261993  0.121571
0.352204  0.288592  0.101328
0.384014  0.300225  0.089375
0.420972  0.322624  0.091162
0.472798  0.362389  0.096296
0.489852  0.385663  0.089494
0.528715  0.402051  0.088027
0.584891  0.449034  0.090532
0.615852  0.489477  0.076090
0.669257  0.538245  0.084424
0.691696  0.558802  0.082581
0.747719  0.588933  0.091036
0.803222  0.617502  0.088569
0.835442  0.659686  0.079464
0.908757  0.691768  0.078230
0.360258  0.294111  0.114581
0.387804  0.311981  0.105650
0.428412  0.332645  0.093178
0.462587  0.365946  0.094352
0.500135  0.396322  0.091950
0.529533  0.421645  0.086397
0.581836  0.458205  0.084863
0.627025  0.496361  0.093094
0.652782  0.528077  0.082088
0.704346  0.577498  0.080236
0.756428  0.608088  0.089318
0.784082  0.633794  0.079262
0.819413  0.668734  0.085070
0.863556  0.676523  0.083176
0.916560  0.723554  0.086665
0.383060  0.309127  0.113808
0.427338  0.347169  0.103925
0.465066  0.373785  0.087886
0.498004  0.387102  0.088267
0.559190  0.433525  0.093951
0.584280  0.464429  0.083835
0.614818  0.487202  0.097950
0.672757  0.531320  0.076735
0.701922  0.576812  0.076695
0.721235  0.587617  0.078074
0.778562  0.641147  0.078420
0.796870  0.652762  0.088114
0.857755  0.704198  0.080442
0.910796  0.726390  0.073105
0.953742  0.752057  0.093556
0.423932  0.335428  0.099903
0.463558  0.366303  0.105000
0.502315  0.405809  0.097583
0.545255  0.425125  0.094793
0.591027  0.453959  0.082186
0.629517  0.502851  0.088474
0.650296  0.532293  0.081669
0.680625  0.552829  0.077974
0.734762  0.606217  0.086242
0.758913  0.628603  0.076818
0.799255  0.663538  0.092268
0.850496  0.686656  0.082565
0.888857  0.706230  0.075287
0.924395  0.750994  0.079824
0.972632  0.768362  0.086329
0.473935  0.370211  0.094855
0.487977  0.394912  0.088822
0.524518  0.420100  0.095838
0.591132  0.468560  0.085779
0.627208  0.494693  0.084424
0.650211  0.524434  0.092342
0.692183  0.571230  0.086002
0.723774  0.580746  0.087210
0.759367  0.621256  0.094026
0.783217  0.658154  0.085401
0.833434  0.674924  0.087159
0.892999  0.714243  0.082644
0.909129  0.737361  0.085655
0.948015  0.755510  0.089797
1.022180  0.787376  0.091098
0.514915  0.409164  0.092525
0.550718  0.453474  0.093949
0.576942  0.466736  0.080233
0.626241  0.502084  0.087935
0.649040  0.528555  0.083090
0.672649  0.548764  0.079575
0.720258  0.585586  0.079996
0.769512  0.621239  0.081195
0.792967  0.648696  0.088791
0.816525  0.664271  0.086465
0.848833  0.691017  0.080959
0.898256  0.728738  0.087926
0.940508  0.762568  0.088550
0.991633  0.786414  0.091763
1.015382  0.798150  0.086846
0.540995  0.434465  0.094332
0.572971  0.453843  0.085094
0.618897  0.508602  0.097570
0.665427  0.537972  0.071253
0.694758  0.561787  0.081747
0.708762  0.581607  0.088317
0.747424  0.613452  0.086899
0.787797  0.653720  0.084725
0.809139  0.662217  0.084531
0.855724  0.698496  0.093670
0.883143  0.710618  0.101691
0.933012  0.758195  0.087254
0.967492  0.769883  0.089659
1.030855  0.793126  0.083766
1.075334  0.828898  0.087926
0.085997  0.084798  0.044244
0.100791  0.086723  0.041999
0.104243  0.101168  0.045760
0.119438  0.111341  0.057120
0.164602  0.149640  0.070558
0.238840  0.194630  0.082415
0.316193  0.253348  0.086128
0.361615  0.278780  0.082082
0.413385  0.312041  0.069053
0.446031  0.319521  0.063099
0.509404  0.362756  0.070118
0.567064  0.402036  0.065389
0.626953  0.435075  0.060420
0.662390  0.466407  0.062506
0.715956  0.494688  0.069473
0.102450  0.090980  0.040423
0.101657  0.094249  0.045415
0.114507  0.104189  0.052524
0.150318  0.132631  0.065871
0.193356  0.173267  0.093469
0.273611  0.228623  0.084770
0.324719  0.251018  0.076910
0.366938  0.280609  0.073314
0.421373  0.318618  0.076446
0.492172  0.355318  0.077968
0.517204  0.376717  0.067136
0.565539  0.407763  0.065666
0.634810  0.457765  0.065561
0.683620  0.479328  0.071420
0.748347  0.514972  0.065837
0.104302  0.095008  0.047201
0.120675  0.109095  0.054237
0.141629  0.130134  0.072937
0.173635  0.161014  0.082539
0.214145  0.193394  0.094786
0.297875  0.238645  0.079422
0.330194  0.255608  0.075782
0.389469  0.295967  0.083561
0.444846  0.333744  0.076842
0.487753  0.361714  0.083075
0.542782  0.392186  0.068664
0.601373  0.434031  0.067431
0.658206  0.459725  0.059703
0.706234  0.511047  0.068670
0.785005  0.535344  0.065929
0.132212  0.128573  0.072023
0.137606  0.129723  0.076981
0.166898  0.153632  0.090605
0.184015  0.168283  0.092759
0.246685  0.218982  0.101641
0.317144  0.256410  0.088168
0.355171  0.286304  0.095757
0.424028  0.330535  0.086846
0.472701  0.354228  0.087706
0.513573  0.380457  0.085081
0.557793  0.421905  0.078686
0.625246  0.454492  0.075534
0.685403  0.485206  0.071087
0.709463  0.508826  0.076131
0.784935  0.559569  0.060935
0.158480  0.154988  0.093370
0.170801  0.160685  0.087548
0.200836  0.190310  0.112216
0.231595  0.213461  0.108193
0.289567  0.248449  0.118267
0.341521  0.273634  0.093548
0.385682  0.305091  0.100124
0.445738  0.338563  0.086078
0.499219  0.383509  0.084976
0.535595  0.404518  0.087265
0.588790  0.430177  0.075567
0.636701  0.477427  0.073033
0.686635  0.520036  0.088115
0.745604  0.533841  0.071428
0.793107  0.569018  0.074682
0.186587  0.174307  0.102791
0.210342  0.197059  0.107335
0.240766  0.220070  0.127155
0.280784  0.247496  0.129543
0.338603  0.276083  0.106213
0.394106  0.315889  0.106240
0.446730  0.338271  0.096432
0.471168  0.359444  0.116490
0.509575  0.391451  0.097701
0.565032  0.433569  0.107086
0.603794  0.459103  0.091249
0.650869  0.489527  0.079712
0.706699  0.517136  0.083421
0.777545  0.560497  0.069299
0.846939  0.613060  0.065822
0.233353  0.223865  0.148937
0.258988  0.229383  0.117408
0.274492  0.252787  0.143378
0.313417  0.272499  0.135573
0.378886  0.299236  0.114018
0.421140  0.329939  0.100379
0.468962  0.348884  0.102175
0.503516  0.395567  0.114032
0.539275  0.425973  0.103963
0.585439  0.447608  0.093929
0.653061  0.508345  0.090949
0.684302  0.523004  0.080855
0.753026  0.561171  0.076101
0.796197  0.592697  0.070963
0.848003  0.617863  0.071318
0.255178  0.235093  0.129577
0.286011  0.257950  0.133811
0.335021  0.295569  0.148366
0.371590  0.315412  0.146908
0.429921  0.337833  0.105349
0.450217  0.360929  0.108628
0.518291  0.404574  0.094730
0.549326  0.417323  0.098667
0.579590  0.457521  0.102720
0.616431  0.489620  0.088072
0.675806  0.526563  0.089058
0.709429  0.549432  0.076114
0.772137  0.592276  0.070049
0.817085  0.615534  0.075667
0.895134  0.642486  0.073482
0.300994  0.266555  0.135481
0.344555  0.296149  0.156015
0.378024  0.307566  0.118901
0.403721  0.333549  0.124027
0.454691  0.356752  0.110252
0.491858  0.391492  0.112473
0.533908  0.424497  0.106517
0.579554  0.462926  0.091519
0.616779  0.482588  0.093721
0.665683  0.543076  0.091297
0.701119  0.560017  0.094573
0.753317  0.597305  0.093930
0.799656  0.625133  0.083678
0.860471  0.663943  0.096446
0.891068  0.689145  0.080721
0.323466  0.280032  0.134043
0.388993  0.321662  0.126668
0.411137  0.338261  0.131488
0.478956  0.371845  0.108981
0.501014  0.397478  0.112216
0.552187  0.436313  0.102917
0.591653  0.470450  0.104911
0.618014  0.495648  0.103208
0.666579  0.530304  0.108742
0.705853  0.570472  0.097304
0.750048  0.604780  0.075347
0.772458  0.625261  0.083076
0.825586  0.649536  0.082758
0.877607  0.684926  0.079659
0.939219  0.729207  0.090822
0.370733  0.316345  0.149149
0.390559  0.329835  0.142275
0.430349  0.347085  0.118801
0.506547  0.402012  0.116692
0.541721  0.431314  0.113955
0.585341  0.463491  0.101717
0.637719  0.515892  0.097532
0.666118  0.544192  0.091326
0.705416  0.569421  0.088788
0.739307  0.597829  0.086041
0.781335  0.637029  0.089775
0.824738  0.660605  0.095494
0.852992  0.686658  0.073718
0.909191  0.722107  0.101158
0.940248  0.728443  0.097081
0.400737  0.342564  0.139007
0.462356  0.365304  0.132309
0.504246  0.408885  0.120167
0.538850  0.427205  0.107571
0.584020  0.477637  0.110396
0.606906  0.490139  0.092617
0.640213  0.505042  0.108072
0.688129  0.559063  0.109492
0.726134  0.588979  0.092801
0.742888  0.621336  0.092736
0.800069  0.659758  0.076030
0.855761  0.685341  0.106122
0.894182  0.720036  0.092282
0.914171  0.747585  0.093171
0.975029  0.767679  0.085852
0.469839  0.376054  0.123859
0.520486  0.423084  0.092165
0.550975  0.439534  0.117954
0.597458  0.479883  0.105763
0.612931  0.493401  0.097494
0.664709  0.533238  0.112351
0.700236  0.571550  0.096357
0.714295  0.585497  0.103887
0.766845  0.620949  0.092421
0.792207  0.652120  0.100376
0.820066  0.685240  0.105185
0.887237  0.710850  0.103762
0.910684  0.742029  0.093756
0.976006  0.773599  0.092178
1.004307  0.779851  0.090978
0.493225  0.397979  0.138114
0.526763  0.421352  0.108697
0.575735  0.459450  0.093063
0.583763  0.469818  0.102039
0.658988  0.535909  0.102719
0.679995  0.549035  0.084380
0.699338  0.584694  0.107676
0.764831  0.637617  0.080311
0.792181  0.630790  0.096566
0.821270  0.680797  0.107062
0.866693  0.704521  0.094019
0.885181  0.722694  0.101518
0.935806  0.755161  0.099698
0.979572  0.774873  0.087760
1.014268  0.796753  0.098670
0.541747  0.436709  0.125231
0.583044  0.459158  0.101851
0.591075  0.477387  0.101933
0.650377  0.510700  0.100322
0.675909  0.557969  0.104300
0.715681  0.583041  0.094124
0.758414  0.602422  0.095731
0.780241  0.639160  0.112663
0.818590  0.670495  0.112435
0.850864  0.693313  0.102822
0.904233  0.735494  0.106057
0.917160  0.746270  0.103064
0.976170  0.770675  0.098397
1.030314  0.802847  0.099808
1.070443  0.824677  0.105556
0.103446  0.100454  0.049575
0.112630  0.106509  0.066049
0.117944  0.111644  0.059833
0.156004  0.146722  0.075221
0.184455  0.168536  0.085202
0.228457  0.194000  0.089477
0.287244  0.235782  0.087253
0.376281  0.288268  0.080403
0.409236  0.305300  0.076323
0.455325  0.345430  0.078362
0.507227  0.373416  0.073634
0.562388  0.402808  0.069203
0.611657  0.441951  0.072746
0.673986  0.471683  0.062735
0.734166  0.485837  0.058211
0.119238  0.115178  0.065763
0.129852  0.126026  0.076190
0.147404  0.141053  0.075965
0.159713  0.145062  0.079081
0.211476  0.187001  0.092561
0.281104  0.239380  0.098706
0.335998  0.267758  0.097146
0.367429  0.290502  0.095853
0.436522  0.330900  0.074015
0.478180  0.348775  0.073430
0.531841  0.395462  0.080825
0.581664  0.424687  0.067300
0.636138  0.455698  0.072858
0.720096  0.490576  0.062175
0.749055  0.515243  0.069419
0.132903  0.124930  0.072997
0.140611  0.146607  0.099549
0.162077  0.158343  0.097901
0.183702  0.173791  0.110997
0.221883  0.199546  0.113157
0.286144  0.248208  0.114697
0.316799  0.269181  0.102928
0.390991  0.307434  0.102759
0.434431  0.339244  0.093664
0.509846  0.381651  0.091423
0.550789  0.405005  0.075923
0.603004  0.442355  0.078001
0.676834  0.479465  0.067386
0.714932  0.495091  0.071376
0.758241  0.516357  0.066750
0.160847  0.153646  0.100650
0.158029  0.160451  0.108742
0.170690  0.176473  0.135417
0.202642  0.196675  0.133688
0.234266  0.219588  0.133693
0.314552  0.273124  0.126792
0.372364  0.307323  0.128297
0.406929  0.319026  0.120871
0.471606  0.369217  0.099624
0.527861  0.391631  0.080274
0.562283  0.422655  0.089405
0.635653  0.458759  0.078913
0.666996  0.482992  0.078124
0.708361  0.512095  0.078146
0.781991  0.544439  0.071755
0.154477  0.162560  0.123746
0.186694  0.207727  0.170939
0.199437  0.203329  0.148392
0.230842  0.227031  0.148369
0.279853  0.258318  0.153406
0.321205  0.285007  0.149474
0.391590  0.326357  0.121225
0.449910  0.352725  0.116353
0.488714  0.383351  0.118579
0.541266  0.406928  0.104288
0.598386  0.442838  0.110708
0.647844  0.475488  0.096638
0.686085  0.506631  0.093832
0.745712  0.552848  0.085207
0.806980  0.585169  0.092187
0.171584  0.195727  0.161315
0.200393  0.202556  0.159592
0.231258  0.233641  0.179508
0.263064  0.248027  0.162611
0.299432  0.273746  0.170485
0.353673  0.312186  0.171675
0.407003  0.341238  0.143346
0.465077  0.368207  0.124700
0.533140  0.405420  0.114700
0.570304  0.441016  0.121850
0.623174  0.475624  0.097148
0.659346  0.500191  0.118562
0.705818  0.523097  0.090969
0.775801  0.583692  0.093065
0.825200  0.598941  0.087903
0.209137  0.225426  0.182747
0.232600  0.243941  0.181779
0.268072  0.268350  0.198792
0.309940  0.282877  0.178709
0.337926  0.300463  0.166155
0.396129  0.337672  0.168770
0.447428  0.368780  0.156436
0.484186  0.396469  0.143376
0.529907  0.412609  0.128443
0.590152  0.455213  0.119153
0.632483  0.494594  0.134445
0.690483  0.530589  0.128332
0.748526  0.559457  0.129836
0.805504  0.603274  0.112775
0.849486  0.633821  0.094348
0.266367  0.266195  0.200423
0.278425  0.287245  0.217651
0.321703  0.300069  0.190368
0.356552  0.315205  0.177791
0.387861  0.340306  0.175271
0.432614  0.362163  0.160269
0.488961  0.404076  0.178004
0.535178  0.432187  0.141633
0.588600  0.460043  0.130345
0.637077  0.502333  0.130078
0.673308  0.517615  0.131515
0.706162  0.550824  0.127183
0.759922  0.585621  0.116278
0.819731  0.629137  0.111156
0.870965  0.654767  0.106304
0.285084  0.279522  0.199097
0.325374  0.297329  0.192523
0.339346  0.305641  0.185065
0.391082  0.345777  0.187257
0.432285  0.374009  0.197496
0.455501  0.379696  0.177657
0.534786  0.440299  0.173438
0.561092  0.460984  0.133917
0.621317  0.494549  0.116045
0.663755  0.529179  0.131389
0.714094  0.573487  0.102201
0.739035  0.593323  0.130496
0.800607  0.624442  0.119461
0.845127  0.654797  0.130297
0.911376  0.686849  0.122475
0.307591  0.299623  0.215546
0.350342  0.335972  0.214254
0.397636  0.344708  0.179796
0.421656  0.374046  0.203939
0.471959  0.396267  0.191817
0.528974  0.434634  0.172713
0.572157  0.473039  0.166987
0.604423  0.489406  0.127647
0.665292  0.521584  0.142889
0.695745  0.569918  0.118361
0.744390  0.610303  0.111614
0.782350  0.634480  0.125993
0.822433  0.654246  0.132770
0.871235  0.694323  0.128677
0.916203  0.704936  0.124421
0.366567  0.332604  0.195029
0.385313  0.348081  0.203210
0.433919  0.385788  0.199654
0.501991  0.405677  0.162781
0.503002  0.424337  0.157619
0.556286  0.451143  0.170250
0.583461  0.480726  0.154827
0.652730  0.534452  0.138867
0.690670  0.569720  0.112671
0.726976  0.603999  0.122897
0.766237  0.628921  0.113589
0.808495  0.657950  0.115442
0.869792  0.704623  0.129154
0.902291  0.706288  0.126700
0.981070  0.757745  0.135540
0.388714  0.352007  0.203191
0.434205  0.373684  0.202738
0.481600  0.408224  0.198858
0.510322  0.423023  0.180729
0.563052  0.471332  0.173690
0.606227  0.491933  0.157677
0.634874  0.503219  0.144373
0.683937  0.548096  0.129358
0.722180  0.582464  0.149080
0.782708  0.633450  0.117104
0.791026  0.653217  0.125252
0.833670  0.695888  0.127753
0.883514  0.732392  0.125464
0.936499  0.748479  0.129160
0.980639  0.775511  0.139063
0.429841  0.377627  0.205313
0.462449  0.392059  0.200546
0.523282  0.429397  0.173206
0.541528  0.439703  0.189847
0.591856  0.486221  0.181731
0.646163  0.535389  0.160316
0.681053  0.554598  0.125938
0.713483  0.576099  0.136365
0.755243  0.617200  0.128999
0.788885  0.656549  0.127990
0.836965  0.687862  0.127552
0.866026  0.700104  0.146760
0.913033  0.744537  0.116352
0.961120  0.766535  0.153952
0.994377  0.780471  0.127758
0.473319  0.403331  0.201909
0.518620  0.426238  0.178345
0.526367  0.435444  0.186090
0.591119  0.482829  0.170187
0.623893  0.515961  0.148607
0.679624  0.569513  0.137682
0.719597  0.584861  0.137769
0.765526  0.635733  0.126909
0.788517  0.640948  0.137634
0.808540  0.665444  0.127663
0.843670  0.692585  0.131938
0.905817  0.739304  0.136388
0.932765  0.755828  0.127899
0.989574  0.781715  0.136954
1.030322  0.807617  0.143426
0.503750  0.429381  0.216161
0.546759  0.463012  0.191410
0.600114  0.495299  0.164118
0.633039  0.527295  0.151473
0.678068  0.552046  0.164034
0.713172  0.584996  0.140555
0.759284  0.620742  0.134417
0.781891  0.632311  0.131834
0.816774  0.677967  0.130056
0.866628  0.703691  0.146042
0.894869  0.737306  0.114465
0.923707  0.745137  0.132824
0.971019  0.770125  0.132670
1.029695  0.800753  0.123647
1.068600  0.829538  0.139528
0.121177  0.126888  0.072546
0.122112  0.117888  0.064874
0.143211  0.145528  0.097433
0.160987  0.165882  0.119610
0.198825  0.180634  0.086601
0.234658  0.206752  0.105477
0.317242  0.263672  0.096703
0.372331  0.293084  0.099214
0.407842  0.310327  0.097319
0.460978  0.336946  0.088877
0.510563  0.381531  0.081706
0.571670  0.415332  0.080783
0.604692  0.440381  0.074313
0.677117  0.473527  0.059093
0.736142  0.496659  0.069073
0.130630  0.140600  0.094193
0.146123  0.155343  0.107359
0.155190  0.163617  0.117032
0.185541  0.189865  0.135246
0.209007  0.200621  0.128264
0.251664  0.223339  0.110977
0.324531  0.281883  0.114296
0.388309  0.307537  0.114247
0.427212  0.335668  0.095360
0.472395  0.365892  0.094140
0.541074  0.401968  0.090062
0.584200  0.420271  0.082409
0.658848  0.474980  0.080460
0.700771  0.487057  0.062641
0.761201  0.527425  0.070547
0.141958  0.150035  0.112574
0.165842  0.174811  0.138680
0.179966  0.193452  0.146931
0.197138  0.216455  0.177432
0.226275  0.224480  0.153784
0.292856  0.259911  0.139491
0.337826  0.298268  0.138321
0.393139  0.322556  0.137979
0.450143  0.351666  0.109060
0.512579  0.389804  0.102855
0.547813  0.420023  0.105961
0.609774  0.449593  0.083475
0.649621  0.469668  0.087356
0.709504  0.505088  0.085569
0.793452  0.558645  0.070515
0.162043  0.177143  0.141048
0.174101  0.200317  0.171247
0.189550  0.210063  0.182318
0.212847  0.229914  0.180963
0.262844  0.262692  0.191226
0.291928  0.285657  0.178811
0.358992  0.313307  0.160646
0.407095  0.336833  0.135718
0.484700  0.381407  0.119510
0.537835  0.413110  0.112333
0.549821  0.417961  0.120221
0.623867  0.479809  0.107880
0.677095  0.506806  0.102373
0.721460  0.526795  0.090345
0.794883  0.549516  0.100492
0.181180  0.211970  0.191190
0.203037  0.232878  0.205561
0.205349  0.228918  0.202612
0.230078  0.251373  0.203956
0.269321  0.265408  0.204315
0.311763  0.298770  0.191807
0.356204  0.321244  0.189604
0.443501  0.364964  0.158606
0.466916  0.379446  0.158031
0.542392  0.416970  0.119664
0.598838  0.462681  0.123332
0.626863  0.480031  0.123594
0.692490  0.528004  0.132154
0.730159  0.552937  0.113142
0.811362  0.578477  0.106537
0.193511  0.226530  0.201702
0.206540  0.243036  0.214081
0.225213  0.261633  0.230548
0.250889  0.280041  0.239501
0.297132  0.312180  0.246183
0.355112  0.331550  0.220544
0.417386  0.366273  0.185863
0.458441  0.385845  0.192670
0.505333  0.398077  0.168944
0.539014  0.428453  0.154182
0.608582  0.481584  0.151716
0.660813  0.515361  0.141524
0.729496  0.557014  0.128421
0.770479  0.586772  0.144855
0.801037  0.605331  0.139456
0.221443  0.256868  0.238051
0.225842  0.262381  0.232050
0.264150  0.293136  0.254463
0.290070  0.311627  0.266700
0.333384  0.321328  0.238674
0.393229  0.366198  0.245961
0.434791  0.373299  0.210563
0.487209  0.404506  0.212453
0.535110  0.441064  0.199095
0.569935  0.452961  0.163980
0.622661  0.490118  0.166545
0.706430  0.547996  0.151880
0.734703  0.573570  0.166029
0.793028  0.607811  0.128790
0.848789  0.650203  0.147657
0.226037  0.265669  0.253053
0.274813  0.299438  0.271335
0.301183  0.324713  0.276019
0.329942  0.337294  0.269429
0.366664  0.347738  0.238377
0.429926  0.378526  0.214040
0.465563  0.402512  0.230229
0.521736  0.436808  0.211608
0.562671  0.461819  0.220657
0.605980  0.486430  0.186243
0.690763  0.546700  0.159299
0.717077  0.567465  0.183888
0.775523  0.603831  0.167399
0.809371  0.617347  0.164605
0.860606  0.643280  0.169807
0.272829  0.300099  0.261504
0.292836  0.318429  0.278000
0.320405  0.342930  0.279936
0.363546  0.357834  0.264059
0.406292  0.384453  0.248349
0.456303  0.409560  0.266477
0.501893  0.436290  0.232067
0.542884  0.469605  0.214926
0.581762  0.494310  0.233061
0.663332  0.538486  0.182536
0.731149  0.583744  0.165618
0.755161  0.598324  0.181185
0.782275  0.626740  0.186568
0.848001  0.661720  0.188172
0.912973  0.695421  0.183964
0.282445  0.327492  0.305267
0.334223  0.342818  0.278761
0.381108  0.372757  0.272297
0.399606  0.383506  0.258542
0.475555  0.416874  0.261410
0.515962  0.443588  0.247649
0.531113  0.454000  0.245555
0.597902  0.500760  0.231618
0.640197  0.530765  0.198176
0.669244  0.555766  0.197398
0.743125  0.600852  0.167726
0.794743  0.633074  0.168151
0.812886  0.657894  0.179605
0.891033  0.700426  0.186382
