LUT/LUT_2.CUBE
TITLE "LUT_2" 
#LUT size 
LUT_3D_SIZE 15 
DOMAIN_MIN 0.0 0.0 0.0 
DOMAIN_MAX 1.0 1.0 1.0 
#data point 
0.012627  0.009749  0.006812
0.050377  0.035238  0.006583
0.112433  0.059388  0.010787
0.187580  0.068155  -0.001766
0.263231  0.074077  -0.000402
0.327920  0.079181  -0.005226
0.402916  0.081615  -0.004434
0.464035  0.079708  -0.010737
0.537539  0.076363  -0.011047
0.615535  0.077343  -0.008255
0.680765  0.080576  -0.010115
0.748478  0.082810  -0.003685
0.825753  0.085187  -0.011155
0.890713  0.083163  -0.016633
0.970544  0.084845  -0.013537
0.036872  0.038000  0.019038
0.074690  0.067239  0.024365
0.121267  0.087467  0.021129
0.197258  0.107687  0.015933
0.266816  0.117553  0.009611
0.334133  0.128821  0.003492
0.407943  0.135865  0.003235
0.471655  0.139596  0.001784
0.540577  0.143098  -0.000765
0.609609  0.146604  -0.010609
0.681265  0.149673  -0.009326
0.754774  0.148185  -0.007818
0.828242  0.148716  -0.012296
0.900132  0.149899  -0.016193
0.964493  0.152985  -0.011733
0.078168  0.077823  0.038748
0.103968  0.101618  0.040042
0.149695  0.122307  0.033168
0.211594  0.146556  0.025585
0.276299  0.160916  0.020482
0.344749  0.167641  0.017846
0.413732  0.174097  0.014515
0.476717  0.179608  0.015148
0.549914  0.186510  0.010956
0.616369  0.196776  0.008250
0.683427  0.198628  0.000418
0.757081  0.208689  0.000778
0.823456  0.213336  -0.007501
0.902511  0.218706  -0.006012
0.966175  0.215399  -0.005761
0.103485  0.128873  0.040327
0.130148  0.150999  0.044157
0.172705  0.179588  0.034089
0.225510  0.195457  0.031937
0.285009  0.211920  0.025280
0.350800  0.217517  0.026827
0.421716  0.226203  0.021742
0.489319  0.240631  0.015931
0.551073  0.247720  0.012990
0.622189  0.254854  0.014316
0.687920  0.253809  0.014153
0.762716  0.257720  0.012542
0.833585  0.262509  0.007634
0.905731  0.268102  0.004668
0.975518  0.273452  0.002365
0.123488  0.178792  0.042663
0.158632  0.205139  0.042539
0.201347  0.231556  0.038159
0.249253  0.255760  0.030346
0.293915  0.273283  0.025103
0.358154  0.280685  0.029927
0.425159  0.289742  0.025141
0.494961  0.295064  0.024921
0.563044  0.298916  0.032120
0.630571  0.305553  0.021526
0.690874  0.312095  0.020917
0.769165  0.329983  0.014812
0.836347  0.316583  0.018780
0.907912  0.323984  0.013195
0.970168  0.328161  0.011233
0.146444  0.233134  0.046250
0.182098  0.256484  0.037502
0.223754  0.276339  0.038193
0.269398  0.304981  0.026478
0.314047  0.328075  0.024670
0.368093  0.340185  0.027940
0.433029  0.351535  0.024457
0.501487  0.361193  0.023495
0.566796  0.363332  0.028218
0.624855  0.367504  0.024666
0.702965  0.371489  0.025904
0.772962  0.372003  0.023458
0.838371  0.383531  0.019654
0.912505  0.396843  0.016515
0.978957  0.396419  0.016022
0.159061  0.283259  0.044113
0.208530  0.301896  0.040155
0.255876  0.331796  0.034053
0.295889  0.353432  0.030757
0.337249  0.377740  0.029017
0.384916  0.398452  0.028661
0.439771  0.412921  0.023693
0.502327  0.422382  0.028070
0.570258  0.426940  0.023896
0.633214  0.438078  0.023800
0.703716  0.436637  0.026471
0.775292  0.440207  0.028946
0.847030  0.439327  0.028712
0.915109  0.445378  0.029898
0.985619  0.449792  0.023939
0.166645  0.355976  0.048444
0.228631  0.359277  0.043721
0.279061  0.377514  0.040818
0.320657  0.398541  0.029548
0.361521  0.424891  0.030480
0.407481  0.452980  0.027361
0.452208  0.481696  0.026571
0.510474  0.488427  0.023961
0.571936  0.495082  0.024905
0.641164  0.499111  0.024076
0.713675  0.503058  0.027710
0.776807  0.511292  0.028568
0.850785  0.515311  0.029010
0.925246  0.509755  0.027212
0.992110  0.514978  0.027949
0.174529  0.416846  0.041999
0.229615  0.426396  0.046681
0.295447  0.427923  0.036474
0.345359  0.445867  0.029978
0.387076  0.475189  0.030973
0.432048  0.493030  0.025751
0.476415  0.523402  0.028431
0.517275  0.543535  0.026836
0.580917  0.555128  0.025202
0.650923  0.565825  0.026066
0.706614  0.572724  0.019134
0.781486  0.568976  0.028053
0.854789  0.576484  0.025833
0.918119  0.579171  0.028340
0.990566  0.578207  0.031292
0.181068  0.485783  0.038346
0.235918  0.490175  0.038088
0.302565  0.494402  0.032735
0.362717  0.503279  0.029094
0.411891  0.522136  0.032769
0.457117  0.538318  0.026647
0.499159  0.561615  0.026792
0.543852  0.589565  0.023933
0.594288  0.617771  0.027565
0.655228  0.623567  0.024069
0.717569  0.634210  0.021628
0.782844  0.642722  0.026986
0.850287  0.646982  0.026319
0.919528  0.650480  0.028863
0.988831  0.655414  0.029682
0.179414  0.545916  0.031959
0.244738  0.552659  0.034071
0.314996  0.557191  0.027866
0.369979  0.573281  0.028859
0.432885  0.578062  0.025621
0.479769  0.598116  0.027544
0.528066  0.607803  0.036559
0.575216  0.632929  0.025765
0.622179  0.659325  0.023716
0.663082  0.673837  0.022220
0.730607  0.689029  0.026578
0.789978  0.695342  0.026340
0.854269  0.711174  0.025173
0.926012  0.717291  0.034527
0.989380  0.719556  0.030854
0.193923  0.601613  0.029912
0.252696  0.614260  0.028485
0.309964  0.622601  0.026513
0.377140  0.625957  0.023646
0.437003  0.636867  0.026790
0.494909  0.651959  0.025393
0.540114  0.666165  0.025673
0.596479  0.679922  0.024693
0.644506  0.697929  0.024665
0.696112  0.717606  0.023313
0.743218  0.738718  0.028554
0.800746  0.758788  0.024956
0.866940  0.768570  0.027528
0.937708  0.780800  0.027774
0.997122  0.790788  0.028863
0.194950  0.670582  0.030783
0.262493  0.670965  0.021076
0.322787  0.680805  0.019830
0.385335  0.684492  0.016477
0.447520  0.695277  0.020251
0.506769  0.710217  0.025699
0.556005  0.718133  0.022450
0.605271  0.735341  0.023304
0.662161  0.752948  0.023221
0.713126  0.771021  0.033256
0.767100  0.788372  0.030185
0.818219  0.809465  0.021644
0.872216  0.817549  0.030237
0.941202  0.831553  0.027692
1.007835  0.842920  0.028478
0.195228  0.741029  0.018404
0.265594  0.737804  0.023041
0.330340  0.743563  0.019129
0.390497  0.750549  0.017560
0.455261  0.753923  0.018834
0.517918  0.758154  0.012006
0.578031  0.776677  0.022411
0.624880  0.792755  0.024260
0.680605  0.803976  0.022166
0.726064  0.820846  0.023973
0.779817  0.838725  0.025412
0.839470  0.856618  0.026481
0.889491  0.869410  0.028208
0.952879  0.883294  0.024457
1.017024  0.894242  0.028761
0.193410  0.806784  0.020495
0.266896  0.804763  0.019151
0.331353  0.807475  0.014186
0.399218  0.811170  0.010911
0.457522  0.817361  0.016516
0.525057  0.822709  0.011991
0.589824  0.822308  0.017888
0.641552  0.839625  0.019680
0.686333  0.866765  0.022128
0.743135  0.874004  0.025911
0.794907  0.891118  0.025397
0.850069  0.906870  0.027555
0.910215  0.920903  0.022896
0.965599  0.936581  0.031217
1.030502  0.945302  0.028940
0.022973  0.035406  0.025675
0.053732  0.058007  0.024570
0.112834  0.072434  0.028951
0.182036  0.076622  0.033064
0.252686  0.078646  0.038376
0.329545  0.080373  0.033770
0.401639  0.078907  0.034284
0.468709  0.079223  0.028161
0.542447  0.081668  0.026752
0.608641  0.080834  0.024541
0.679498  0.075766  0.026863
0.756971  0.084761  0.029090
0.827999  0.083328  0.028904
0.893985  0.077675  0.022610
0.968000  0.077810  0.023038
0.040761  0.064540  0.056089
0.073302  0.075305  0.056998
0.122201  0.110230  0.051037
0.188261  0.123233  0.048387
0.260141  0.135794  0.041442
0.332667  0.138755  0.036935
0.396496  0.140345  0.034644
0.466286  0.150132  0.033545
0.539862  0.147227  0.032442
0.612799  0.150410  0.030221
0.682550  0.151476  0.027735
0.753434  0.154322  0.032522
0.822272  0.151229  0.025377
0.893183  0.148799  0.022874
0.961283  0.151823  0.026149
0.065267  0.089564  0.083389
0.099670  0.106456  0.075493
0.146035  0.135733  0.069899
0.203058  0.163025  0.067744
0.275213  0.172997  0.063319
0.335888  0.180398  0.056518
0.404478  0.193856  0.054930
0.476653  0.200935  0.044069
0.543529  0.207077  0.040731
0.611410  0.212534  0.036589
0.685189  0.216650  0.031930
0.755322  0.218588  0.028040
0.825502  0.219080  0.027885
0.901537  0.215436  0.029410
0.973673  0.218593  0.031906
0.095776  0.128690  0.095027
0.134883  0.155338  0.084439
0.171824  0.181639  0.082508
0.219630  0.192930  0.076502
0.284054  0.213889  0.069786
0.350816  0.228242  0.071925
0.414378  0.240960  0.064142
0.477743  0.245302  0.059845
0.555072  0.252806  0.055218
0.615313  0.255197  0.052848
0.688525  0.270229  0.049201
0.760834  0.274583  0.039442
0.827709  0.273383  0.040829
0.908100  0.284694  0.036502
0.972739  0.284673  0.029929
0.121328  0.183457  0.090193
0.165374  0.211695  0.083500
0.192590  0.232071  0.082636
0.235526  0.252480  0.081715
0.298864  0.271682  0.073212
0.357996  0.285527  0.071913
0.424161  0.291024  0.069649
0.489524  0.295581  0.065964
0.556454  0.306665  0.063389
0.620443  0.319673  0.057394
0.692292  0.324362  0.055409
0.761230  0.328814  0.050754
0.830586  0.332423  0.048015
0.900964  0.332432  0.047313
0.975746  0.336570  0.048572
0.142130  0.228896  0.097205
0.182934  0.253317  0.091034
0.225917  0.285631  0.094005
0.258882  0.306382  0.088855
0.311075  0.324717  0.072282
0.365931  0.343794  0.073897
0.431549  0.355867  0.070375
0.497378  0.359757  0.077927
0.559157  0.366876  0.076751
0.631869  0.369746  0.073038
0.703260  0.371269  0.069836
0.769822  0.387627  0.056053
0.840060  0.389057  0.056319
0.909005  0.390019  0.052010
0.979102  0.396708  0.054179
0.161777  0.287459  0.101130
0.213435  0.307083  0.097533
0.247949  0.331254  0.095708
0.287841  0.356282  0.092088
0.329651  0.382848  0.082578
0.379550  0.403060  0.070166
0.435149  0.417642  0.074458
0.506932  0.424287  0.072630
0.568144  0.432013  0.071964
0.639805  0.428573  0.070163
0.704509  0.439018  0.066549
0.775928  0.438064  0.061773
0.846116  0.448481  0.068303
0.918284  0.452149  0.061164
0.983980  0.463426  0.057980
0.167573  0.354820  0.095218
0.227954  0.360836  0.093442
0.272098  0.381595  0.098182
0.313951  0.399947  0.093058
0.357435  0.433900  0.077048
0.401837  0.458656  0.077759
0.456382  0.477742  0.070986
0.508998  0.492475  0.073974
0.576320  0.491702  0.073983
0.642607  0.500363  0.071840
0.713169  0.507652  0.071922
0.777147  0.507739  0.064573
0.850189  0.510546  0.067901
0.915100  0.513728  0.066340
0.992346  0.518525  0.067940
0.183250  0.412107  0.090869
0.231151  0.421119  0.097143
0.290676  0.424640  0.097242
0.336799  0.452321  0.094859
0.384232  0.471841  0.088026
0.430882  0.497040  0.076908
0.474288  0.527198  0.072274
0.512033  0.548662  0.069555
0.581845  0.552132  0.070585
0.650728  0.573518  0.069465
0.712213  0.568942  0.070364
0.783094  0.572044  0.073677
0.854377  0.579746  0.071808
0.924316  0.581737  0.070312
0.988564  0.585845  0.064829
0.173605  0.471965  0.089431
0.246745  0.477883  0.091911
0.301821  0.498946  0.095537
0.358477  0.504747  0.090097
0.410576  0.518393  0.090252
0.455632  0.544399  0.081150
0.504455  0.572325  0.078595
0.542118  0.589942  0.078680
0.590309  0.620628  0.074820
0.654351  0.628396  0.070332
0.720007  0.639228  0.073068
0.787781  0.637607  0.068072
0.852998  0.651704  0.065953
0.923431  0.650003  0.068385
0.996236  0.657663  0.068776
0.184426  0.544418  0.089692
0.237695  0.549993  0.088915
0.315209  0.548316  0.090536
0.367133  0.573860  0.094801
0.424361  0.574812  0.090437
0.477384  0.593958  0.086305
0.530810  0.612337  0.079385
0.570623  0.633446  0.080908
0.616624  0.656106  0.073142
0.667609  0.674535  0.082558
0.730937  0.696102  0.072741
0.794032  0.701002  0.072266
0.851710  0.716490  0.070822
0.922949  0.719185  0.073792
0.997149  0.712481  0.072837
0.193910  0.600738  0.083225
0.252149  0.609694  0.081014
0.317451  0.616358  0.083759
0.382320  0.622424  0.088552
0.439083  0.637779  0.086957
0.491912  0.649598  0.079598
0.543684  0.664061  0.077639
0.596896  0.680294  0.081661
0.642252  0.700370  0.077516
0.692459  0.719055  0.074954
0.743464  0.743919  0.074303
0.800550  0.758894  0.078788
0.866729  0.767786  0.072504
0.924786  0.779724  0.070997
0.994553  0.788000  0.067006
0.188280  0.667073  0.081639
0.265974  0.669457  0.073496
0.319398  0.677318  0.078823
0.382309  0.683000  0.081221
0.449194  0.688910  0.078665
0.506386  0.703778  0.075774
0.560068  0.713874  0.076132
0.610276  0.735261  0.078291
0.661671  0.752557  0.077490
0.713058  0.772805  0.081313
0.765708  0.789360  0.080569
0.820823  0.810384  0.076202
0.873762  0.819533  0.075412
0.947161  0.837508  0.074093
1.004328  0.852301  0.071013
0.189790  0.738561  0.080437
0.262099  0.734356  0.072449
0.330004  0.736608  0.075737
0.393825  0.746407  0.078909
0.454722  0.750302  0.075848
0.519474  0.754853  0.075668
0.570756  0.773421  0.077707
0.622862  0.792101  0.074695
0.681268  0.805623  0.076060
0.726384  0.821500  0.078039
0.785154  0.838410  0.079780
0.835729  0.862826  0.078370
0.896927  0.874165  0.079273
0.956558  0.883090  0.069580
1.018140  0.901719  0.069815
0.187681  0.811186  0.075994
0.265049  0.809967  0.075051
0.334833  0.804877  0.078778
0.399550  0.805055  0.073147
0.462176  0.812405  0.070702
0.524334  0.821020  0.071688
0.591157  0.821130  0.071860
0.641578  0.837358  0.075436
0.693366  0.863326  0.079636
0.745488  0.876091  0.072663
0.796965  0.894208  0.086271
0.850389  0.899856  0.080108
0.907376  0.924151  0.074428
0.966202  0.936797  0.075392
1.032551  0.946551  0.073639
0.023717  0.065009  0.092708
0.047189  0.080251  0.085128
0.112784  0.087853  0.091280
0.185084  0.083232  0.084138
0.256731  0.078619  0.085508
0.329191  0.081499  0.089111
0.397003  0.082790  0.094039
0.471237  0.081066  0.097553
0.541904  0.081376  0.100533
0.607064  0.084589  0.104045
0.682486  0.077850  0.096734
0.755349  0.082036  0.098665
0.822237  0.076858  0.101007
0.890569  0.080585  0.098463
0.966014  0.078105  0.096695
0.041822  0.090798  0.112832
0.074164  0.104163  0.118151
0.120844  0.132049  0.110018
0.181494  0.144253  0.100919
0.258418  0.145990  0.096091
0.330406  0.153241  0.096054
0.405405  0.145048  0.100764
0.469367  0.147124  0.099932
0.541543  0.154177  0.096575
0.609133  0.154539  0.095337
0.683376  0.154835  0.094463
0.753823  0.149278  0.100065
0.826972  0.154086  0.098676
0.900502  0.150603  0.091299
0.965481  0.152064  0.098392
0.062182  0.115846  0.135167
0.092961  0.136247  0.134109
0.132528  0.159059  0.133010
0.197910  0.178459  0.123088
0.264864  0.193202  0.109951
0.336207  0.199602  0.114523
0.406265  0.206811  0.097876
0.476286  0.216677  0.102720
0.539912  0.220559  0.101827
0.612657  0.220086  0.109698
0.684454  0.221783  0.099184
0.753112  0.222641  0.096300
0.823393  0.223062  0.100039
0.889664  0.222181  0.100064
0.965191  0.218577  0.101099
0.087717  0.136742  0.163782
0.127230  0.160283  0.158339
0.164284  0.186516  0.150605
0.215791  0.212434  0.141773
0.268934  0.225875  0.136788
0.345691  0.240981  0.127838
0.414203  0.253311  0.126156
0.474491  0.257880  0.115460
0.550623  0.266922  0.115155
0.615845  0.277535  0.111505
0.678700  0.281527  0.105329
0.750333  0.281080  0.112815
0.824904  0.285075  0.100245
0.895742  0.291174  0.097917
0.964739  0.291943  0.098345
0.115213  0.181693  0.171383
0.156442  0.207829  0.160252
0.196043  0.239480  0.152504
0.235076  0.260146  0.152084
0.295311  0.274558  0.143860
0.341635  0.284045  0.147879
0.420313  0.295113  0.139821
0.485755  0.304706  0.125702
0.551197  0.320870  0.127720
0.615962  0.323532  0.124782
0.686105  0.333591  0.125560
0.757190  0.334351  0.119381
0.830551  0.341464  0.117736
0.897822  0.349509  0.107893
0.970599  0.351572  0.110545
0.134391  0.237673  0.170240
0.176594  0.262614  0.165875
0.214916  0.282315  0.165296
0.256395  0.312072  0.153594
0.305337  0.333495  0.150517
0.359202  0.348810  0.153074
0.430915  0.359731  0.142301
0.493097  0.361875  0.139694
0.562292  0.365699  0.140030
0.630921  0.382533  0.139654
0.696569  0.388911  0.132231
0.762559  0.401973  0.130579
0.834431  0.397886  0.127469
0.904967  0.396593  0.123262
0.974395  0.404718  0.120319
0.152137  0.289517  0.169558
0.201190  0.308268  0.170725
0.241806  0.333174  0.163505
0.286792  0.360653  0.157311
0.326277  0.386485  0.144391
0.375709  0.404996  0.149577
0.436689  0.418384  0.141851
0.506448  0.419444  0.144781
0.563499  0.432136  0.136476
0.634601  0.439253  0.140492
0.706677  0.440740  0.140818
0.772585  0.441683  0.141329
0.841350  0.457765  0.132142
0.909048  0.464397  0.126363
0.975441  0.461594  0.119453
0.162424  0.354373  0.168715
0.219487  0.366561  0.171391
0.265609  0.379673  0.162805
0.314354  0.400458  0.157155
0.351648  0.430906  0.158774
0.398139  0.458171  0.149457
0.444857  0.470824  0.146268
0.516092  0.487411  0.146894
0.579371  0.493993  0.134007
0.641481  0.501159  0.139999
0.705740  0.505151  0.141919
0.769686  0.508417  0.141625
0.846821  0.512714  0.143671
0.922321  0.514836  0.136713
0.979666  0.525937  0.126348
0.180924  0.409473  0.165094
0.231356  0.421434  0.165629
0.288862  0.427418  0.165100
0.335894  0.454068  0.157650
0.379918  0.479804  0.159833
0.424149  0.504017  0.154021
0.469785  0.531951  0.145652
0.519612  0.550916  0.143090
0.584906  0.558795  0.138983
0.647979  0.561010  0.145245
0.711723  0.567889  0.141430
0.778281  0.579739  0.142929
0.846146  0.582709  0.138976
0.921983  0.580687  0.139507
0.989508  0.587990  0.139371
0.170660  0.478658  0.168901
0.241404  0.479310  0.159169
0.301002  0.489171  0.159508
0.356678  0.499333  0.165533
0.403283  0.519492  0.164665
0.444700  0.540738  0.161465
0.491993  0.569638  0.151657
0.539045  0.595658  0.143055
0.586464  0.621985  0.144660
0.652233  0.627186  0.141987
0.721264  0.634134  0.139168
0.784001  0.647021  0.138525
0.853402  0.642917  0.140865
0.917330  0.649771  0.140757
0.992149  0.650882  0.136574
0.186698  0.534156  0.165730
0.247738  0.541710  0.162408
0.311344  0.552360  0.157681
0.367621  0.565710  0.152033
0.423450  0.568506  0.159481
0.470790  0.592162  0.158790
0.518256  0.607100  0.156752
0.565545  0.633487  0.147655
0.611953  0.655380  0.141014
0.665823  0.682487  0.143514
0.728651  0.689837  0.143802
0.789652  0.705785  0.143496
0.858148  0.715549  0.139177
0.923820  0.719047  0.139836
0.997737  0.724474  0.137634
0.189409  0.599200  0.156328
0.255149  0.604322  0.157532
0.314881  0.613132  0.153387
0.386736  0.617535  0.152626
0.432657  0.627810  0.153638
0.492684  0.646173  0.163863
0.535722  0.663934  0.156629
0.586624  0.678896  0.149192
0.641175  0.703215  0.146865
0.692055  0.722152  0.141266
0.739901  0.743157  0.139474
0.804479  0.757557  0.145291
0.866059  0.772617  0.143079
0.924751  0.779907  0.147119
0.999000  0.787956  0.146159
0.187459  0.662449  0.153836
0.262006  0.666295  0.148010
0.328911  0.675336  0.146310
0.387150  0.679286  0.153865
0.449447  0.684715  0.154290
0.505917  0.697598  0.157243
0.559106  0.718839  0.156158
0.609684  0.734610  0.148635
0.658790  0.750843  0.150349
0.710545  0.769609  0.151747
0.762949  0.781516  0.144913
0.817977  0.803050  0.145073
0.877899  0.820895  0.139935
0.940875  0.834845  0.143916
1.004607  0.846149  0.137721
0.189028  0.739557  0.155177
0.262468  0.730691  0.144097
0.332769  0.735504  0.148269
0.390450  0.741675  0.144917
0.453519  0.752923  0.146895
0.517079  0.757469  0.150915
0.572823  0.765476  0.151886
0.626556  0.790275  0.154083
0.675071  0.803874  0.145696
0.730147  0.817255  0.139303
0.775166  0.842656  0.144870
0.841497  0.854717  0.141018
0.891596  0.872979  0.144931
0.954624  0.888182  0.142962
1.015652  0.899071  0.146146
0.184525  0.799524  0.154737
0.258186  0.804359  0.144829
0.338295  0.803278  0.142432
0.403764  0.804532  0.143600
0.467830  0.805194  0.144161
0.517727  0.823462  0.148533
0.585100  0.820508  0.147083
0.649121  0.830860  0.137389
0.686038  0.857566  0.148179
0.743848  0.881329  0.150244
0.793850  0.884902  0.142921
0.848653  0.904148  0.138892
0.907103  0.914497  0.143128
0.966782  0.934574  0.149209
1.030206  0.945875  0.147918
0.017807  0.071380  0.148705
0.051582  0.086674  0.156619
0.115865  0.095518  0.160051
0.183493  0.095762  0.162306
0.255003  0.096853  0.154412
0.327912  0.094244  0.150920
0.402912  0.091226  0.150209
0.471092  0.089560  0.150442
0.542201  0.088244  0.154407
0.607990  0.088402  0.158922
0.679692  0.086189  0.164453
0.749885  0.084734  0.164636
0.826078  0.085647  0.166734
0.897918  0.081202  0.161752
0.967630  0.080410  0.166944
0.036385  0.114088  0.158100
0.067716  0.140700  0.168777
0.117296  0.149167  0.159309
0.180920  0.154543  0.164643
0.254342  0.155221  0.164641
0.329154  0.156224  0.155658
0.403274  0.157419  0.153686
0.469737  0.154706  0.158139
0.538292  0.150284  0.164323
0.612559  0.155239  0.163160
0.682189  0.152385  0.166639
0.750486  0.152464  0.165419
0.821675  0.156318  0.167832
0.889854  0.147917  0.165246
0.967886  0.151345  0.164496
0.065824  0.140365  0.187937
0.101585  0.157746  0.189567
0.135206  0.183589  0.189292
0.187580  0.201255  0.183241
0.252923  0.209616  0.179610
0.328014  0.213570  0.169883
0.396866  0.216582  0.164684
0.467727  0.216180  0.160784
0.542834  0.220317  0.171156
0.612374  0.225118  0.160253
0.681421  0.227933  0.169439
0.752856  0.224917  0.160876
0.822727  0.222897  0.168126
0.890654  0.225298  0.168393
0.966457  0.225704  0.164797
0.077126  0.166478  0.216033
0.113732  0.185477  0.214135
0.154757  0.206752  0.212907
0.205573  0.230897  0.211971
0.266846  0.256020  0.194291
0.334690  0.266923  0.187950
0.410700  0.272765  0.176116
0.473654  0.274008  0.177205
0.542939  0.281930  0.174371
0.615471  0.287508  0.170794
0.678383  0.283103  0.170878
0.751706  0.291425  0.167787
0.825020  0.287999  0.168865
0.892911  0.289798  0.171994
0.963343  0.294509  0.174591
0.109942  0.190644  0.242176
0.149376  0.217129  0.238932
0.189538  0.238549  0.226883
0.228557  0.263081  0.227973
0.285922  0.281164  0.218458
0.350954  0.297977  0.207431
0.411893  0.313568  0.197580
0.478759  0.325936  0.194202
0.546258  0.327673  0.186365
0.619341  0.338834  0.174880
0.687097  0.349238  0.178762
0.755983  0.348145  0.174305
0.823277  0.352032  0.173073
0.895663  0.361644  0.177099
0.965692  0.361794  0.177578
0.129149  0.239334  0.251664
0.168413  0.259650  0.231697
0.213430  0.286518  0.227649
0.253402  0.309448  0.224984
0.297549  0.336668  0.226302
0.359782  0.350658  0.218187
0.427850  0.361619  0.206813
0.492942  0.365348  0.210992
0.559303  0.379359  0.201297
0.618505  0.382670  0.192777
0.689900  0.396653  0.193136
0.761953  0.396851  0.190284
0.830631  0.405514  0.182971
0.906601  0.412397  0.186038
0.967487  0.417847  0.184216
0.146717  0.288134  0.248434
0.195642  0.309899  0.235075
0.243305  0.338283  0.231444
0.279365  0.360580  0.225873
0.315360  0.384096  0.221462
0.380205  0.405746  0.220423
0.432542  0.422584  0.211783
0.501142  0.428120  0.215908
0.567646  0.434298  0.208950
0.636381  0.438528  0.211433
0.698177  0.450714  0.199888
0.770777  0.460826  0.203303
0.835271  0.461953  0.195391
0.903804  0.465976  0.200082
0.975183  0.470041  0.195688
0.156611  0.346941  0.248229
0.216785  0.364864  0.239991
0.270547  0.384763  0.234578
0.302790  0.405726  0.231825
0.344586  0.438270  0.226242
0.393924  0.459025  0.212504
0.453328  0.479688  0.216071
0.505891  0.490302  0.220121
0.573542  0.487868  0.217404
0.639397  0.503158  0.211883
0.711020  0.512875  0.211197
0.780808  0.506521  0.206913
0.843144  0.520947  0.209253
0.911373  0.523586  0.209583
0.974214  0.535487  0.203108
0.167590  0.402718  0.242935
0.235996  0.415307  0.242899
0.284484  0.434092  0.233485
0.324663  0.454436  0.235463
0.374235  0.477257  0.227660
0.417508  0.506802  0.217933
0.463253  0.529884  0.218583
0.512424  0.544970  0.217632
0.575362  0.558029  0.218769
0.647259  0.559092  0.210663
0.722177  0.570033  0.210324
0.783839  0.580090  0.211226
0.846405  0.576511  0.210357
0.918509  0.582529  0.214430
0.992532  0.586896  0.209204
0.171465  0.476625  0.240216
0.243431  0.475530  0.235335
0.302765  0.487536  0.238014
0.353237  0.496279  0.232763
0.406122  0.524539  0.228419
0.444780  0.549172  0.227395
0.487250  0.570110  0.224554
0.538257  0.599304  0.221307
0.595393  0.617120  0.213723
0.655849  0.629955  0.215117
0.719686  0.639531  0.211707
0.788075  0.642769  0.215401
0.851257  0.645997  0.207012
