LUT/LUT_16.CUBE
TITLE "LUT_16" 
#LUT size 
LUT_3D_SIZE 8 
DOMAIN_MIN 0.0 0.0 0.0 
DOMAIN_MAX 1.0 1.0 1.0 
#data point 
0.049714  0.050903  0.023963
0.096801  0.089811  0.041326
0.204400  0.165112  0.059621
0.324841  0.232089  0.045693
0.433981  0.281528  0.046894
0.549690  0.316765  0.038261
0.674279  0.364941  0.040032
0.807969  0.394340  0.039436
0.098544  0.092972  0.043764
0.132909  0.118711  0.055964
0.249128  0.200328  0.058856
0.366406  0.264685  0.062737
0.474109  0.315577  0.061541
0.579990  0.357700  0.051125
0.708937  0.410106  0.049925
0.830676  0.447041  0.050302
0.143645  0.134162  0.068903
0.222958  0.192299  0.086293
0.306256  0.239183  0.068373
0.405186  0.298178  0.071799
0.522207  0.353018  0.060033
0.620380  0.413689  0.057343
0.747577  0.455306  0.057491
0.870870  0.496780  0.054077
0.225614  0.198026  0.081849
0.304643  0.249766  0.081943
0.378328  0.309288  0.068179
0.460224  0.363306  0.070640
0.555569  0.416791  0.063148
0.664604  0.484419  0.056283
0.774484  0.519899  0.051105
0.908777  0.551432  0.060713
0.305236  0.252660  0.102584
0.381452  0.314607  0.066269
0.464622  0.387890  0.077487
0.527337  0.441859  0.066966
0.613568  0.508941  0.071168
0.700790  0.567098  0.068859
0.820167  0.602217  0.064671
0.941541  0.654082  0.059927
0.379043  0.325416  0.090849
0.455065  0.396488  0.073862
0.539827  0.458863  0.077394
0.600554  0.515195  0.083315
0.694314  0.594114  0.067766
0.767634  0.653487  0.061896
0.859627  0.700306  0.072367
0.961293  0.737443  0.078891
0.450096  0.397900  0.078112
0.525982  0.454686  0.069475
0.602764  0.532290  0.070723
0.666133  0.588457  0.067461
0.753737  0.642393  0.072229
0.824305  0.697881  0.064049
0.913408  0.754391  0.076114
1.016912  0.809605  0.073614
0.528109  0.468534  0.074908
0.592155  0.528965  0.067897
0.666816  0.590704  0.070950
0.730137  0.637306  0.078373
0.800454  0.692804  0.065491
0.885973  0.735270  0.082020
0.971217  0.789926  0.078763
1.073295  0.849510  0.080308
0.085948  0.082594  0.044929
0.116735  0.110285  0.060935
0.196746  0.167964  0.077193
0.314345  0.232230  0.058120
0.447645  0.287174  0.051112
0.545032  0.324744  0.043561
0.662551  0.367471  0.041008
0.803094  0.404666  0.035060
0.115270  0.123430  0.086412
0.154620  0.151549  0.102614
0.233984  0.205867  0.112884
0.353362  0.279163  0.085070
0.474717  0.330195  0.075080
0.580403  0.377985  0.061106
0.713909  0.418359  0.055193
0.824109  0.455637  0.046983
0.144250  0.174298  0.154390
0.204603  0.211264  0.160448
0.289643  0.261166  0.130965
0.393953  0.314711  0.132011
0.507798  0.376591  0.111739
0.620984  0.425614  0.103741
0.737262  0.474820  0.082922
0.866361  0.520318  0.065243
0.208451  0.227157  0.188232
0.284240  0.273376  0.187955
0.359385  0.322807  0.171468
0.455692  0.380400  0.148581
0.543488  0.419800  0.131718
0.663046  0.492017  0.134053
0.776154  0.525737  0.120976
0.899805  0.573936  0.089617
0.274217  0.276659  0.205635
0.354746  0.326454  0.181506
0.430912  0.385426  0.185550
0.528655  0.455162  0.163587
0.627131  0.511429  0.124286
0.712983  0.563757  0.127374
0.819309  0.608960  0.134230
0.943535  0.652068  0.120819
0.360799  0.337927  0.196030
0.432506  0.394033  0.200821
0.513434  0.452566  0.164494
0.580344  0.517457  0.160264
0.682562  0.586220  0.115401
0.761470  0.639895  0.136426
0.851691  0.708889  0.126790
0.986598  0.754516  0.129115
0.435715  0.397670  0.195776
0.512975  0.453131  0.169496
0.577827  0.511961  0.172912
0.660175  0.572949  0.140487
0.749465  0.647798  0.135973
0.813915  0.699859  0.143482
0.916474  0.760536  0.130239
1.004709  0.806097  0.124335
0.492064  0.456309  0.199610
0.581684  0.535000  0.173187
0.668466  0.582454  0.147029
0.731613  0.640040  0.139725
0.800268  0.697142  0.144335
0.895778  0.756917  0.132807
0.963174  0.803756  0.148394
1.068420  0.858345  0.134728
0.121084  0.142297  0.121488
0.145609  0.162030  0.137432
0.192952  0.202507  0.145432
0.327144  0.266739  0.120218
0.448971  0.305894  0.094327
0.553922  0.360288  0.090014
0.674237  0.395176  0.074740
0.794108  0.432735  0.069121
0.151276  0.184170  0.168790
0.170817  0.218318  0.211057
0.233731  0.257540  0.221991
0.346697  0.304185  0.180004
0.482939  0.364807  0.137106
0.572879  0.404153  0.138116
0.692491  0.448529  0.118585
0.822720  0.494916  0.106725
0.187233  0.242728  0.241792
0.212418  0.268246  0.271227
0.248203  0.281942  0.257252
0.383123  0.361955  0.251660
0.506359  0.408294  0.220029
0.617101  0.447541  0.177081
0.744650  0.517006  0.167879
0.859826  0.548208  0.158246
0.205869  0.274801  0.289984
0.257286  0.320349  0.324490
0.321043  0.348493  0.307816
0.418142  0.403254  0.310632
0.536211  0.453134  0.265566
0.646205  0.502629  0.229679
0.769231  0.566153  0.220326
0.878646  0.598705  0.202167
0.249985  0.317816  0.330727
0.331722  0.369735  0.330307
0.409102  0.410509  0.329309
0.496035  0.465610  0.325043
0.589804  0.511537  0.304468
0.697468  0.575471  0.288872
0.820164  0.637414  0.246935
0.948418  0.668745  0.251491
0.317637  0.376242  0.360485
0.405405  0.411283  0.349534
0.482508  0.465494  0.337457
0.563095  0.518683  0.314625
0.664873  0.603959  0.318532
0.759335  0.653813  0.282527
0.858803  0.705913  0.263737
0.976945  0.753616  0.276315
0.380315  0.399185  0.363302
0.465538  0.467719  0.345311
0.558828  0.529275  0.333376
0.623993  0.579865  0.329135
0.729960  0.647989  0.321805
0.813782  0.702157  0.308317
0.915844  0.759937  0.259445
1.017939  0.813606  0.255572
0.456867  0.457428  0.366206
0.558595  0.528579  0.342553
0.632226  0.589538  0.326624
0.711072  0.633970  0.315734
0.778661  0.687192  0.306538
0.891399  0.754089  0.291498
0.966300  0.798911  0.292355
1.064916  0.860059  0.269728
0.152272  0.187540  0.177927
0.169328  0.214363  0.212350
0.211771  0.257789  0.240691
0.305022  0.305549  0.234061
0.449505  0.357532  0.175545
0.559734  0.393420  0.159172
0.678125  0.436293  0.151289
0.789291  0.468964  0.147864
0.172845  0.222485  0.222270
0.202076  0.263000  0.275941
0.251864  0.309196  0.307637
0.340205  0.351248  0.299843
0.470624  0.403982  0.239015
0.578927  0.443180  0.226927
0.694043  0.477434  0.192046
0.821285  0.531663  0.197897
0.218270  0.278622  0.289724
0.246656  0.314960  0.331533
0.280460  0.357619  0.372041
0.389771  0.407579  0.361652
0.467676  0.450983  0.352695
0.613940  0.499587  0.283268
0.733905  0.557346  0.271537
0.857311  0.596579  0.272232
0.247340  0.328845  0.349872
0.284303  0.367961  0.391965
0.304052  0.396293  0.432337
0.403392  0.438679  0.406386
0.511213  0.497484  0.389224
0.648769  0.551046  0.343598
0.761470  0.599177  0.332124
0.888439  0.644834  0.315586
0.284785  0.380128  0.412392
0.329147  0.418745  0.451449
0.373294  0.456133  0.457887
0.475982  0.502801  0.448144
0.557328  0.558709  0.474714
0.675838  0.597968  0.416377
0.792435  0.660421  0.392975
0.918280  0.721093  0.372965
0.317465  0.421592  0.459982
0.360835  0.451530  0.467749
0.462379  0.496953  0.462159
0.534659  0.544822  0.477866
0.619683  0.603066  0.471524
0.724203  0.674516  0.475942
0.857750  0.729786  0.437947
0.952853  0.766507  0.421655
0.350734  0.460339  0.499862
0.431839  0.508033  0.496915
0.522857  0.541057  0.481396
0.609007  0.597566  0.482881
0.700365  0.660784  0.477717
0.796388  0.712312  0.449539
0.895661  0.777709  0.460279
1.012869  0.824072  0.463108
0.398631  0.500343  0.521838
0.496748  0.533533  0.490898
0.588384  0.594762  0.489463
0.669613  0.647010  0.487249
0.800033  0.720252  0.456749
0.862949  0.760254  0.452074
0.965093  0.817360  0.476536
1.062594  0.864326  0.461977
0.170133  0.230221  0.245815
0.204587  0.277997  0.291138
0.232984  0.307358  0.323213
0.323348  0.349060  0.309202
0.425874  0.399433  0.295426
0.562770  0.441973  0.247902
0.693890  0.495357  0.237977
0.808643  0.507611  0.203117
0.208664  0.284389  0.304325
0.236697  0.316184  0.344061
0.265045  0.350645  0.369875
0.346004  0.403079  0.392865
0.443653  0.449167  0.377852
0.568528  0.492446  0.326824
0.690604  0.529991  0.286099
0.823323  0.569085  0.274903
0.247585  0.337315  0.369820
0.276806  0.368376  0.397006
0.303927  0.404637  0.442996
0.374584  0.455710  0.462888
0.475262  0.501696  0.442879
0.585476  0.543287  0.412372
0.725256  0.594479  0.364148
0.848618  0.633042  0.340025
0.282798  0.375589  0.408858
0.319431  0.414787  0.448396
0.349098  0.458294  0.496330
0.387216  0.490434  0.520244
0.514284  0.549161  0.500342
0.621601  0.595974  0.493310
0.758632  0.645903  0.441543
0.877565  0.692832  0.408401
0.319945  0.424552  0.457156
0.356295  0.471851  0.513602
0.394969  0.509805  0.549732
0.444701  0.558706  0.585177
0.554382  0.602597  0.562126
0.660555  0.655079  0.559949
0.791718  0.700309  0.500029
0.916851  0.758616  0.479089
0.359200  0.472006  0.511415
0.389435  0.506849  0.547598
0.436119  0.560406  0.594671
0.487840  0.601179  0.625635
0.598783  0.638499  0.590381
0.712679  0.708156  0.611981
0.824815  0.763747  0.589558
0.948888  0.801562  0.544305
0.390009  0.514888  0.555333
0.429684  0.551031  0.595086
0.475220  0.598093  0.628390
0.568756  0.634277  0.618392
0.686834  0.692341  0.596688
0.772987  0.747361  0.615953
0.883181  0.802424  0.605318
0.999679  0.848362  0.580702
0.433237  0.567089  0.605811
0.471627  0.598384  0.637150
0.543276  0.631623  0.636358
0.649422  0.678938  0.622559
0.752570  0.736378  0.619837
0.845010  0.777540  0.614186
0.954513  0.837576  0.612637
1.050522  0.881604  0.601599
0.214322  0.298807  0.330984
0.238181  0.324309  0.359142
0.271882  0.366484  0.404590
0.324684  0.399062  0.401884
0.443782  0.439538  0.371060
0.535781  0.486657  0.359808
0.671780  0.511894  0.313772
0.812509  0.554658  0.297917
0.244641  0.343907  0.382831
0.278689  0.383951  0.415648
0.314151  0.414786  0.454418
0.352507  0.450426  0.469436
0.460273  0.496203  0.453816
0.565574  0.542994  0.444928
0.693612  0.593777  0.407953
0.833330  0.627635  0.367812
0.289496  0.388538  0.429215
0.322007  0.429993  0.467918
0.359731  0.470793  0.515713
0.396554  0.506702  0.535175
0.472065  0.540485  0.525787
0.602803  0.604587  0.521605
0.712365  0.643045  0.478572
0.844197  0.689920  0.443551
0.322267  0.432769  0.478554
0.360997  0.472855  0.514930
0.402634  0.525839  0.565765
0.430405  0.548415  0.585289
0.491013  0.598707  0.616135
0.621774  0.639289  0.565950
0.737323  0.693412  0.536510
0.869528  0.757566  0.547077
0.359016  0.480488  0.525649
0.397145  0.522204  0.569284
0.438384  0.563413  0.597399
0.464691  0.602456  0.634940
0.538008  0.652898  0.677764
0.644262  0.687708  0.640228
0.771063  0.737698  0.616592
0.918214  0.803563  0.597367
0.389661  0.518055  0.564246
0.429426  0.557305  0.605290
0.475742  0.605107  0.642941
0.518571  0.648218  0.687427
0.570845  0.704170  0.737348
0.697117  0.752648  0.713575
0.819521  0.798955  0.691485
0.947304  0.841367  0.660154
0.440231  0.571282  0.612175
0.483925  0.615588  0.651527
0.529883  0.664146  0.702118
0.558192  0.688295  0.725801
0.637162  0.739511  0.755932
0.741135  0.786052  0.749243
0.873669  0.833936  0.725851
0.969660  0.870530  0.706839
0.473945  0.613764  0.653236
0.506843  0.647655  0.691759
0.551238  0.695905  0.746322
0.608459  0.732536  0.759961
0.706403  0.779738  0.776756
0.832914  0.823416  0.742697
0.922840  0.866352  0.740509
1.034848  0.907280  0.730853
0.243228  0.353511  0.403197
0.276924  0.388958  0.442810
0.314494  0.429406  0.477016
0.348989  0.464743  0.515819
0.423505  0.491724  0.483091
0.534463  0.530416  0.460171
0.666299  0.570838  0.414786
0.799299  0.607359  0.390848
0.288773  0.409673  0.459051
0.315823  0.435659  0.486669
0.356597  0.471246  0.515448
0.392692  0.518760  0.566792
0.437821  0.546349  0.568416
0.566663  0.587591  0.514821
0.679510  0.632571  0.497409
0.811663  0.673536  0.462431
0.332268  0.442662  0.489934
0.360565  0.485538  0.530788
0.400778  0.521995  0.562290
0.438695  0.568040  0.606062
0.483615  0.609919  0.639716
0.594972  0.639867  0.599541
0.707478  0.690811  0.584721
0.836416  0.732229  0.559851
0.360248  0.481851  0.532727
0.391555  0.515294  0.563340
0.442281  0.576571  0.614649
0.487413  0.625249  0.665548
0.539608  0.669475  0.701262
0.614474  0.691944  0.684097
0.749878  0.744686  0.647698
0.872155  0.787525  0.630440
0.393033  0.521000  0.569100
0.441977  0.575082  0.622212
0.480204  0.609687  0.654073
0.523475  0.671580  0.724762
0.567599  0.709530  0.771287
0.639252  0.740620  0.753021
0.780712  0.781615  0.700879
0.906729  0.833933  0.699097
0.437567  0.571982  0.621940
0.482663  0.611640  0.657691
0.528374  0.671624  0.712159
0.569769  0.719871  0.771148
0.604449  0.747106  0.811755
0.677187  0.795955  0.843444
0.796270  0.835262  0.802053
0.933132  0.874028  0.753884
0.476659  0.619002  0.667599
0.517296  0.657670  0.700802
0.550785  0.707744  0.763468
0.606578  0.757321  0.822155
0.658932  0.780947  0.845136
0.731510  0.839965  0.884937
0.826382  0.886958  0.892111
0.974662  0.911484  0.811916
0.510267  0.661328  0.708201
0.547531  0.697851  0.758649
0.583146  0.740561  0.804684
0.646707  0.784127  0.852879
0.703481  0.822187  0.872377
0.785183  0.881968  0.914365
0.882309  0.926392  0.923241
1.008929  0.951705  0.870244
0.267816  0.409404  0.482451
0.305617  0.443333  0.509490
0.354520  0.489190  0.543742
0.384950  0.521394  0.575982
0.434731  0.568613  0.620731
0.516573  0.593803  0.581794
0.661784  0.633282  0.529277
0.811141  0.669896  0.491760
0.312083  0.451140  0.520869
0.357699  0.489855  0.547538
0.398928  0.535508  0.590800
0.439114  0.576187  0.628188
0.486224  0.621600  0.667285
0.545715  0.656781  0.672410
0.663331  0.689682  0.620675
0.808719  0.727603  0.568177
0.351559  0.491700  0.549999
0.401289  0.534403  0.583657
0.445787  0.582608  0.629316
0.492148  0.633677  0.681148
0.521862  0.678077  0.738665
0.588955  0.719824  0.764958
0.696189  0.737827  0.688453
0.846817  0.788014  0.656727
0.397131  0.528306  0.587757
0.430477  0.579864  0.628693
0.486575  0.626489  0.672589
0.531950  0.678809  0.736150
0.560013  0.715399  0.782102
0.615859  0.751768  0.811936
0.705116  0.799433  0.812032
0.855243  0.827088  0.723363
0.428506  0.570863  0.623598
0.481762  0.615304  0.659024
0.518448  0.662031  0.715860
0.556534  0.707464  0.772738
0.599200  0.745262  0.813840
0.658294  0.791605  0.848575
0.744300  0.853506  0.894564
0.878848  0.881231  0.825741
0.462550  0.605478  0.656025
0.514019  0.651363  0.701984
0.555060  0.703714  0.764452
0.593256  0.743121  0.806723
0.642472  0.780288  0.842226
0.717197  0.833357  0.881043
0.791221  0.893239  0.923751
0.881639  0.922996  0.922997
0.502670  0.658303  0.713386
0.541498  0.702159  0.770620
0.584884  0.735411  0.812451
0.633192  0.776545  0.834698
0.697441  0.814378  0.868106
0.767949  0.871189  0.910009
0.844491  0.918501  0.946124
0.930839  0.963281  0.975486
0.526185  0.688145  0.758074
0.567031  0.719596  0.798721
0.614361  0.762245  0.836550
0.685621  0.816275  0.869552
0.742219  0.854932  0.894198
0.825668  0.911853  0.936946
0.901272  0.949210  0.967799
0.971781  0.990114  0.998995
