LUT/LUT_30.CUBE
TITLE "LUT_30" 
#LUT size 
LUT_3D_SIZE 5 
#data point 
DOMAIN_MIN 0.000000 0.000000 0.000000
DOMAIN_MAX 0.857143 0.857143 0.857143
0.077156  0.064916  0.035075
0.122154  0.119328  0.068261
0.311755  0.235569  0.061072
0.460401  0.336305  0.067949
0.621977  0.414850  0.052607
0.119076  0.111484  0.057173
0.202014  0.177284  0.091321
0.377736  0.290009  0.080025
0.513239  0.378070  0.071580
0.668080  0.471961  0.064896
0.229646  0.192320  0.084096
0.346360  0.281712  0.100625
0.452372  0.342837  0.084598
0.612948  0.478189  0.079749
0.737234  0.547418  0.077512
0.366174  0.299272  0.110328
0.459786  0.368281  0.095961
0.579545  0.457897  0.081463
0.704265  0.578809  0.077777
0.822599  0.668144  0.085121
0.469488  0.372463  0.095814
0.589443  0.469332  0.078213
0.694294  0.570215  0.076855
0.783149  0.655848  0.082622
0.911520  0.740273  0.083638
0.121487  0.116775  0.073776
0.158272  0.168833  0.121579
0.318149  0.263314  0.097029
0.466395  0.340440  0.084338
0.611803  0.435089  0.076960
0.155958  0.177276  0.142321
0.208499  0.225605  0.185249
0.364699  0.316280  0.159209
0.539926  0.419309  0.113528
0.684445  0.502642  0.103200
0.217682  0.261893  0.241974
0.293822  0.312705  0.260489
0.430910  0.378415  0.211811
0.570805  0.452846  0.164810
0.738206  0.566722  0.167194
0.287623  0.321562  0.299186
0.408747  0.375431  0.266826
0.528399  0.460022  0.246138
0.670606  0.564854  0.199471
0.814502  0.654849  0.181357
0.404445  0.388516  0.286140
0.539544  0.465041  0.252823
0.654748  0.552155  0.245823
0.796887  0.651825  0.188580
0.927652  0.742327  0.186999
0.160205  0.189834  0.167265
0.193287  0.232317  0.209861
0.283295  0.305562  0.247479
0.489226  0.391804  0.162283
0.648311  0.474013  0.137994
0.203277  0.260366  0.256549
0.259663  0.311843  0.308005
0.359030  0.379659  0.330580
0.503304  0.453799  0.270645
0.698287  0.551059  0.219071
0.264483  0.329505  0.335151
0.305977  0.396236  0.416352
0.390991  0.434021  0.405339
0.570254  0.528518  0.392362
0.736845  0.617184  0.323952
0.323836  0.404418  0.420206
0.376013  0.461971  0.465164
0.487556  0.518212  0.469501
0.633378  0.600211  0.472662
0.825294  0.692896  0.408302
0.364086  0.463962  0.491766
0.486616  0.530252  0.494766
0.585570  0.590970  0.495644
0.746180  0.685794  0.487410
0.905875  0.767151  0.460665
0.209237  0.269809  0.273291
0.258701  0.332308  0.336944
0.327642  0.369027  0.343797
0.466068  0.446446  0.314628
0.661531  0.530238  0.250633
0.263213  0.346768  0.366845
0.308733  0.395248  0.422553
0.359516  0.444464  0.457481
0.502800  0.516330  0.454227
0.696497  0.604629  0.378099
0.323858  0.418900  0.436048
0.366333  0.471207  0.503152
0.410788  0.515851  0.554080
0.548180  0.590453  0.538216
0.726487  0.671412  0.499576
0.376736  0.484680  0.517514
0.411516  0.532138  0.573521
0.483925  0.610278  0.642507
0.631921  0.678690  0.631546
0.770116  0.742412  0.607855
0.428826  0.547547  0.575959
0.480718  0.608707  0.639442
0.555079  0.677076  0.702091
0.702071  0.742619  0.697615
0.851784  0.807564  0.681389
0.279881  0.370183  0.394036
0.316769  0.413145  0.437329
0.362859  0.468536  0.504699
0.471795  0.507665  0.479189
0.626407  0.573717  0.412082
0.330705  0.422039  0.442264
0.376003  0.479342  0.510972
0.440306  0.552213  0.586741
0.516315  0.587157  0.566276
0.667870  0.659027  0.562651
0.376182  0.490327  0.519138
0.439442  0.558755  0.598335
0.496085  0.622117  0.657729
0.563268  0.677059  0.701470
0.743826  0.738373  0.647109
0.420585  0.548255  0.585784
0.502696  0.626855  0.659884
0.547788  0.679376  0.712161
0.630499  0.757137  0.798823
0.759789  0.804990  0.762839
0.493714  0.622212  0.658079
0.560096  0.690403  0.724937
0.627531  0.760938  0.810696
0.706031  0.814612  0.865453
0.832484  0.891270  0.898971
