LUT/LUT_12.CUBE
TITLE "LUT_12" 
#LUT size 
LUT_3D_SIZE 8 
DOMAIN_MIN 0.0 0.0 0.0 
DOMAIN_MAX 1.0 1.0 1.0 
#data point 
0.042171  0.043804  0.020575
0.094751  0.090487  0.039246
0.209209  0.162463  0.048417
0.336046  0.212984  0.039338
0.452717  0.259677  0.032869
0.573693  0.289054  0.024432
0.704761  0.324160  0.026115
0.830357  0.344707  0.020434
0.092935  0.087535  0.040931
0.135605  0.119912  0.057862
0.258752  0.196121  0.053300
0.368875  0.252772  0.049118
0.484444  0.299593  0.053704
0.595072  0.334369  0.034651
0.734006  0.379810  0.036526
0.857308  0.411052  0.039497
0.148691  0.133973  0.070508
0.223053  0.189927  0.082538
0.308284  0.242213  0.062384
0.408613  0.300609  0.057839
0.530639  0.341781  0.058536
0.631950  0.398086  0.052268
0.762958  0.429568  0.049910
0.895498  0.471138  0.049694
0.229657  0.199437  0.085228
0.309772  0.253962  0.073772
0.378864  0.315098  0.062272
0.458091  0.375645  0.058978
0.564565  0.416381  0.056667
0.674140  0.476226  0.049650
0.794707  0.500856  0.047482
0.929997  0.525805  0.053955
0.301240  0.267319  0.093642
0.377338  0.333156  0.063961
0.453970  0.403979  0.071384
0.528857  0.455887  0.059987
0.610218  0.518339  0.062576
0.704778  0.569675  0.063123
0.827701  0.599266  0.057806
0.949195  0.639182  0.062347
0.378580  0.338769  0.076421
0.448479  0.409592  0.067579
0.533265  0.474138  0.061580
0.593811  0.531851  0.080222
0.686776  0.598307  0.056996
0.763505  0.657837  0.070066
0.858208  0.699917  0.065212
0.972041  0.734567  0.071402
0.439371  0.416346  0.071532
0.514230  0.474283  0.060368
0.585745  0.543117  0.059007
0.654610  0.599770  0.061095
0.745400  0.653241  0.068225
0.818575  0.707863  0.065763
0.909697  0.758766  0.069080
1.015952  0.812064  0.070261
0.508857  0.486952  0.069113
0.578022  0.542714  0.065746
0.653315  0.606003  0.065735
0.722509  0.655220  0.073119
0.792932  0.701418  0.063090
0.883808  0.749745  0.065639
0.970742  0.809056  0.071434
1.074554  0.855658  0.073015
0.080364  0.082060  0.044718
0.116522  0.107105  0.054608
0.203725  0.171641  0.069670
0.321169  0.225825  0.051798
0.460046  0.273066  0.043889
0.562921  0.294254  0.037710
0.688359  0.338232  0.030278
0.835483  0.358788  0.029198
0.105854  0.126044  0.098513
0.148246  0.159663  0.116291
0.235851  0.209357  0.111879
0.366153  0.273504  0.088585
0.482481  0.319612  0.072775
0.594632  0.361111  0.055902
0.737063  0.392958  0.050117
0.847950  0.422128  0.042782
0.140389  0.176154  0.157901
0.210618  0.209460  0.155471
0.292029  0.265512  0.142725
0.399101  0.313585  0.135817
0.511873  0.368786  0.108845
0.630153  0.412303  0.101968
0.754793  0.453039  0.085667
0.890886  0.495011  0.066086
0.204884  0.229362  0.194742
0.288860  0.271777  0.186955
0.364363  0.329489  0.164559
0.456166  0.382935  0.145327
0.544254  0.418549  0.125781
0.671014  0.478875  0.132801
0.792665  0.510651  0.124358
0.916874  0.555914  0.091932
0.284356  0.281729  0.204470
0.360989  0.330869  0.179591
0.432152  0.395024  0.184005
0.519976  0.468594  0.161418
0.615570  0.522072  0.120381
0.716701  0.567534  0.136640
0.826280  0.607264  0.134840
0.958957  0.640105  0.118469
0.360422  0.346814  0.198196
0.426621  0.408561  0.195093
0.505475  0.463942  0.167672
0.576495  0.531432  0.162702
0.673662  0.598182  0.129717
0.761069  0.653869  0.138015
0.858617  0.707788  0.134917
0.992532  0.744871  0.127849
0.433262  0.410562  0.191989
0.502761  0.467862  0.167165
0.564814  0.528137  0.170401
0.644986  0.594326  0.144612
0.736592  0.656556  0.139376
0.813615  0.705063  0.148749
0.912291  0.772121  0.138481
1.009557  0.812446  0.126809
0.487638  0.474060  0.194877
0.569314  0.554433  0.171778
0.644770  0.599636  0.150590
0.715836  0.653504  0.140681
0.800486  0.712741  0.149544
0.885833  0.762610  0.137921
0.960901  0.813729  0.149472
1.063000  0.865501  0.141959
0.109869  0.136199  0.125186
0.134984  0.166205  0.148391
0.201274  0.203377  0.146931
0.333087  0.261177  0.121695
0.460303  0.299120  0.096622
0.570831  0.337698  0.092451
0.699093  0.365650  0.076534
0.829629  0.390001  0.074499
0.141533  0.183506  0.180630
0.161195  0.216283  0.214935
0.234874  0.256398  0.226790
0.352076  0.301498  0.178589
0.493928  0.356483  0.148040
0.586717  0.390019  0.142312
0.712685  0.436717  0.125014
0.845808  0.462783  0.112466
0.174857  0.235935  0.244397
0.204717  0.265429  0.273567
0.251445  0.285560  0.252072
0.388251  0.364573  0.252984
0.504284  0.406843  0.219500
0.627362  0.440271  0.189612
0.753485  0.506114  0.170610
0.871971  0.524180  0.163995
0.201367  0.274901  0.298691
0.259122  0.319168  0.319065
0.325054  0.352417  0.304517
0.418418  0.409223  0.308680
0.540933  0.451684  0.261928
0.656218  0.498933  0.237202
0.776485  0.547054  0.224433
0.895983  0.583529  0.210183
0.243465  0.317777  0.334311
0.330662  0.367782  0.336680
0.411787  0.412422  0.329166
0.493097  0.475058  0.316765
0.594586  0.528999  0.292359
0.700877  0.572542  0.286664
0.821743  0.628118  0.253457
0.954027  0.651832  0.254547
0.318399  0.376007  0.363038
0.403431  0.420078  0.351367
0.485364  0.475500  0.332176
0.559811  0.537348  0.317078
0.658475  0.613325  0.309203
0.756341  0.661123  0.289060
0.858774  0.705763  0.270855
0.985180  0.746938  0.279836
0.379014  0.413374  0.359266
0.465885  0.473490  0.339300
0.556454  0.538441  0.328370
0.619594  0.589491  0.318957
0.719227  0.659559  0.316956
0.816191  0.713656  0.299687
0.908400  0.770733  0.269612
1.013034  0.817845  0.258047
0.454547  0.464052  0.357956
0.548261  0.543133  0.327958
0.621376  0.601917  0.316916
0.699338  0.654516  0.315629
0.771500  0.705937  0.306858
0.883234  0.767133  0.298921
0.957178  0.815715  0.291419
1.063959  0.876113  0.274454
0.135884  0.187666  0.188858
0.156320  0.211768  0.217347
0.212831  0.258986  0.242527
0.318095  0.305560  0.233672
0.454875  0.345932  0.178067
0.573522  0.375061  0.163252
0.703554  0.402383  0.158244
0.820278  0.427542  0.162791
0.160455  0.221198  0.227006
0.197150  0.261675  0.278656
0.245188  0.308102  0.318344
0.339078  0.348722  0.295466
0.481637  0.396976  0.238297
0.583921  0.431613  0.233440
0.708126  0.459881  0.202852
0.840529  0.500040  0.206193
0.207012  0.280245  0.295558
0.237812  0.312808  0.334084
0.271532  0.360890  0.379160
0.390122  0.408728  0.362033
0.474522  0.454516  0.346918
0.623838  0.494776  0.285865
0.740613  0.539654  0.264210
0.874150  0.581656  0.275772
0.241083  0.323602  0.351033
0.276131  0.361828  0.395660
0.310747  0.404305  0.431759
0.407659  0.445467  0.402534
0.518412  0.501783  0.388159
0.659920  0.547057  0.341849
0.769304  0.590464  0.340046
0.900667  0.628018  0.321122
0.279633  0.377952  0.412576
0.311778  0.418472  0.451737
0.372661  0.456451  0.458090
0.474293  0.499610  0.447721
0.558186  0.557879  0.469337
0.681938  0.598953  0.412575
0.804817  0.656236  0.392555
0.926251  0.702578  0.375021
0.309125  0.422093  0.464684
0.357956  0.455745  0.470898
0.467269  0.499981  0.459054
0.537440  0.546885  0.470021
0.630812  0.608925  0.467533
0.732342  0.674621  0.464124
0.860348  0.729794  0.432006
0.957893  0.759873  0.426696
0.345745  0.460889  0.500817
0.428188  0.504042  0.497291
0.521601  0.543769  0.484243
0.606364  0.605518  0.473196
0.697137  0.672302  0.465423
0.794769  0.724658  0.447119
0.895631  0.784727  0.458809
1.014948  0.830543  0.458316
0.392756  0.499268  0.523275
0.501137  0.538138  0.485812
0.595955  0.604241  0.480873
0.668047  0.659581  0.467472
0.792362  0.721240  0.451323
0.858387  0.771436  0.447541
0.958348  0.823050  0.472987
1.057206  0.876830  0.452184
0.157650  0.227098  0.259897
0.196254  0.273084  0.298348
0.227350  0.309098  0.323711
0.325843  0.352019  0.312379
0.434803  0.394893  0.294803
0.576580  0.430530  0.251251
0.715779  0.465602  0.246671
0.840047  0.463748  0.219971
0.201657  0.284832  0.315419
0.233812  0.315892  0.344057
0.260908  0.344343  0.372124
0.350185  0.402503  0.385057
0.452686  0.447390  0.379043
0.578219  0.483433  0.327372
0.707014  0.517734  0.299278
0.847212  0.541924  0.284478
0.237081  0.336966  0.377216
0.269787  0.366685  0.404085
0.301250  0.404645  0.439489
0.383486  0.455088  0.456049
0.477033  0.498393  0.433420
0.596118  0.545567  0.411072
0.735281  0.578265  0.362200
0.867888  0.612849  0.351670
0.272355  0.376965  0.416858
0.317091  0.413889  0.449926
0.345091  0.456191  0.496749
0.389041  0.491440  0.519892
0.511577  0.547088  0.503357
0.623407  0.594124  0.481707
0.760138  0.640343  0.445838
0.885980  0.679270  0.412134
0.314871  0.424381  0.468785
0.349550  0.466473  0.510461
0.390392  0.506663  0.553230
0.440600  0.556293  0.589324
0.561946  0.606412  0.561989
0.662752  0.650390  0.553311
0.798316  0.694790  0.496090
0.923797  0.747193  0.476666
0.348153  0.468021  0.516282
0.383110  0.508428  0.544023
0.436990  0.560567  0.597591
0.489756  0.602889  0.621598
0.603473  0.635630  0.592618
0.710110  0.708389  0.601848
0.825714  0.750855  0.576924
0.949581  0.793252  0.537863
0.384875  0.507762  0.559467
0.421485  0.550291  0.594798
0.478522  0.594703  0.631583
0.569927  0.635760  0.611614
0.685112  0.695531  0.598535
0.773947  0.742804  0.615942
0.887246  0.801885  0.597098
1.002037  0.853756  0.581755
0.427890  0.559335  0.611154
0.461620  0.593152  0.638289
0.551670  0.634871  0.626934
0.659728  0.682249  0.618981
0.753459  0.737374  0.616095
0.843240  0.782886  0.604846
0.951478  0.841853  0.606432
1.059818  0.891390  0.598739
0.190344  0.300196  0.352956
0.217657  0.324311  0.373330
0.259403  0.365928  0.410006
0.329537  0.400170  0.401864
0.447309  0.437703  0.370197
0.554726  0.477021  0.363807
0.688576  0.490661  0.329737
0.837734  0.506123  0.324705
0.226578  0.345422  0.398728
0.267169  0.380590  0.430307
0.305318  0.414595  0.458020
0.351974  0.447284  0.474820
0.458877  0.491132  0.452063
0.569432  0.537172  0.439501
0.705057  0.580393  0.413265
0.852417  0.603949  0.380388
0.275527  0.384505  0.438507
0.314343  0.427736  0.472034
0.346454  0.467023  0.517426
0.389317  0.507383  0.537339
0.477030  0.539881  0.524622
0.604935  0.603972  0.518626
0.720217  0.637969  0.479195
0.862730  0.666972  0.443380
0.309905  0.432114  0.482571
0.353324  0.476329  0.525382
0.392839  0.514951  0.567023
0.431680  0.547845  0.585909
0.489376  0.596938  0.611037
0.621375  0.638292  0.562524
0.751765  0.683400  0.541463
0.881707  0.742199  0.537136
0.349210  0.483792  0.532899
0.391820  0.519321  0.570781
0.431977  0.561244  0.600560
0.468663  0.602456  0.642838
0.533892  0.654238  0.678864
0.647912  0.690696  0.641493
0.771401  0.743678  0.615481
0.916484  0.801925  0.588010
0.382513  0.522209  0.571584
0.422702  0.563465  0.608655
0.471098  0.606068  0.646342
0.517265  0.654064  0.694675
0.570991  0.702364  0.733351
0.697041  0.742773  0.709951
0.825442  0.795013  0.687995
0.948223  0.841555  0.660744
0.427080  0.569683  0.621826
0.477004  0.616853  0.659945
0.521899  0.657970  0.708252
0.561914  0.689476  0.723706
0.632787  0.740572  0.752937
0.746525  0.783044  0.737969
0.872238  0.834508  0.726449
0.969166  0.868513  0.708339
0.460206  0.613139  0.664654
0.489692  0.649249  0.707987
0.536145  0.692541  0.755003
0.608590  0.733336  0.764654
0.711010  0.781936  0.779401
0.830306  0.822653  0.740957
0.928521  0.869508  0.742622
1.031011  0.910398  0.729838
0.191816  0.350932  0.437090
0.251141  0.391158  0.459448
0.294444  0.425127  0.491168
0.337760  0.468414  0.517100
0.424466  0.494392  0.485074
0.545041  0.526253  0.455354
0.682013  0.544879  0.428811
0.824368  0.553252  0.419777
0.255283  0.404438  0.480105
0.301980  0.429793  0.493425
0.342320  0.473202  0.526862
0.384407  0.521159  0.571516
0.432907  0.543520  0.562161
0.576757  0.586613  0.509557
0.690742  0.616694  0.498857
0.823985  0.645729  0.474238
0.299338  0.440905  0.509567
0.343452  0.480515  0.541317
0.389677  0.523082  0.577100
0.433554  0.565532  0.613821
0.481825  0.608604  0.639781
0.594846  0.643857  0.595622
0.707141  0.686283  0.586383
0.846283  0.725255  0.558386
0.343630  0.483785  0.546202
0.382802  0.517626  0.571608
0.438472  0.572658  0.621142
0.481463  0.623693  0.669393
0.537899  0.666370  0.710616
0.612929  0.693915  0.671938
0.750009  0.742285  0.646141
0.876540  0.786729  0.623967
0.378179  0.523887  0.584591
0.431930  0.577387  0.625297
0.471774  0.614031  0.661353
0.515854  0.671922  0.728869
0.561692  0.710000  0.774051
0.644670  0.744035  0.753041
0.784124  0.783753  0.706248
0.904660  0.835265  0.699182
0.421749  0.574109  0.637020
0.466789  0.618385  0.664887
0.515055  0.668539  0.721905
0.557096  0.710335  0.777185
0.600198  0.748820  0.817397
0.673695  0.791951  0.836562
0.801160  0.829632  0.799963
0.941120  0.874130  0.754624
0.455609  0.617864  0.681483
0.496551  0.655584  0.716215
0.544371  0.699536  0.772720
0.600428  0.752644  0.824237
0.650459  0.785530  0.843827
0.728617  0.838369  0.881389
0.833156  0.882327  0.888476
0.977024  0.909958  0.809646
0.485939  0.660692  0.727444
0.536152  0.695164  0.774675
0.578649  0.731642  0.810691
0.632623  0.777033  0.853859
0.698205  0.819175  0.875107
0.779757  0.880166  0.917053
0.889032  0.923574  0.912431
1.015033  0.951276  0.867462
0.159943  0.396394  0.554546
0.230650  0.442418  0.564965
0.307521  0.491395  0.585171
0.350021  0.521418  0.604022
0.411616  0.565880  0.628703
0.526830  0.585048  0.582966
0.687687  0.593843  0.541965
0.839880  0.601954  0.526365
0.223124  0.448867  0.583032
0.321259  0.491125  0.572889
0.374174  0.537729  0.609696
0.408234  0.576021  0.645924
0.454538  0.621932  0.682460
0.547471  0.659299  0.676279
0.670808  0.681112  0.617301
0.828322  0.697140  0.576954
0.306981  0.494536  0.586779
0.372159  0.537535  0.610982
0.423608  0.591484  0.652681
0.471317  0.635370  0.693716
0.504410  0.672575  0.746040
0.580373  0.714787  0.761781
0.700923  0.737442  0.687760
0.853509  0.779039  0.653366
0.364056  0.531868  0.605571
0.413374  0.577250  0.641444
0.465691  0.629772  0.691094
0.505534  0.679985  0.747666
0.542682  0.712725  0.789350
0.614624  0.752650  0.815474
0.707757  0.796139  0.807941
0.861620  0.826371  0.731543
0.403858  0.576612  0.642851
0.462967  0.619709  0.673505
0.496217  0.662904  0.730473
0.545884  0.706306  0.779795
0.591601  0.740194  0.820739
0.656141  0.788911  0.857148
0.744992  0.848638  0.891762
0.879631  0.882414  0.825985
0.436235  0.604691  0.675197
0.495620  0.655778  0.718969
0.536223  0.704432  0.774490
0.581872  0.741097  0.818882
0.637315  0.779430  0.851073
0.712566  0.834186  0.878387
0.794701  0.891514  0.925368
0.890986  0.925254  0.922101
0.481385  0.656371  0.732363
0.524926  0.698798  0.777766
0.570834  0.733431  0.811203
0.623218  0.773024  0.840147
0.690751  0.808917  0.868818
0.764108  0.864686  0.911972
0.841827  0.916900  0.949508
0.938092  0.965491  0.982862
0.498661  0.685521  0.777987
0.552393  0.717266  0.809078
0.611391  0.761688  0.842828
0.683012  0.815849  0.874185
0.740750  0.854081  0.898632
0.824153  0.903532  0.938252
0.902597  0.943950  0.969594
0.976459  0.988227  0.995811
