LUT/LUT_16.CUBE
TITLE "LUT_16" 
#LUT size 
LUT_3D_SIZE 5 
#data point 
DOMAIN_MIN 0.000000 0.000000 0.000000
DOMAIN_MAX 0.857143 0.857143 0.857143
0.049714  0.050903  0.023963
0.134204  0.123203  0.054140
0.324841  0.232089  0.045693
0.496700  0.301982  0.039655
0.674279  0.364941  0.040032
0.117445  0.110766  0.061994
0.220546  0.181659  0.080959
0.382267  0.275805  0.062405
0.542584  0.350763  0.047193
0.721023  0.427328  0.047324
0.225614  0.198026  0.081849
0.347008  0.287573  0.084130
0.460224  0.363306  0.070640
0.620846  0.463954  0.059047
0.774484  0.519899  0.051105
0.363243  0.301604  0.095183
0.459719  0.382858  0.073927
0.568518  0.481559  0.068282
0.685419  0.578988  0.068434
0.827249  0.659114  0.070836
0.450096  0.397900  0.078112
0.552026  0.495456  0.062990
0.666133  0.588457  0.067461
0.778419  0.661972  0.070227
0.913408  0.754391  0.076114
0.108956  0.120020  0.077808
0.156851  0.164791  0.122735
0.342121  0.256987  0.085487
0.495016  0.325580  0.067105
0.668627  0.380273  0.056310
0.144029  0.182871  0.164723
0.202677  0.231620  0.197361
0.380803  0.321863  0.163491
0.557675  0.401339  0.118662
0.726468  0.462442  0.112392
0.214276  0.253395  0.243247
0.297390  0.313755  0.251689
0.447603  0.385046  0.213518
0.589558  0.459671  0.181441
0.765351  0.546300  0.172426
0.291735  0.327481  0.291232
0.424812  0.393038  0.260174
0.542882  0.483261  0.253546
0.673498  0.575466  0.193683
0.824062  0.656909  0.191152
0.414403  0.405690  0.285405
0.532430  0.497163  0.247251
0.652530  0.590548  0.243310
0.780948  0.678365  0.208962
0.917368  0.756397  0.194848
0.152272  0.187540  0.177927
0.182120  0.230768  0.229196
0.305022  0.305549  0.234061
0.508110  0.373035  0.172249
0.678125  0.436293  0.151289
0.198197  0.258727  0.262337
0.238182  0.304607  0.313080
0.355269  0.381215  0.330283
0.518251  0.446097  0.275036
0.719269  0.524381  0.230303
0.247340  0.328845  0.349872
0.295586  0.387552  0.418230
0.403392  0.438679  0.406386
0.579737  0.530841  0.377784
0.761470  0.599177  0.332124
0.299552  0.394994  0.429794
0.368734  0.461210  0.474863
0.505257  0.527423  0.461806
0.641505  0.608875  0.464422
0.821431  0.689962  0.404859
0.350734  0.460339  0.499862
0.482689  0.529263  0.489631
0.609007  0.597566  0.482881
0.754016  0.693893  0.467073
0.895661  0.777709  0.460279
0.187757  0.264818  0.290091
0.238710  0.318723  0.345852
0.330449  0.380633  0.355126
0.488693  0.437856  0.313038
0.692194  0.495867  0.265346
0.253283  0.349759  0.377673
0.297322  0.397831  0.431667
0.352785  0.442673  0.460664
0.517170  0.522730  0.442349
0.708522  0.585055  0.382856
0.303838  0.410322  0.451833
0.352953  0.467910  0.508038
0.402508  0.517496  0.552301
0.555073  0.589635  0.533468
0.738506  0.673689  0.501481
0.360353  0.479456  0.521531
0.416137  0.538748  0.580716
0.473554  0.601841  0.641728
0.638897  0.683007  0.628521
0.784106  0.738345  0.597635
0.412515  0.536292  0.578044
0.476336  0.609353  0.643298
0.552149  0.675252  0.703233
0.715505  0.741620  0.679320
0.865721  0.814924  0.677666
0.243228  0.353511  0.403197
0.292061  0.403771  0.451506
0.348989  0.464743  0.515819
0.477140  0.508691  0.470312
0.666299  0.570838  0.414786
0.296735  0.410426  0.469942
0.356379  0.480651  0.525856
0.416872  0.549757  0.591270
0.521729  0.588821  0.566276
0.687528  0.667922  0.545145
0.360248  0.481851  0.532727
0.424600  0.554737  0.598387
0.487413  0.625249  0.665548
0.567822  0.683439  0.701155
0.749878  0.744686  0.647698
0.413882  0.548259  0.590337
0.489570  0.626332  0.661419
0.536979  0.680826  0.729427
0.620662  0.755267  0.805804
0.771534  0.807386  0.759726
0.476659  0.619002  0.667599
0.531226  0.681847  0.736269
0.606578  0.757321  0.822155
0.692465  0.815459  0.861758
0.826382  0.886958  0.892111
