LUT/LUT_11.CUBE
TITLE "LUT_11" 
#LUT size 
LUT_3D_SIZE 8 
DOMAIN_MIN 0.0 0.0 0.0 
DOMAIN_MAX 1.0 1.0 1.0 
#data point 
0.040079  0.041466  0.016618
0.095249  0.089015  0.042011
0.209416  0.160456  0.046560
0.341159  0.209474  0.034108
0.458343  0.249888  0.028593
0.583021  0.277831  0.024079
0.714424  0.309873  0.022762
0.843410  0.327700  0.014195
0.095706  0.086974  0.044185
0.134156  0.119546  0.056623
0.260995  0.196727  0.053236
0.367709  0.249247  0.046841
0.486297  0.294609  0.051867
0.602594  0.327428  0.034675
0.742316  0.371083  0.032609
0.865450  0.400732  0.032269
0.151924  0.133123  0.069891
0.223803  0.187817  0.079068
0.306754  0.241074  0.062614
0.408240  0.299862  0.055361
0.534494  0.341824  0.051146
0.635106  0.392217  0.050215
0.769097  0.416469  0.045492
0.899191  0.460010  0.048850
0.230297  0.202263  0.085068
0.306714  0.255853  0.069143
0.378434  0.318539  0.061134
0.457205  0.376561  0.059337
0.565969  0.418413  0.057806
0.676035  0.473379  0.046342
0.800207  0.493258  0.045031
0.933753  0.517334  0.052331
0.299678  0.268154  0.090903
0.373988  0.336803  0.065388
0.453508  0.407276  0.068470
0.526164  0.460270  0.056927
0.608607  0.521195  0.058647
0.703111  0.570911  0.060702
0.833360  0.593861  0.058663
0.946765  0.632465  0.063289
0.374411  0.342229  0.076774
0.446169  0.413623  0.063383
0.531480  0.477766  0.062537
0.591240  0.536984  0.074801
0.683958  0.601126  0.053902
0.763389  0.657189  0.065996
0.859175  0.703717  0.063498
0.971533  0.733815  0.069680
0.436279  0.422658  0.071978
0.510137  0.483007  0.061357
0.579450  0.548404  0.056846
0.652841  0.602873  0.058103
0.741409  0.658455  0.066396
0.816502  0.711417  0.063865
0.905248  0.759001  0.066668
1.017141  0.811119  0.068889
0.502167  0.492814  0.066727
0.574313  0.549311  0.061451
0.650847  0.610067  0.066101
0.718208  0.659867  0.068534
0.790736  0.706410  0.063330
0.876922  0.754013  0.063729
0.971767  0.810674  0.069217
1.073851  0.862809  0.069046
0.079483  0.077965  0.046713
0.117193  0.108499  0.056792
0.206515  0.168732  0.068113
0.323487  0.227401  0.052509
0.461802  0.265497  0.042548
0.571202  0.286464  0.033125
0.697488  0.324011  0.031546
0.846083  0.343001  0.031159
0.104700  0.124921  0.100529
0.148901  0.157977  0.122724
0.234643  0.209860  0.111911
0.367790  0.271545  0.087198
0.480467  0.318980  0.074288
0.600266  0.354697  0.054755
0.737470  0.382555  0.048988
0.855315  0.411416  0.040560
0.142668  0.173899  0.160968
0.211087  0.210832  0.157620
0.295325  0.264487  0.145227
0.398925  0.312901  0.137999
0.513143  0.367012  0.112100
0.634211  0.413240  0.104081
0.763696  0.447260  0.081603
0.892793  0.486242  0.061781
0.205537  0.224912  0.193600
0.292358  0.275955  0.185841
0.366569  0.332907  0.160644
0.456230  0.383498  0.144332
0.549846  0.422382  0.127950
0.672459  0.478801  0.132439
0.796931  0.505783  0.125735
0.922912  0.546995  0.094923
0.280890  0.281881  0.201201
0.357691  0.338239  0.179869
0.428989  0.397738  0.186537
0.514558  0.469938  0.156980
0.612270  0.525555  0.118081
0.714743  0.563817  0.136025
0.827622  0.606245  0.136793
0.961219  0.634659  0.123238
0.360510  0.347552  0.200528
0.426208  0.414048  0.195813
0.503225  0.470117  0.167531
0.572172  0.536096  0.165339
0.669343  0.602442  0.129778
0.756611  0.658147  0.139163
0.857580  0.706083  0.135262
0.992067  0.742900  0.129670
0.432664  0.418710  0.190641
0.496814  0.472407  0.168003
0.561773  0.533740  0.169335
0.638515  0.599749  0.144470
0.733047  0.658954  0.137987
0.814159  0.707595  0.152965
0.909168  0.770747  0.138111
1.009189  0.814746  0.127060
0.483200  0.478663  0.194281
0.563937  0.558237  0.170959
0.643101  0.602975  0.155243
0.710137  0.657098  0.141221
0.796877  0.717965  0.145382
0.879104  0.763907  0.141724
0.963109  0.818455  0.148001
1.058245  0.867372  0.145642
0.109321  0.138428  0.127311
0.131165  0.164119  0.150880
0.201273  0.203268  0.145857
0.332311  0.258824  0.121155
0.462751  0.295619  0.098762
0.574232  0.329244  0.097235
0.707644  0.354638  0.076040
0.835599  0.372436  0.076834
0.140773  0.181390  0.183976
0.159246  0.211946  0.213757
0.230177  0.257444  0.226474
0.353186  0.300052  0.182594
0.494496  0.354244  0.148424
0.592855  0.388050  0.146209
0.717323  0.430851  0.128189
0.852929  0.453289  0.112467
0.172111  0.233607  0.249439
0.201720  0.266733  0.278333
0.255095  0.286569  0.255512
0.383995  0.360345  0.254395
0.508656  0.403146  0.219030
0.632693  0.435963  0.195112
0.756538  0.499036  0.172859
0.877282  0.519109  0.167458
0.199359  0.274833  0.298294
0.257997  0.321027  0.318013
0.328854  0.354994  0.305865
0.420353  0.406840  0.306555
0.545661  0.448955  0.266041
0.660030  0.501390  0.240851
0.781360  0.543457  0.223111
0.902568  0.576565  0.214494
0.241456  0.318179  0.335601
0.328457  0.367806  0.335663
0.414105  0.417415  0.325152
0.493746  0.476177  0.313579
0.593575  0.533361  0.296072
0.699716  0.573653  0.284700
0.826818  0.626826  0.254562
0.955711  0.650788  0.257347
0.320812  0.376289  0.363330
0.405131  0.425912  0.347811
0.484679  0.481668  0.330187
0.557113  0.543374  0.315255
0.656037  0.614454  0.309843
0.754856  0.663962  0.291115
0.860417  0.703064  0.270907
0.987301  0.742922  0.280521
0.381225  0.413223  0.357364
0.461987  0.477186  0.340798
0.554889  0.546837  0.327179
0.620579  0.595519  0.319751
0.715246  0.668394  0.313162
0.811922  0.716771  0.298395
0.906409  0.772394  0.267622
1.013080  0.816263  0.260770
0.451482  0.471676  0.355757
0.543436  0.547052  0.328918
0.613821  0.608600  0.314184
0.693507  0.658962  0.317869
0.766601  0.708799  0.306332
0.879414  0.775485  0.297935
0.953347  0.820450  0.293055
1.062108  0.880266  0.271693
0.133890  0.182958  0.189255
0.155959  0.209189  0.223760
0.214850  0.255516  0.242680
0.318799  0.302437  0.233387
0.455426  0.345869  0.179932
0.581193  0.366219  0.165394
0.710525  0.389768  0.160763
0.830240  0.411149  0.171447
0.162487  0.216117  0.234036
0.192991  0.263184  0.280736
0.243204  0.308069  0.317771
0.340571  0.349244  0.293580
0.481763  0.397340  0.242259
0.587854  0.427374  0.235451
0.713701  0.454806  0.205102
0.844204  0.493370  0.210038
0.203313  0.275228  0.302234
0.236038  0.311303  0.333772
0.275297  0.359931  0.380289
0.387288  0.413208  0.356531
0.476955  0.451492  0.343274
0.630611  0.488086  0.284304
0.744204  0.531011  0.262203
0.876362  0.571749  0.275366
0.238550  0.324386  0.353217
0.272800  0.365333  0.394870
0.310716  0.404756  0.431064
0.410200  0.442914  0.403806
0.522540  0.497499  0.387706
0.662505  0.541201  0.340236
0.772945  0.586235  0.342217
0.903499  0.625730  0.321928
0.277441  0.375392  0.415959
0.310460  0.416108  0.451173
0.372570  0.457407  0.455984
0.468839  0.499880  0.447165
0.554445  0.559350  0.466847
0.684084  0.598068  0.414802
0.806661  0.654924  0.392991
0.928908  0.696961  0.372229
0.307945  0.417713  0.467855
0.359398  0.459357  0.475266
0.469069  0.505180  0.461679
0.537377  0.550285  0.469122
0.628543  0.610418  0.466913
0.734146  0.676520  0.462130
0.858487  0.729913  0.431294
0.962524  0.758499  0.426386
0.344068  0.458219  0.498487
0.428643  0.508055  0.499257
0.521573  0.548572  0.480487
0.605211  0.609674  0.472340
0.698086  0.678823  0.459816
0.789679  0.722329  0.443086
0.894825  0.786815  0.457031
1.014149  0.831481  0.453536
0.396070  0.497030  0.522731
0.501766  0.540875  0.486817
0.593832  0.610845  0.479112
0.669294  0.664315  0.466098
0.786119  0.724054  0.452702
0.856123  0.774507  0.446242
0.955097  0.825786  0.470329
1.056594  0.882156  0.449965
0.151166  0.230671  0.260768
0.190774  0.271692  0.304056
0.233045  0.306781  0.330086
0.325928  0.352583  0.314747
0.441720  0.390297  0.298514
0.580324  0.418577  0.254106
0.725703  0.450193  0.253631
0.848674  0.449321  0.230688
0.192860  0.286987  0.319563
0.230139  0.316378  0.344582
0.257939  0.345151  0.372226
0.348919  0.398764  0.387180
0.454040  0.448165  0.375276
0.582617  0.481117  0.330329
0.716183  0.509187  0.301260
0.853371  0.530299  0.290645
0.235840  0.333068  0.380072
0.264545  0.365100  0.407492
0.299072  0.399127  0.442271
0.382089  0.453500  0.456878
0.478620  0.497145  0.433225
0.601246  0.539281  0.411789
0.741303  0.575851  0.364294
0.874077  0.602545  0.352925
0.269722  0.373804  0.424794
0.309015  0.419487  0.448992
0.344513  0.450264  0.499619
0.390121  0.489340  0.520715
0.513654  0.549019  0.500483
0.624655  0.595551  0.480515
0.763234  0.639425  0.446383
0.888103  0.674388  0.416285
0.313090  0.423539  0.473924
0.347529  0.468094  0.511055
0.389267  0.510707  0.548758
0.440920  0.557216  0.587500
0.564646  0.603034  0.557708
0.661541  0.650515  0.551842
0.800711  0.694711  0.492871
0.925125  0.741715  0.477975
0.344730  0.467381  0.517612
0.381614  0.502340  0.550739
0.437710  0.556166  0.601964
0.492601  0.599538  0.621922
0.601496  0.638622  0.591882
0.708574  0.705599  0.601897
0.825717  0.748953  0.573916
0.951786  0.792643  0.533866
0.380216  0.509915  0.561142
0.420704  0.548268  0.598530
0.478918  0.597274  0.631506
0.572686  0.637179  0.614568
0.684763  0.698644  0.598029
0.773483  0.741947  0.617236
0.887583  0.798748  0.596514
1.004165  0.857060  0.581671
0.423510  0.562845  0.612909
0.459654  0.596534  0.635669
0.557096  0.634713  0.625536
0.658961  0.683251  0.617061
0.751018  0.739751  0.613493
0.841650  0.784468  0.602970
0.949809  0.843897  0.601578
1.055859  0.890329  0.598871
0.177626  0.295380  0.359698
0.211299  0.324951  0.380628
0.256053  0.364382  0.414352
0.331497  0.399363  0.403344
0.447192  0.434033  0.373963
0.558443  0.467453  0.364609
0.697014  0.476469  0.337369
0.850012  0.487280  0.334414
0.219460  0.342515  0.402300
0.263284  0.375937  0.435102
0.297994  0.419955  0.458647
0.351196  0.448984  0.477287
0.461051  0.492268  0.448545
0.571956  0.534468  0.440779
0.708343  0.575295  0.415167
0.856176  0.593213  0.383650
0.269111  0.385891  0.442648
0.308188  0.428382  0.477799
0.346386  0.465311  0.516295
0.390127  0.503271  0.539903
0.477917  0.538287  0.524392
0.605425  0.599066  0.519442
0.727334  0.632399  0.479056
0.868658  0.660838  0.445091
0.306109  0.428995  0.490501
0.349325  0.477331  0.526596
0.389724  0.520195  0.567850
0.430177  0.546450  0.589577
0.492557  0.595742  0.607176
0.623285  0.637333  0.564210
0.752750  0.683099  0.540017
0.884521  0.736150  0.537115
0.343312  0.477579  0.541239
0.390601  0.522922  0.571258
0.430894  0.559841  0.604760
0.471296  0.600414  0.644000
0.532300  0.654483  0.679323
0.649189  0.692523  0.640597
0.772627  0.740167  0.614698
0.919715  0.801825  0.591123
0.381049  0.522664  0.576090
0.422008  0.558186  0.610031
0.471175  0.605507  0.644441
0.516111  0.655652  0.694054
0.577852  0.701200  0.732794
0.695053  0.745751  0.705750
0.824930  0.797804  0.682597
0.949228  0.840836  0.660195
0.419888  0.567878  0.623584
0.475715  0.614377  0.666186
0.519297  0.658509  0.710825
0.561100  0.688682  0.722919
0.636420  0.737659  0.755748
0.747568  0.783248  0.742696
0.872673  0.832981  0.724470
0.968511  0.871230  0.710052
0.456585  0.614116  0.672755
0.490708  0.646527  0.710513
0.531655  0.693801  0.757200
0.605917  0.732825  0.763885
0.707541  0.783906  0.776357
0.827475  0.822186  0.739111
0.930288  0.871091  0.742899
1.029757  0.913402  0.730915
0.160224  0.348315  0.460219
0.235025  0.388322  0.470977
0.281502  0.426794  0.498687
0.336864  0.464675  0.524800
0.423457  0.489781  0.485102
0.551071  0.517360  0.459396
0.691829  0.522874  0.442074
0.835993  0.523620  0.439001
0.235431  0.404755  0.493608
0.285246  0.434401  0.497743
0.334420  0.469100  0.535607
0.383334  0.521418  0.576773
0.436909  0.543887  0.559832
0.580187  0.580933  0.510218
0.698236  0.607928  0.502242
0.831557  0.631386  0.487555
0.283872  0.439789  0.518865
0.338255  0.481040  0.545611
0.385814  0.524513  0.580254
0.427635  0.566590  0.618016
0.479917  0.607691  0.642225
0.598851  0.641773  0.597249
0.710461  0.683403  0.583642
0.850916  0.718602  0.558908
0.336834  0.484247  0.552752
0.380555  0.517756  0.576782
0.435654  0.573880  0.622577
0.478628  0.621183  0.673074
0.530936  0.669727  0.711436
0.613630  0.688929  0.670803
0.750476  0.743229  0.640761
0.875977  0.778508  0.622848
0.371222  0.525893  0.591123
0.425383  0.573677  0.628858
0.469092  0.614664  0.664288
0.513755  0.673026  0.731243
0.557224  0.711824  0.773412
0.644936  0.741826  0.752165
0.785758  0.784552  0.709004
0.907032  0.833626  0.700124
0.416221  0.576582  0.641361
0.464661  0.610486  0.669844
0.513395  0.667149  0.728027
0.553712  0.708339  0.778577
0.601425  0.747185  0.818821
0.675362  0.793549  0.835538
0.803667  0.837472  0.800394
0.939598  0.873304  0.754605
0.447464  0.622419  0.685859
0.493461  0.657210  0.721604
0.539985  0.702375  0.772341
0.598210  0.750480  0.826085
0.652894  0.782300  0.844594
0.726750  0.839708  0.881658
0.833897  0.884422  0.884177
0.977468  0.910454  0.813329
0.479972  0.654889  0.735333
0.526332  0.699776  0.774980
0.574142  0.731091  0.812550
0.629998  0.774983  0.853670
0.697961  0.820293  0.877429
0.782811  0.879050  0.919093
0.890617  0.919558  0.910381
1.013772  0.955443  0.865762
0.132237  0.381481  0.586029
0.201634  0.433039  0.593972
0.283378  0.487990  0.605720
0.327428  0.524318  0.622756
0.399326  0.562996  0.637780
0.534836  0.573190  0.589778
0.703966  0.564535  0.558998
0.856826  0.562048  0.549051
0.195566  0.445508  0.607709
0.292135  0.491468  0.592531
0.356362  0.538388  0.621898
0.395863  0.577827  0.658948
0.448846  0.616017  0.690393
0.549465  0.662109  0.678035
0.677940  0.669879  0.618081
0.839077  0.679502  0.585477
0.280593  0.493080  0.611252
0.358853  0.538482  0.627020
0.413315  0.589722  0.661095
0.462704  0.636414  0.698617
0.498955  0.675992  0.747207
0.580913  0.711787  0.758051
0.702151  0.739458  0.691121
0.856018  0.776663  0.654454
0.347041  0.530171  0.622590
0.404214  0.577332  0.650749
0.458002  0.627863  0.697839
0.501233  0.676828  0.753794
0.542427  0.706958  0.792150
0.609550  0.757914  0.818648
0.708775  0.798367  0.810553
0.862853  0.825163  0.730178
0.392781  0.572863  0.656913
0.452836  0.621096  0.684017
0.494254  0.660436  0.736147
0.542475  0.703388  0.776447
0.587579  0.743297  0.818162
0.654501  0.788872  0.859275
0.740924  0.852401  0.892362
0.881820  0.879380  0.826164
0.427393  0.608405  0.689569
0.485534  0.659327  0.727414
0.530175  0.695556  0.779944
0.583697  0.736169  0.818229
0.633163  0.780190  0.851192
0.715579  0.830179  0.884281
0.796297  0.887463  0.927744
0.892720  0.929092  0.920708
0.470835  0.653542  0.740780
0.520682  0.693077  0.781601
0.570789  0.729844  0.815945
0.625021  0.767928  0.844490
0.686637  0.816353  0.865525
0.760652  0.866509  0.912310
0.842623  0.917185  0.947022
0.936184  0.967741  0.984832
0.493005  0.682281  0.780389
0.548072  0.717218  0.812271
0.610005  0.762998  0.846367
0.679326  0.812113  0.877551
0.740407  0.850210  0.905276
0.816694  0.906979  0.935268
0.897058  0.950301  0.970891
0.979250  0.988332  0.997183
