LUT/LUT_16.CUBE
TITLE "LUT_16" 
#LUT size 
LUT_3D_SIZE 15 
DOMAIN_MIN 0.0 0.0 0.0 
DOMAIN_MAX 1.0 1.0 1.0 
#data point 
0.049714  0.050903  0.023963
0.070892  0.066595  0.027166
0.096801  0.089811  0.041326
0.134204  0.123203  0.054140
0.204400  0.165112  0.059621
0.250797  0.191355  0.056627
0.324841  0.232089  0.045693
0.373755  0.236881  0.049199
0.433981  0.281528  0.046894
0.496700  0.301982  0.039655
0.549690  0.316765  0.038261
0.596083  0.336573  0.040869
0.674279  0.364941  0.040032
0.732013  0.378324  0.038007
0.807969  0.394340  0.039436
0.063636  0.059148  0.034562
0.084301  0.078173  0.035149
0.107963  0.099964  0.049628
0.162563  0.136852  0.054917
0.213486  0.175584  0.065263
0.277250  0.209997  0.055970
0.336380  0.247508  0.056516
0.403331  0.267364  0.052621
0.452313  0.294763  0.046502
0.493640  0.307946  0.039882
0.568502  0.336801  0.048120
0.634695  0.364899  0.045640
0.701150  0.380462  0.041460
0.761122  0.404206  0.037234
0.814729  0.424403  0.049412
0.098544  0.092972  0.043764
0.096547  0.091518  0.047911
0.132909  0.118711  0.055964
0.173410  0.149257  0.069251
0.249128  0.200328  0.058856
0.296081  0.222771  0.056927
0.366406  0.264685  0.062737
0.406646  0.287660  0.050738
0.474109  0.315577  0.061541
0.529243  0.332540  0.050847
0.579990  0.357700  0.051125
0.653658  0.391497  0.042267
0.708937  0.410106  0.049925
0.775875  0.422165  0.049165
0.830676  0.447041  0.050302
0.117445  0.110766  0.061994
0.136521  0.120409  0.065209
0.165460  0.146968  0.069761
0.220546  0.181659  0.080959
0.283811  0.227143  0.071298
0.326886  0.249994  0.062543
0.382267  0.275805  0.062405
0.441972  0.304437  0.050682
0.495158  0.328249  0.051798
0.542584  0.350763  0.047193
0.597115  0.382027  0.048534
0.672394  0.397599  0.050521
0.721023  0.427328  0.047324
0.791562  0.437031  0.046375
0.854353  0.474870  0.047377
0.143645  0.134162  0.068903
0.180077  0.161106  0.076639
0.222958  0.192299  0.086293
0.256759  0.212674  0.074325
0.306256  0.239183  0.068373
0.361021  0.276544  0.081731
0.405186  0.298178  0.071799
0.466012  0.336470  0.055167
0.522207  0.353018  0.060033
0.573352  0.377348  0.052078
0.620380  0.413689  0.057343
0.699325  0.440193  0.050967
0.747577  0.455306  0.057491
0.815191  0.474355  0.050685
0.870870  0.496780  0.054077
0.181158  0.169373  0.095691
0.218516  0.188364  0.078091
0.254525  0.213666  0.085226
0.314344  0.243962  0.068478
0.342001  0.281076  0.068887
0.373057  0.292606  0.078655
0.439806  0.336167  0.066234
0.487705  0.368864  0.068217
0.527427  0.384754  0.060527
0.570586  0.402546  0.053572
0.644088  0.438822  0.057061
0.694024  0.460035  0.061533
0.771215  0.474840  0.054097
0.825105  0.505795  0.061180
0.880830  0.526003  0.058047
0.225614  0.198026  0.081849
0.265388  0.220069  0.088748
0.304643  0.249766  0.081943
0.347008  0.287573  0.084130
0.378328  0.309288  0.068179
0.428003  0.339417  0.075887
0.460224  0.363306  0.070640
0.512017  0.401049  0.073616
0.555569  0.416791  0.063148
0.620846  0.463954  0.059047
0.664604  0.484419  0.056283
0.713194  0.487274  0.060471
0.774484  0.519899  0.051105
0.838788  0.528199  0.059703
0.908777  0.551432  0.060713
0.276650  0.240427  0.101182
0.310822  0.262423  0.085984
0.344174  0.273692  0.079359
0.390531  0.314024  0.070648
0.422574  0.351675  0.080005
0.462684  0.384929  0.062012
0.489400  0.405193  0.070695
0.527013  0.431916  0.067813
0.584443  0.466536  0.065423
0.636323  0.501367  0.057408
0.697530  0.515656  0.061537
0.744044  0.545091  0.070937
0.801640  0.566256  0.065701
0.866920  0.575710  0.062135
0.933330  0.603835  0.066478
0.305236  0.252660  0.102584
0.349951  0.296357  0.081455
0.381452  0.314607  0.066269
0.411705  0.336150  0.072455
0.464622  0.387890  0.077487
0.490001  0.409606  0.075468
0.527337  0.441859  0.066966
0.582109  0.482065  0.071967
0.613568  0.508941  0.071168
0.660975  0.548045  0.063445
0.700790  0.567098  0.068859
0.754405  0.586529  0.071539
0.820167  0.602217  0.064671
0.865398  0.634739  0.069313
0.941541  0.654082  0.059927
0.363243  0.301604  0.095183
0.388647  0.325476  0.080178
0.414660  0.357999  0.073634
0.459719  0.382858  0.073927
0.494091  0.420944  0.067279
0.529746  0.440110  0.067949
0.568518  0.481559  0.068282
0.613298  0.513857  0.071458
0.651374  0.549687  0.056040
0.685419  0.578988  0.068434
0.731835  0.616457  0.064744
0.775373  0.631406  0.059771
0.827249  0.659114  0.070836
0.891248  0.663459  0.068440
0.944400  0.700950  0.069218
0.379043  0.325416  0.090849
0.425890  0.352363  0.084548
0.455065  0.396488  0.073862
0.484972  0.423696  0.071205
0.539827  0.458863  0.077394
0.566146  0.488255  0.071767
0.600554  0.515195  0.083315
0.649442  0.559102  0.064215
0.694314  0.594114  0.067766
0.719733  0.611146  0.071453
0.767634  0.653487  0.061896
0.804313  0.667274  0.066672
0.859627  0.700306  0.072367
0.916228  0.721586  0.065512
0.961293  0.737443  0.078891
0.424753  0.364298  0.082912
0.452178  0.387892  0.081326
0.492652  0.425348  0.074497
0.521368  0.451251  0.065111
0.563036  0.491886  0.069145
0.616208  0.522196  0.058553
0.633220  0.550913  0.068638
0.666206  0.578504  0.060143
0.717307  0.617104  0.071937
0.751777  0.645525  0.058761
0.792947  0.676600  0.072784
0.843653  0.702290  0.067824
0.885939  0.729555  0.063932
0.932559  0.768439  0.077597
0.990391  0.781871  0.069534
0.450096  0.397900  0.078112
0.485576  0.422400  0.074461
0.525982  0.454686  0.069475
0.552026  0.495456  0.062990
0.602764  0.532290  0.070723
0.640712  0.557095  0.074443
0.666133  0.588457  0.067461
0.707163  0.609058  0.070393
0.753737  0.642393  0.072229
0.778419  0.661972  0.070227
0.824305  0.697881  0.064049
0.873757  0.729597  0.078469
0.913408  0.754391  0.076114
0.952622  0.781621  0.064722
1.016912  0.809605  0.073614
0.496033  0.435735  0.070084
0.530567  0.474988  0.068760
0.564029  0.505668  0.068855
0.605668  0.529928  0.073115
0.633902  0.559584  0.066275
0.668308  0.581236  0.058547
0.706524  0.611314  0.068828
0.746652  0.642793  0.062541
0.774134  0.668001  0.070280
0.807279  0.684686  0.072911
0.852198  0.715423  0.070234
0.901344  0.743788  0.071626
0.944551  0.779820  0.074136
0.977940  0.800500  0.075570
1.027215  0.824290  0.070651
0.528109  0.468534  0.074908
0.553678  0.496275  0.068925
0.592155  0.528965  0.067897
0.638740  0.559459  0.068152
0.666816  0.590704  0.070950
0.697250  0.614836  0.070698
0.730137  0.637306  0.078373
0.770008  0.664461  0.068806
0.800454  0.692804  0.065491
0.850945  0.714528  0.072681
0.885973  0.735270  0.082020
0.922170  0.770307  0.078998
0.971217  0.789926  0.078763
1.028466  0.821542  0.076392
1.073295  0.849510  0.080308
0.065057  0.067481  0.031661
0.077908  0.070469  0.030598
0.099260  0.093946  0.047880
0.127180  0.119181  0.051778
0.185515  0.155540  0.065585
0.248468  0.193040  0.057286
0.329871  0.236868  0.053183
0.376258  0.252916  0.048027
0.442143  0.280115  0.042706
0.488304  0.293256  0.043419
0.557735  0.324138  0.042235
0.608833  0.347961  0.038434
0.681448  0.362772  0.036613
0.734758  0.379915  0.042623
0.794306  0.395825  0.034994
0.085750  0.081414  0.045702
0.086781  0.084113  0.042295
0.118133  0.107781  0.051743
0.164373  0.147745  0.071617
0.221111  0.184694  0.069524
0.288161  0.219491  0.053114
0.341788  0.245636  0.053009
0.385763  0.275733  0.053856
0.452959  0.294651  0.045072
0.513299  0.317946  0.042444
0.563899  0.337644  0.046069
0.628661  0.369224  0.039994
0.701544  0.389569  0.038576
0.755976  0.399407  0.044164
0.815777  0.425528  0.046389
0.093190  0.092775  0.055008
0.108071  0.106037  0.063158
0.149407  0.135922  0.075504
0.179118  0.165255  0.080384
0.235124  0.196157  0.074830
0.305797  0.240052  0.072291
0.350848  0.261991  0.059104
0.418259  0.285494  0.056069
0.466174  0.312797  0.051907
0.522379  0.334465  0.051924
0.587190  0.369457  0.046104
0.642158  0.384630  0.050811
0.721927  0.406591  0.041194
0.769193  0.435505  0.047973
0.841245  0.452315  0.050221
0.119830  0.126612  0.079725
0.142040  0.135989  0.076960
0.169922  0.165183  0.095427
0.210141  0.187147  0.094687
0.258644  0.216672  0.082254
0.332382  0.255119  0.075849
0.378905  0.280908  0.070615
0.435211  0.319072  0.077810
0.488356  0.337081  0.060494
0.537129  0.361753  0.055918
0.603838  0.384993  0.060704
0.663014  0.412120  0.056816
0.729708  0.430572  0.053098
0.786948  0.449809  0.049270
0.850388  0.472438  0.050745
0.150565  0.148328  0.092429
0.181906  0.170869  0.091848
0.208698  0.188907  0.100427
0.249080  0.216641  0.095152
0.310573  0.253094  0.100029
0.352256  0.264715  0.085446
0.407390  0.306465  0.081941
0.450816  0.329573  0.067942
0.506725  0.360389  0.077888
0.560591  0.393191  0.079392
0.613672  0.403080  0.060321
0.684428  0.435475  0.056699
0.747638  0.461992  0.062685
0.798775  0.472060  0.056564
0.859521  0.498964  0.061202
0.181988  0.177075  0.105013
0.222709  0.197593  0.107185
0.260063  0.231973  0.121649
0.292605  0.246206  0.115908
0.342138  0.277164  0.089364
0.390946  0.306196  0.088280
0.455513  0.344067  0.085482
0.467805  0.360827  0.094721
0.532712  0.385875  0.071447
0.578494  0.416688  0.082549
0.644421  0.444247  0.075775
0.694219  0.472627  0.066322
0.758305  0.480141  0.061953
0.826400  0.509081  0.059336
0.895950  0.542117  0.059694
0.234585  0.225794  0.140187
0.273533  0.232323  0.113009
0.290470  0.261435  0.126215
0.334635  0.280786  0.120472
0.382745  0.314574  0.098990
0.425296  0.355767  0.088150
0.455536  0.368881  0.082731
0.513588  0.402329  0.098001
0.554827  0.423696  0.088566
0.597390  0.446686  0.081015
0.674084  0.482095  0.073413
0.723334  0.500034  0.069520
0.781157  0.521297  0.071636
0.860616  0.539101  0.062599
0.908826  0.568267  0.056983
0.264104  0.238155  0.128138
0.292312  0.267833  0.130513
0.337472  0.294262  0.129483
0.375158  0.317816  0.121255
0.419778  0.350706  0.091370
0.458260  0.377187  0.099928
0.503466  0.414594  0.090138
0.552152  0.445466  0.081796
0.589786  0.463799  0.076409
0.625241  0.489599  0.085907
0.679082  0.521024  0.071411
0.740296  0.530981  0.068670
0.805410  0.562092  0.073339
0.862752  0.586060  0.070661
0.934409  0.596726  0.070114
0.304437  0.268714  0.121570
0.342259  0.296392  0.136225
0.375566  0.317476  0.119448
0.402649  0.346270  0.119136
0.452248  0.380278  0.103872
0.497196  0.416243  0.090361
0.533660  0.445931  0.092453
0.569471  0.474790  0.076414
0.607549  0.516958  0.082065
0.670496  0.556477  0.089427
0.713349  0.569205  0.084281
0.760218  0.581715  0.088451
0.819340  0.605900  0.078764
0.888248  0.643181  0.078275
0.938446  0.641904  0.068687
0.335465  0.288296  0.128005
0.396513  0.333190  0.126833
0.420052  0.363500  0.126215
0.454324  0.384401  0.101322
0.490207  0.428120  0.100727
0.537976  0.457194  0.088810
0.578402  0.497712  0.096158
0.605943  0.517022  0.091305
0.648618  0.555434  0.087499
0.686836  0.580863  0.074584
0.739762  0.624446  0.074336
0.779277  0.640171  0.066674
0.831376  0.657346  0.077808
0.894723  0.672003  0.073434
0.962711  0.695953  0.076496
0.372965  0.324435  0.134376
0.395063  0.349793  0.130853
0.439752  0.392423  0.124504
0.495047  0.432047  0.103841
0.537455  0.452189  0.093720
0.568036  0.497164  0.090514
0.618007  0.530442  0.089999
0.649496  0.561698  0.082635
0.690310  0.585037  0.090538
0.716547  0.616339  0.084441
0.770287  0.640622  0.078674
0.810898  0.678182  0.084825
0.853619  0.698328  0.066978
0.912694  0.723762  0.080466
0.966117  0.725953  0.081728
0.404502  0.350249  0.131449
0.452739  0.389358  0.117416
0.492565  0.432674  0.104182
0.525724  0.454860  0.090257
0.559675  0.495441  0.100225
0.603750  0.525701  0.098847
0.627308  0.543221  0.094980
0.672396  0.584723  0.097428
0.705833  0.608718  0.087859
0.735396  0.631502  0.082066
0.791713  0.671866  0.068965
0.837327  0.700573  0.096527
0.892382  0.734319  0.081224
0.926952  0.759933  0.081528
0.988590  0.777626  0.074341
0.462226  0.397187  0.124420
0.506096  0.442159  0.082562
0.527754  0.457463  0.104117
0.572750  0.500052  0.095315
0.595716  0.517251  0.099093
0.633079  0.552798  0.093880
0.674369  0.600560  0.095825
0.692821  0.609399  0.091882
0.752449  0.640182  0.095674
0.787500  0.670022  0.099615
0.825813  0.692922  0.079202
0.872695  0.736046  0.091016
0.910859  0.750437  0.083131
0.973434  0.781901  0.093171
1.007766  0.803798  0.084153
0.474328  0.425117  0.113243
0.503488  0.454463  0.094360
0.565385  0.491527  0.089603
0.579788  0.510533  0.091266
0.640195  0.561710  0.085356
0.666950  0.580172  0.077758
0.692645  0.612236  0.102878
0.744398  0.647382  0.087995
0.776709  0.666649  0.084094
0.806927  0.694542  0.099293
0.857600  0.729562  0.087092
0.894888  0.740367  0.093506
0.940124  0.773829  0.097802
0.987656  0.802509  0.078976
1.035876  0.831744  0.074108
0.527144  0.469157  0.120879
0.552254  0.500471  0.085434
0.578585  0.513069  0.105518
0.621870  0.550450  0.086078
0.648321  0.578932  0.089362
0.702653  0.610356  0.097188
0.730676  0.641770  0.086544
0.776759  0.673558  0.090513
0.798235  0.683091  0.093162
0.843964  0.717370  0.095225
0.888390  0.747642  0.094970
0.912502  0.765522  0.086800
0.974453  0.806487  0.098709
1.019711  0.824120  0.087653
1.074909  0.861134  0.098622
0.085948  0.082594  0.044929
0.099559  0.102556  0.057585
0.116735  0.110285  0.060935
0.154181  0.138053  0.067680
0.196746  0.167964  0.077193
0.263636  0.204178  0.066890
0.314345  0.232230  0.058120
0.391315  0.267100  0.055556
0.447645  0.287174  0.051112
0.486081  0.306019  0.048662
0.545032  0.324744  0.043561
0.614904  0.351965  0.045232
0.662551  0.367471  0.041008
0.754700  0.395941  0.044044
0.803094  0.404666  0.035060
0.107927  0.111234  0.074825
0.116659  0.115475  0.076530
0.131709  0.134680  0.086058
0.164360  0.157730  0.098753
0.221676  0.199787  0.102247
0.289498  0.234370  0.076457
0.337883  0.261899  0.067184
0.388147  0.278722  0.066168
0.458329  0.307338  0.056240
0.513096  0.331242  0.058752
0.571666  0.359543  0.047311
0.634068  0.376266  0.048904
0.692534  0.398207  0.047724
0.773317  0.421220  0.046452
0.821102  0.432430  0.044720
0.115270  0.123430  0.086412
0.133166  0.146779  0.113681
0.154620  0.151549  0.102614
0.191233  0.173567  0.100039
0.233984  0.205867  0.112884
0.303777  0.256303  0.104484
0.353362  0.279163  0.085070
0.404631  0.299377  0.079047
0.474717  0.330195  0.075080
0.526607  0.358308  0.083863
0.580403  0.377985  0.061106
0.640850  0.408098  0.050228
0.713909  0.418359  0.055193
0.769868  0.445032  0.056318
0.824109  0.455637  0.046983
0.137429  0.156658  0.128515
0.152992  0.163506  0.132058
0.157998  0.173837  0.140735
0.206350  0.201412  0.132871
0.238843  0.221146  0.133331
0.324691  0.271335  0.118847
0.379537  0.302467  0.107557
0.422112  0.322187  0.097985
0.493400  0.359990  0.084977
0.547893  0.380283  0.090916
0.586827  0.399865  0.081278
0.653043  0.426897  0.073844
0.718895  0.440442  0.062871
0.780717  0.461474  0.055966
0.846319  0.485588  0.052827
0.144250  0.174298  0.154390
0.184033  0.209652  0.175926
0.204603  0.211264  0.160448
0.229925  0.227524  0.159010
0.289643  0.261166  0.130965
0.333240  0.287431  0.141451
0.393953  0.314711  0.132011
0.464679  0.349775  0.112228
0.507798  0.376591  0.111739
0.564881  0.400872  0.104738
0.620984  0.425614  0.103741
0.687545  0.447530  0.093449
0.737262  0.474820  0.082922
0.797625  0.499638  0.069808
0.866361  0.520318  0.065243
0.163623  0.197905  0.180138
0.198245  0.215246  0.176365
0.242704  0.247271  0.177700
0.267156  0.258591  0.173677
0.318878  0.288876  0.166832
0.370061  0.320473  0.166285
0.428667  0.342058  0.142338
0.476766  0.372301  0.130661
0.542879  0.406201  0.107300
0.578762  0.424553  0.115733
0.640160  0.451615  0.100232
0.695534  0.481162  0.116665
0.748225  0.488792  0.093696
0.820112  0.530729  0.085400
0.875222  0.537356  0.081480
0.208451  0.227157  0.188232
0.238750  0.245836  0.181619
0.284240  0.273376  0.187955
0.325732  0.294476  0.182233
0.359385  0.322807  0.171468
0.411474  0.343202  0.163874
0.455692  0.380400  0.148581
0.511631  0.408488  0.143732
0.543488  0.419800  0.131718
0.598256  0.458158  0.124492
0.663046  0.492017  0.134053
0.720603  0.512531  0.141915
0.776154  0.525737  0.120976
0.845994  0.564053  0.113232
0.899805  0.573936  0.089617
0.258878  0.258798  0.201634
0.287387  0.280974  0.208901
0.324998  0.299374  0.194744
0.353141  0.319968  0.168263
0.404246  0.357508  0.181646
0.442948  0.381398  0.161768
0.492121  0.414135  0.160597
0.541778  0.444552  0.139469
0.593580  0.473857  0.123183
0.653354  0.496097  0.130200
0.679089  0.517295  0.130161
0.728439  0.551364  0.136618
0.784209  0.573501  0.133802
0.873587  0.594181  0.112368
0.913117  0.609576  0.109085
0.274217  0.276659  0.205635
0.330639  0.304457  0.197752
0.354746  0.326454  0.181506
0.403937  0.357852  0.188296
0.430912  0.385426  0.185550
0.465830  0.414988  0.177109
0.528655  0.455162  0.163587
0.561431  0.485313  0.145252
0.627131  0.511429  0.124286
0.663851  0.538002  0.132490
0.712983  0.563757  0.127374
0.757001  0.594916  0.134381
0.819309  0.608960  0.134230
0.876252  0.632418  0.123501
0.943535  0.652068  0.120819
0.308809  0.302242  0.211566
0.360893  0.340840  0.195036
0.402762  0.360794  0.182908
0.429394  0.387335  0.198501
0.467318  0.412208  0.190325
0.521206  0.452344  0.164329
0.565090  0.484718  0.161393
0.600284  0.513950  0.143933
0.642300  0.553678  0.136557
0.696969  0.583784  0.127536
0.738457  0.610642  0.134164
0.789467  0.637590  0.128189
0.837672  0.657985  0.132854
0.885617  0.681903  0.136259
0.941839  0.693645  0.120329
0.360799  0.337927  0.196030
0.397726  0.361532  0.184902
0.432506  0.394033  0.200821
0.484632  0.432780  0.173002
0.513434  0.452566  0.164494
0.544439  0.479387  0.160411
0.580344  0.517457  0.160264
0.641046  0.558607  0.141614
0.682562  0.586220  0.115401
0.718246  0.608659  0.134049
0.761470  0.639895  0.136426
0.798729  0.670722  0.136606
0.851691  0.708889  0.126790
0.914357  0.713669  0.132846
0.986598  0.754516  0.129115
0.403137  0.369258  0.202726
0.429556  0.396535  0.188541
0.482992  0.435492  0.196984
0.520850  0.456309  0.178570
0.564030  0.488456  0.173560
0.593647  0.519032  0.164472
0.619792  0.535129  0.159989
0.663607  0.580018  0.136119
0.716345  0.612372  0.143015
0.764684  0.646619  0.122858
0.795561  0.674321  0.135250
0.832182  0.709045  0.136894
0.877640  0.733549  0.139666
0.935691  0.767819  0.135228
0.992121  0.788427  0.141841
0.435715  0.397670  0.195776
0.464785  0.426489  0.191495
0.512975  0.453131  0.169496
0.531910  0.481458  0.189478
0.577827  0.511961  0.172912
0.629522  0.558995  0.163517
0.660175  0.572949  0.140487
0.703371  0.613376  0.146215
0.749465  0.647798  0.135973
0.783359  0.669037  0.135694
0.813915  0.699859  0.143482
0.851229  0.726211  0.132987
0.916474  0.760536  0.130239
0.965711  0.780550  0.151869
1.004709  0.806097  0.124335
0.471563  0.424583  0.206820
0.505168  0.450052  0.181361
0.525845  0.487336  0.191752
0.571103  0.519275  0.162063
0.609434  0.545905  0.149425
0.670789  0.595830  0.148892
0.701829  0.603862  0.139475
0.737184  0.650879  0.138717
0.771131  0.670987  0.134240
0.807926  0.693269  0.127549
0.846628  0.724380  0.127959
0.904325  0.757519  0.131948
0.937046  0.780459  0.138991
0.990157  0.813612  0.141117
1.035556  0.830215  0.155690
0.492064  0.456309  0.199610
0.548914  0.494231  0.188242
0.581684  0.535000  0.173187
0.612789  0.553125  0.157182
0.668466  0.582454  0.147029
0.685032  0.607979  0.144595
0.731613  0.640040  0.139725
0.765576  0.662512  0.136038
0.800268  0.697142  0.144335
0.845915  0.728214  0.156776
0.895778  0.756917  0.132807
0.922668  0.764907  0.145032
0.963174  0.803756  0.148394
1.015599  0.827620  0.139455
1.068420  0.858345  0.134728
0.108956  0.120020  0.077808
0.113595  0.125626  0.087820
0.133334  0.142441  0.110189
0.156851  0.164791  0.122735
0.198612  0.178469  0.096226
0.255941  0.212039  0.088418
0.342121  0.256987  0.085487
0.395562  0.278542  0.069163
0.421129  0.290069  0.068941
0.495016  0.325580  0.067105
0.545147  0.338501  0.062055
0.613867  0.361499  0.060973
0.668627  0.380273  0.056310
0.746496  0.397870  0.042902
0.800650  0.413370  0.045148
0.115374  0.135180  0.106033
0.123317  0.151569  0.128040
0.147876  0.165041  0.133603
0.171082  0.182814  0.137475
0.215177  0.203992  0.131546
0.274531  0.237656  0.118861
0.346395  0.275651  0.112772
0.401845  0.304693  0.099491
0.449064  0.312578  0.092603
0.506967  0.337922  0.079098
0.560758  0.367407  0.077997
0.624034  0.384604  0.067700
0.698838  0.417729  0.067849
0.751168  0.417337  0.051209
0.822024  0.439328  0.052746
0.132377  0.155331  0.126791
0.140485  0.169979  0.156405
0.167896  0.192478  0.171944
0.188583  0.209003  0.181433
0.222393  0.229837  0.164136
0.296409  0.260622  0.140959
0.361789  0.299787  0.133905
0.412390  0.313493  0.124162
0.470630  0.336123  0.108961
0.526095  0.378510  0.096463
0.580520  0.393242  0.098899
0.635231  0.410911  0.079496
0.689854  0.431155  0.074946
0.768080  0.449950  0.074131
0.843171  0.471975  0.068265
0.144029  0.182871  0.164723
0.162993  0.198380  0.186293
0.180486  0.214803  0.204412
0.202677  0.231620  0.197361
0.256965  0.259824  0.196293
0.316285  0.289476  0.167551
0.380803  0.321863  0.163491
0.422834  0.335387  0.135399
0.505139  0.371503  0.125960
0.557675  0.401339  0.118662
0.590279  0.410750  0.122787
0.650602  0.440170  0.119757
0.726468  0.462442  0.112392
0.779415  0.483024  0.092114
0.834203  0.502047  0.102286
0.162718  0.204751  0.205060
0.185341  0.225584  0.220973
0.202844  0.235335  0.214297
0.232200  0.259093  0.222264
0.275405  0.275034  0.206477
0.326844  0.310415  0.200992
0.378608  0.326648  0.186839
0.445209  0.366494  0.167658
0.493087  0.388512  0.157078
0.560196  0.411370  0.125613
0.614855  0.435766  0.136622
0.670105  0.453740  0.133184
0.720125  0.496576  0.134823
0.790247  0.509186  0.121817
0.866356  0.531235  0.112267
0.186257  0.232532  0.214167
0.196270  0.242776  0.233625
0.224167  0.265773  0.247884
0.252795  0.276384  0.243750
0.304952  0.308225  0.245461
0.350009  0.327618  0.219123
0.425419  0.361728  0.188423
0.464687  0.388031  0.198325
0.519170  0.414820  0.177763
0.555670  0.424115  0.173369
0.636532  0.466114  0.160902
0.681557  0.497933  0.152987
0.751126  0.518847  0.143241
0.804013  0.544802  0.143956
0.860316  0.559378  0.130429
0.214276  0.253395  0.243247
0.230981  0.265960  0.233500
0.259054  0.281896  0.251165
0.297390  0.313755  0.251689
0.331226  0.325806  0.241109
0.399091  0.367902  0.241815
0.447603  0.385046  0.213518
0.493955  0.423007  0.219248
0.547461  0.443633  0.197650
0.589558  0.459671  0.181441
0.649483  0.482781  0.172568
0.716104  0.519411  0.160437
0.765351  0.546300  0.172426
0.827514  0.564272  0.159131
0.892667  0.598408  0.162774
0.216263  0.270173  0.265486
0.275140  0.295270  0.266392
0.309769  0.327906  0.269683
0.337827  0.341993  0.266424
0.381803  0.364238  0.251741
0.437696  0.388961  0.211940
0.476953  0.424847  0.225875
0.528471  0.445491  0.227754
0.568402  0.474600  0.226703
0.630511  0.497960  0.193749
0.695513  0.543017  0.182694
0.741025  0.549790  0.190394
0.799634  0.583743  0.176210
0.838095  0.596487  0.179365
0.909816  0.620213  0.182069
0.269053  0.299540  0.265008
0.298387  0.321330  0.271284
0.339708  0.345811  0.278201
0.373803  0.363996  0.263597
0.424575  0.401382  0.257313
0.461050  0.427786  0.250161
0.498484  0.453290  0.227365
0.551456  0.492374  0.226264
0.588923  0.499658  0.232772
0.665441  0.543529  0.205295
0.723258  0.575649  0.177504
0.773616  0.593645  0.196958
0.811384  0.615280  0.190534
0.870294  0.646318  0.199575
0.936716  0.654972  0.197987
0.291735  0.327481  0.291232
0.337533  0.345945  0.270037
0.388584  0.374405  0.273946
0.424812  0.393038  0.260174
0.474401  0.431102  0.246512
0.508711  0.452648  0.244144
0.542882  0.483261  0.253546
0.580173  0.523313  0.227985
0.642167  0.551271  0.216605
0.673498  0.575466  0.193683
0.742378  0.615284  0.196150
0.795173  0.652256  0.195570
0.824062  0.656909  0.191152
0.905988  0.694915  0.200896
