LUT/LUT_30.CUBE
TITLE "LUT_30" 
#LUT size 
LUT_3D_SIZE 8 
DOMAIN_MIN 0.0 0.0 0.0 
DOMAIN_MAX 1.0 1.0 1.0 
#data point 
0.077156  0.064916  0.035075
0.100419  0.097228  0.049355
0.175260  0.158700  0.072468
0.311755  0.235569  0.061072
0.416504  0.305764  0.063072
0.520239  0.365015  0.064084
0.621977  0.414850  0.052607
0.734386  0.478973  0.059840
0.112139  0.103280  0.055024
0.127686  0.118575  0.060263
0.222317  0.195972  0.088467
0.351901  0.274494  0.088889
0.465838  0.330526  0.079594
0.540474  0.395256  0.071400
0.653024  0.459909  0.070386
0.765351  0.517384  0.063797
0.147870  0.142440  0.077604
0.211570  0.190749  0.104468
0.292434  0.245149  0.090269
0.399919  0.311341  0.087490
0.501841  0.369279  0.073422
0.595935  0.437953  0.075750
0.699574  0.496335  0.064895
0.816303  0.558246  0.061980
0.229646  0.192320  0.084096
0.305214  0.252286  0.103899
0.386878  0.302291  0.080231
0.452372  0.342837  0.084598
0.556254  0.418363  0.077024
0.655170  0.481635  0.075946
0.737234  0.547418  0.077512
0.863859  0.608195  0.071679
0.301064  0.257302  0.119270
0.386298  0.297391  0.085787
0.474677  0.365596  0.094118
0.535649  0.407338  0.085336
0.612442  0.497006  0.072288
0.696391  0.561612  0.074012
0.803860  0.612172  0.086331
0.919944  0.687677  0.076219
0.384742  0.313654  0.108310
0.462832  0.379624  0.088293
0.557228  0.438521  0.091051
0.611921  0.489879  0.091167
0.704005  0.573999  0.074575
0.775632  0.648518  0.076845
0.857189  0.699130  0.081598
0.951423  0.753192  0.093131
0.469488  0.372463  0.095814
0.528045  0.420783  0.089434
0.625103  0.497867  0.084348
0.694294  0.570215  0.076855
0.756454  0.618986  0.089474
0.838362  0.676836  0.087361
0.911520  0.740273  0.083638
1.025372  0.791450  0.090789
0.542084  0.434208  0.092330
0.612058  0.508646  0.090478
0.691518  0.562086  0.081782
0.746585  0.612611  0.086520
0.808809  0.664914  0.082074
0.887562  0.716241  0.097205
0.968779  0.774540  0.088246
1.077095  0.839259  0.086399
0.100011  0.093599  0.043102
0.115563  0.110662  0.053370
0.187710  0.165930  0.087386
0.293193  0.238006  0.082336
0.412738  0.306014  0.069636
0.508831  0.368803  0.066396
0.620277  0.435497  0.065629
0.746978  0.479752  0.057036
0.125058  0.126374  0.069390
0.162988  0.161584  0.097103
0.223318  0.201856  0.102504
0.323080  0.267996  0.102938
0.442753  0.338725  0.090292
0.554584  0.401859  0.076422
0.679953  0.466702  0.062006
0.769930  0.511112  0.066571
0.152557  0.166726  0.126001
0.200201  0.209362  0.148173
0.282756  0.257747  0.151726
0.386314  0.327852  0.123981
0.491301  0.384332  0.117668
0.601952  0.441764  0.103813
0.695684  0.503186  0.088094
0.808676  0.577610  0.083155
0.206706  0.222595  0.185098
0.274615  0.269290  0.191215
0.339936  0.303335  0.168873
0.449652  0.372517  0.157051
0.535228  0.414189  0.130904
0.633139  0.490954  0.130056
0.753759  0.559622  0.122001
0.854645  0.622730  0.093193
0.287512  0.282952  0.205192
0.342044  0.306389  0.181825
0.435557  0.375584  0.193041
0.538421  0.436932  0.173525
0.622537  0.496316  0.119719
0.713864  0.569135  0.110120
0.801801  0.620957  0.122707
0.924549  0.678277  0.119908
0.368856  0.333267  0.195444
0.436595  0.387182  0.199247
0.516550  0.429496  0.158196
0.583987  0.485592  0.155332
0.692341  0.565424  0.116964
0.765028  0.631935  0.118811
0.867544  0.703000  0.130267
0.980934  0.756268  0.138711
0.429528  0.379532  0.208604
0.521368  0.431993  0.177897
0.592975  0.490454  0.182348
0.681147  0.557261  0.131381
0.757196  0.619526  0.134636
0.831982  0.687492  0.134528
0.912440  0.744230  0.118352
0.997157  0.780142  0.125110
0.504745  0.434983  0.212372
0.600678  0.497876  0.164788
0.683080  0.555425  0.165297
0.754675  0.629482  0.135362
0.815739  0.682161  0.128329
0.898521  0.738712  0.116462
0.964909  0.776116  0.137762
1.067070  0.831316  0.137792
0.132194  0.141970  0.105724
0.148529  0.165084  0.124392
0.188698  0.190827  0.140520
0.313191  0.260880  0.125745
0.429887  0.326822  0.093621
0.532472  0.385874  0.089897
0.636136  0.452948  0.079062
0.723626  0.501964  0.079215
0.162061  0.176537  0.147772
0.184484  0.217167  0.192031
0.232455  0.255266  0.217370
0.337320  0.304536  0.177943
0.470016  0.374651  0.144028
0.546921  0.411925  0.136894
0.659526  0.483493  0.109474
0.779860  0.552853  0.104797
0.204429  0.245832  0.230149
0.222330  0.269268  0.260267
0.245836  0.273866  0.242313
0.363560  0.358492  0.257830
0.489387  0.419148  0.230554
0.593348  0.467256  0.151356
0.702917  0.535715  0.146025
0.814033  0.603396  0.141792
0.222049  0.277665  0.279541
0.261206  0.322830  0.322828
0.320817  0.352026  0.316190
0.412481  0.404637  0.313840
0.529302  0.453280  0.259791
0.625010  0.506060  0.227721
0.755408  0.584761  0.204621
0.844702  0.633825  0.194414
0.254186  0.319843  0.322282
0.328618  0.367044  0.339924
0.397498  0.400720  0.333591
0.479828  0.450862  0.335128
0.579419  0.501418  0.295317
0.696638  0.576166  0.282740
0.824729  0.646580  0.235752
0.921266  0.698871  0.244960
0.312715  0.369606  0.354220
0.399065  0.424795  0.369258
0.481379  0.449509  0.336064
0.559547  0.507689  0.334868
0.661265  0.575521  0.323885
0.762693  0.640616  0.272661
0.857625  0.699188  0.261294
0.961990  0.755745  0.263377
0.353596  0.397404  0.366422
0.454467  0.449171  0.366660
0.561068  0.511816  0.332084
0.636024  0.562575  0.342930
0.736951  0.628741  0.323026
0.813308  0.676176  0.306285
0.914469  0.739244  0.265161
1.016098  0.799686  0.241545
0.441289  0.453555  0.381499
0.553666  0.517175  0.351103
0.633514  0.557791  0.332220
0.718323  0.617450  0.318003
0.791225  0.668487  0.302924
0.905557  0.735488  0.280685
0.963915  0.777436  0.277763
1.081435  0.837469  0.254566
0.160205  0.189834  0.167265
0.179270  0.222502  0.202984
0.222093  0.259755  0.230264
0.283295  0.305562  0.247479
0.446195  0.365688  0.169776
0.539061  0.432006  0.148074
0.648311  0.474013  0.137994
0.741914  0.537974  0.138172
0.189866  0.227237  0.213238
0.223750  0.264356  0.256606
0.256663  0.304628  0.291275
0.326671  0.351263  0.305559
0.462998  0.403630  0.226973
0.558678  0.453566  0.201578
0.678216  0.520746  0.182540
0.787015  0.585515  0.183414
0.230881  0.278651  0.266057
0.259314  0.317089  0.317512
0.283335  0.354705  0.364289
0.393909  0.418548  0.371572
0.459875  0.459266  0.364590
0.592378  0.508471  0.270750
0.708801  0.575477  0.263066
0.829647  0.641910  0.246625
0.264483  0.329505  0.335151
0.290858  0.371651  0.380763
0.318466  0.402562  0.418013
0.390991  0.434021  0.405339
0.499394  0.498944  0.405463
0.639665  0.561268  0.345196
0.736845  0.617184  0.323952
0.864966  0.679393  0.296396
0.307325  0.390299  0.403983
0.345055  0.434731  0.453349
0.365770  0.450745  0.456599
0.470072  0.505536  0.454513
0.556842  0.563638  0.480710
0.649493  0.590836  0.423351
0.779539  0.667520  0.397233
0.907694  0.731607  0.362510
0.332492  0.427266  0.453214
0.363061  0.460103  0.480690
0.440524  0.484829  0.457520
0.522764  0.544420  0.484630
0.605948  0.591802  0.490110
0.714278  0.660719  0.484347
0.865036  0.734834  0.437167
0.935216  0.779175  0.430638
0.364086  0.463962  0.491766
0.430643  0.509932  0.500859
0.513382  0.544163  0.475316
0.585570  0.590970  0.495644
0.692641  0.651308  0.494102
0.804948  0.712896  0.463806
0.905875  0.767151  0.460665
0.999129  0.815716  0.475467
0.397974  0.507744  0.529249
0.487706  0.530136  0.488912
0.562024  0.580899  0.508245
0.667549  0.638613  0.487616
0.786021  0.706390  0.481252
0.866047  0.744912  0.464287
0.967333  0.812360  0.484690
1.056047  0.852276  0.489635
0.186373  0.230793  0.222790
0.225906  0.277420  0.275859
0.246829  0.304763  0.299816
0.297587  0.339219  0.316216
0.409242  0.398124  0.301293
0.544193  0.459424  0.245831
0.671152  0.525944  0.215706
0.766706  0.558617  0.181296
0.233466  0.287771  0.287634
0.250105  0.312349  0.316824
0.282520  0.360421  0.367609
0.340101  0.404824  0.401095
0.423469  0.437307  0.386722
0.548865  0.489417  0.329112
0.678751  0.549500  0.274324
0.783678  0.614886  0.253661
0.266504  0.337365  0.352262
0.298352  0.377919  0.391004
0.316364  0.402242  0.425769
0.380676  0.458513  0.459561
0.464531  0.497484  0.451698
0.566231  0.547680  0.430138
0.708447  0.615012  0.369986
0.823898  0.666767  0.334635
0.293846  0.383628  0.407765
0.328080  0.421139  0.438889
0.358532  0.462637  0.485096
0.379194  0.490351  0.519931
0.499862  0.539043  0.491764
0.601127  0.592630  0.499159
0.729307  0.663154  0.452254
0.859922  0.707906  0.398100
0.331018  0.431908  0.454542
0.361932  0.474429  0.503213
0.395835  0.514984  0.537913
0.452689  0.561758  0.585982
0.534373  0.598085  0.567487
0.639396  0.652045  0.577418
0.780625  0.707322  0.522381
0.913653  0.772304  0.481724
0.365819  0.473303  0.505315
0.395119  0.504315  0.536677
0.442761  0.555030  0.583248
0.481169  0.597022  0.621804
0.580231  0.627941  0.590972
0.695298  0.709256  0.629336
0.821061  0.757206  0.600167
0.942191  0.807418  0.544301
0.411674  0.522875  0.556486
0.440365  0.554056  0.585386
0.482450  0.598222  0.631224
0.554908  0.633099  0.615307
0.681054  0.692203  0.616514
0.777668  0.745727  0.635982
0.884316  0.800844  0.620056
1.000573  0.845438  0.598073
0.446031  0.568631  0.602376
0.477563  0.603688  0.640915
0.536825  0.632257  0.630885
0.649708  0.693350  0.633251
0.739183  0.725676  0.630371
0.845077  0.780598  0.622977
0.944300  0.837324  0.631765
1.048714  0.878096  0.609895
0.243572  0.304270  0.309441
0.262477  0.332636  0.334815
0.284488  0.365327  0.378178
0.322659  0.395248  0.398376
0.422029  0.439841  0.381892
0.516941  0.497370  0.371296
0.642240  0.530322  0.299203
0.773237  0.597799  0.271015
0.264325  0.347278  0.368670
0.298968  0.387853  0.407987
0.314729  0.410502  0.433568
0.364457  0.451528  0.466275
0.454314  0.504866  0.473939
0.558569  0.558024  0.464541
0.674636  0.599877  0.398859
0.803122  0.652296  0.365849
0.306864  0.400397  0.421821
0.336826  0.428733  0.451290
0.374733  0.486457  0.508480
0.400645  0.504841  0.527364
0.461406  0.541162  0.536985
0.582676  0.607698  0.535311
0.687136  0.637426  0.469935
0.828012  0.713905  0.456044
0.329567  0.434661  0.467071
0.375945  0.468291  0.489422
0.418660  0.524410  0.560780
0.422904  0.552886  0.586357
0.486044  0.597169  0.622466
0.611353  0.639756  0.587562
0.730082  0.694689  0.549559
0.844460  0.761114  0.552328
0.380621  0.490005  0.523298
0.408069  0.529834  0.563535
0.449323  0.568590  0.604469
0.481731  0.602315  0.632667
0.529455  0.657776  0.678955
0.646337  0.695676  0.652064
0.746551  0.734527  0.623838
0.912713  0.804965  0.603159
0.409975  0.525312  0.559541
0.445483  0.566860  0.601191
0.477266  0.612646  0.648542
0.515700  0.642165  0.681864
0.572781  0.700563  0.733736
0.693028  0.752414  0.723688
0.822237  0.801350  0.696034
0.937096  0.840232  0.674328
0.454181  0.577114  0.609819
0.494269  0.618367  0.649239
0.541433  0.666722  0.689470
0.573596  0.690300  0.720193
0.631619  0.742900  0.762350
0.730261  0.786193  0.757192
0.866908  0.836246  0.737735
0.975915  0.870596  0.705804
0.490492  0.612476  0.643481
0.523660  0.646979  0.674217
0.568488  0.695402  0.736282
0.602904  0.719868  0.755703
0.696235  0.782951  0.791370
0.821231  0.820972  0.750412
0.914839  0.863824  0.751599
1.024413  0.908683  0.740227
0.279881  0.370183  0.394036
0.310434  0.391006  0.412844
0.337386  0.434554  0.462428
0.362859  0.468536  0.504699
0.420897  0.489765  0.478340
0.514746  0.530130  0.470074
0.626407  0.573717  0.412082
0.768198  0.646514  0.383383
0.312163  0.409811  0.438149
0.337522  0.444122  0.475496
0.362315  0.467166  0.499287
0.404822  0.520385  0.555598
0.446383  0.548203  0.569202
0.547530  0.585283  0.528969
0.658902  0.638604  0.524019
0.801760  0.709112  0.465722
0.344593  0.451283  0.478369
0.378130  0.484012  0.521186
0.408949  0.518943  0.554603
0.450618  0.568648  0.601091
0.485470  0.609622  0.638039
0.595661  0.646429  0.613631
0.691477  0.698051  0.605922
0.815399  0.748277  0.568422
0.376182  0.490327  0.519138
0.400311  0.517782  0.548966
0.458662  0.579672  0.616752
0.496085  0.622117  0.657729
0.529637  0.667576  0.699009
0.594037  0.693549  0.691764
0.743826  0.738373  0.647109
0.862746  0.793868  0.637909
0.413778  0.525971  0.557891
0.461879  0.579482  0.610448
0.495796  0.620353  0.643430
0.540476  0.668183  0.703477
0.591670  0.719340  0.767015
0.628071  0.738376  0.752194
0.766303  0.776713  0.710092
0.895892  0.838363  0.702263
0.453592  0.573334  0.610425
0.491227  0.625833  0.660407
0.532542  0.663317  0.700218
0.599180  0.727882  0.771563
0.627610  0.761172  0.799911
0.688690  0.807259  0.846843
0.797237  0.836224  0.813598
0.932267  0.870921  0.759333
0.493714  0.622212  0.658079
0.533762  0.653811  0.683205
0.567569  0.704197  0.743490
0.627531  0.760938  0.810696
0.677831  0.798433  0.840351
0.732616  0.846267  0.884626
0.832484  0.891270  0.898971
0.963417  0.907492  0.797367
0.526708  0.661726  0.697542
0.570178  0.699700  0.737358
0.606758  0.740080  0.795481
0.676002  0.797216  0.842370
0.719919  0.833124  0.883344
0.797075  0.883977  0.914335
0.869751  0.918562  0.932538
1.006299  0.952496  0.859696
0.321263  0.418845  0.447432
0.337118  0.444928  0.483667
0.379852  0.494076  0.528658
0.408849  0.535268  0.569823
0.451706  0.580205  0.613663
0.510792  0.591165  0.582327
0.640724  0.643350  0.549125
0.788944  0.699598  0.492212
0.345148  0.453197  0.485693
0.370456  0.487199  0.533065
0.420968  0.542004  0.583389
0.455489  0.583813  0.621060
0.497181  0.623937  0.658025
0.547978  0.662919  0.678343
0.641871  0.677100  0.631989
0.793140  0.740413  0.577335
0.373878  0.489760  0.533162
0.414201  0.534827  0.569702
0.461128  0.586709  0.623110
0.511097  0.641402  0.673823
0.550097  0.681469  0.722683
0.595572  0.718210  0.752719
0.701435  0.740242  0.696969
0.836137  0.791928  0.674861
0.419941  0.543081  0.572197
0.455929  0.578181  0.613572
0.501408  0.632629  0.668580
0.562508  0.687573  0.723640
0.584666  0.716211  0.761661
0.628080  0.759045  0.807310
0.698745  0.793564  0.817034
0.854323  0.833033  0.736697
0.447147  0.569196  0.612364
0.495866  0.621319  0.656712
0.540528  0.668095  0.701624
0.583267  0.716420  0.764606
0.627263  0.753374  0.801332
0.675661  0.794714  0.847187
0.755097  0.855221  0.902764
0.863567  0.879688  0.839193
0.482213  0.601690  0.641210
0.523040  0.652622  0.681589
0.576291  0.710800  0.742573
0.616588  0.747606  0.799484
0.651391  0.775622  0.826764
0.734504  0.846025  0.883196
0.809045  0.892093  0.929732
0.884760  0.929877  0.929224
0.526844  0.659529  0.694406
0.575542  0.704003  0.747964
0.608835  0.742115  0.791805
0.650736  0.773705  0.824972
0.709499  0.827851  0.872953
0.778936  0.872364  0.914604
0.848891  0.920785  0.947465
0.911892  0.957327  0.967346
0.572368  0.693131  0.727834
0.578962  0.722021  0.773244
0.637949  0.771190  0.822268
0.700474  0.817823  0.864003
0.750628  0.857500  0.902172
0.833524  0.908826  0.935218
0.891874  0.941424  0.965758
0.947813  0.977179  0.981954
