LUT/LUT_5.CUBE
TITLE "LUT_5" 
#LUT size 
LUT_3D_SIZE 5 
#data point 
DOMAIN_MIN 0.000000 0.000000 0.000000
DOMAIN_MAX 0.857143 0.857143 0.857143
0.024362  0.023000  0.012926
0.163356  0.107478  0.030635
0.376459  0.153314  0.009846
0.571322  0.175135  -0.000889
0.779679  0.185433  -0.013497
0.114997  0.104643  0.052838
0.231192  0.187730  0.046586
0.410825  0.244552  0.034972
0.601118  0.293817  0.028483
0.802775  0.319171  0.022041
0.217889  0.225827  0.064404
0.331224  0.320802  0.049910
0.448903  0.393207  0.045949
0.625612  0.449082  0.041373
0.827193  0.461822  0.044516
0.308077  0.361720  0.066611
0.424254  0.448057  0.051072
0.528129  0.529660  0.042529
0.669040  0.606225  0.038193
0.845282  0.653407  0.043148
0.387915  0.483434  0.060222
0.509253  0.557404  0.045710
0.617428  0.639094  0.044586
0.748628  0.719273  0.049326
0.889408  0.786368  0.052404
0.065681  0.101627  0.108976
0.159386  0.166883  0.123301
0.364173  0.192186  0.094281
0.563915  0.203932  0.095793
0.771689  0.201316  0.102285
0.116013  0.169962  0.190061
0.200848  0.233907  0.209574
0.400351  0.300886  0.172171
0.587603  0.344154  0.141815
0.790907  0.366446  0.134908
0.190410  0.248968  0.256629
0.303056  0.325597  0.242279
0.440343  0.410451  0.210517
0.617803  0.444822  0.201923
0.816664  0.487671  0.185004
0.280795  0.356152  0.267643
0.397929  0.442781  0.244452
0.515571  0.531647  0.237104
0.666467  0.619111  0.213394
0.838857  0.648074  0.202492
0.363103  0.479601  0.261183
0.489515  0.561539  0.236837
0.604048  0.646494  0.245992
0.739141  0.733192  0.226601
0.899151  0.790959  0.202422
0.079734  0.170299  0.226269
0.155784  0.227301  0.252740
0.356584  0.252815  0.253238
0.575408  0.242467  0.251526
0.787294  0.229660  0.255442
0.146900  0.248721  0.300973
0.215926  0.300581  0.337224
0.364954  0.371892  0.331798
0.565492  0.407011  0.307588
0.783609  0.414166  0.295403
0.208386  0.322194  0.384079
0.269344  0.380232  0.436677
0.417000  0.447950  0.408060
0.599885  0.512190  0.383266
0.800019  0.553048  0.351602
0.260820  0.391699  0.460912
0.367741  0.458749  0.478788
0.499988  0.551863  0.448253
0.648963  0.625705  0.439878
0.839320  0.670789  0.421578
0.327168  0.462026  0.504954
0.467925  0.559654  0.476282
0.593433  0.642101  0.452018
0.718367  0.726602  0.441132
0.880261  0.808623  0.441333
0.031727  0.200003  0.463636
0.171034  0.268657  0.425556
0.363523  0.284228  0.419360
0.574065  0.266610  0.424815
0.797687  0.261473  0.431356
0.115908  0.336044  0.476579
0.245608  0.392884  0.466255
0.358834  0.440953  0.474856
0.564773  0.463919  0.466412
0.781916  0.450406  0.457053
0.199005  0.406468  0.525367
0.320823  0.465634  0.528226
0.410561  0.523673  0.557057
0.571158  0.584436  0.539143
0.775891  0.628258  0.517276
0.273171  0.476645  0.592563
0.383683  0.543422  0.611289
0.471155  0.605782  0.645301
0.635966  0.671851  0.624129
0.807227  0.735285  0.595446
0.325237  0.539717  0.662309
0.434681  0.603467  0.672436
0.552133  0.670404  0.693319
0.717482  0.744958  0.666736
0.876038  0.820826  0.661161
0.031565  0.201759  0.669228
0.169358  0.262284  0.670418
0.329855  0.288995  0.684803
0.579479  0.277359  0.626687
0.785199  0.266378  0.634009
0.077426  0.365064  0.668769
0.226277  0.432516  0.672604
0.346622  0.490704  0.686530
0.565761  0.494957  0.631124
0.778933  0.486823  0.641031
0.182036  0.465282  0.677346
0.317953  0.546385  0.679238
0.424030  0.618323  0.711327
0.567690  0.669836  0.693769
0.780806  0.680311  0.669606
0.255717  0.524087  0.729883
0.407189  0.613017  0.723171
0.498405  0.677638  0.765952
0.604881  0.753762  0.818006
0.789328  0.801785  0.750692
0.327149  0.588344  0.797806
0.468565  0.664371  0.779310
0.574780  0.743312  0.832736
0.683344  0.811405  0.866124
0.835917  0.879427  0.858731
